/* XPM */
static const char * error_xpm[] = {
"68 79 1295 2",
"  	c None",
". 	c #B4281C",
"+ 	c #B52B20",
"@ 	c #C3544A",
"# 	c #D27B73",
"$ 	c #E3A5A0",
"% 	c #EEC7C4",
"& 	c #F2D2D0",
"* 	c #F3D5D2",
"= 	c #F3D3D0",
"- 	c #F3D2CF",
"; 	c #F1D0CD",
"> 	c #F0CFCC",
", 	c #E8B6B2",
"' 	c #D98E88",
") 	c #CB6A61",
"! 	c #BC3F34",
"~ 	c #BB3C31",
"{ 	c #D98C86",
"] 	c #F1CDCA",
"^ 	c #F7DDDA",
"/ 	c #F7D4D2",
"( 	c #F7CFCC",
"_ 	c #F5C4C0",
": 	c #F2B5B0",
"< 	c #F0AFA9",
"[ 	c #EFABA5",
"} 	c #EEA7A2",
"| 	c #EEA59F",
"1 	c #ECA19B",
"2 	c #EB9E98",
"3 	c #EDA6A0",
"4 	c #EFB3AE",
"5 	c #EFB8B4",
"6 	c #F2CAC6",
"7 	c #F2D2CF",
"8 	c #E4ABA6",
"9 	c #CA665D",
"0 	c #B52B1F",
"a 	c #B52A1E",
"b 	c #CE6F67",
"c 	c #F1CCC9",
"d 	c #F8DCDA",
"e 	c #F8D3D0",
"f 	c #F5C0BC",
"g 	c #F3B9B4",
"h 	c #F3B6B1",
"i 	c #F2B3AE",
"j 	c #F1AFAA",
"k 	c #F0ACA6",
"l 	c #EFA9A4",
"m 	c #EEA6A0",
"n 	c #EDA29C",
"o 	c #EC9F99",
"p 	c #EB9C95",
"q 	c #EA9891",
"r 	c #E9958F",
"s 	c #E8928A",
"t 	c #E68E87",
"u 	c #E58B84",
"v 	c #E48780",
"w 	c #E7968F",
"x 	c #ECB3AE",
"y 	c #E09F9A",
"z 	c #BE4439",
"A 	c #F6DCDA",
"B 	c #F8D8D6",
"C 	c #F6C6C2",
"D 	c #F5BEB9",
"E 	c #F4BBB6",
"F 	c #F3B8B3",
"G 	c #F2B4AF",
"H 	c #F1B1AC",
"I 	c #F0AEA8",
"J 	c #F0AAA4",
"K 	c #EFA7A2",
"L 	c #EEA49E",
"M 	c #EDA19A",
"N 	c #EC9E97",
"O 	c #EB9A94",
"P 	c #E99690",
"Q 	c #E8948D",
"R 	c #E79089",
"S 	c #E68C85",
"T 	c #E58A82",
"U 	c #E4867E",
"V 	c #E2827A",
"W 	c #E17E77",
"X 	c #E07C73",
"Y 	c #DE7870",
"Z 	c #E38E88",
"` 	c #EFC3C0",
" .	c #E6AFAB",
"..	c #BF493F",
"+.	c #C5584F",
"@.	c #F5D9D7",
"#.	c #F9D8D5",
"$.	c #F6C5C1",
"%.	c #F5C0BB",
"&.	c #F4BCB7",
"*.	c #F4B9B4",
"=.	c #F2B2AD",
"-.	c #F1B0AA",
";.	c #F0ACA7",
">.	c #EFA9A3",
",.	c #EC9F98",
"'.	c #EB9B95",
").	c #EA9892",
"!.	c #E9958E",
"~.	c #E8918A",
"{.	c #E78E87",
"].	c #E68B83",
"^.	c #E4877F",
"/.	c #E3847C",
"(.	c #E28078",
"_.	c #E07C75",
":.	c #DF7A71",
"<.	c #DE766E",
"[.	c #DC726A",
"}.	c #DB7067",
"|.	c #DA6B63",
"1.	c #DE7F76",
"2.	c #EDBFBB",
"3.	c #DF9F9A",
"4.	c #B83328",
"5.	c #B73025",
"6.	c #E7B4AF",
"7.	c #F9DEDC",
"8.	c #F7C9C5",
"9.	c #F6C0BC",
"0.	c #F4BAB6",
"a.	c #F3B7B2",
"b.	c #F2B1AB",
"c.	c #F1ADA8",
"d.	c #F0AAA5",
"e.	c #EFA7A1",
"f.	c #EEA39D",
"g.	c #EC9D96",
"h.	c #EB9993",
"i.	c #EA9790",
"j.	c #E9938C",
"k.	c #E88F88",
"l.	c #E68D85",
"m.	c #E58981",
"n.	c #E4857E",
"o.	c #E3827A",
"p.	c #E17F77",
"q.	c #E07B73",
"r.	c #DF776F",
"s.	c #DD756C",
"t.	c #DC7068",
"u.	c #DA6D64",
"v.	c #DA6A61",
"w.	c #D8665D",
"x.	c #D76359",
"y.	c #D55F56",
"z.	c #DD827B",
"A.	c #EFCCC9",
"B.	c #CA675F",
"C.	c #C04B41",
"D.	c #F5DAD8",
"E.	c #F6C2BE",
"F.	c #F5BFBA",
"G.	c #F5BCB7",
"H.	c #F3B5B0",
"I.	c #F2B3AD",
"J.	c #F1AFA9",
"K.	c #F0A9A3",
"L.	c #EFA59F",
"M.	c #EEA19B",
"N.	c #ED9E98",
"O.	c #EC9B95",
"P.	c #EB9891",
"Q.	c #E9948D",
"R.	c #E78E86",
"S.	c #E68A82",
"T.	c #E5877F",
"U.	c #E4847C",
"V.	c #E17D75",
"W.	c #E07971",
"X.	c #DE756D",
"Y.	c #DD736A",
"Z.	c #DB6F66",
"`.	c #DA6B62",
" +	c #D9685F",
".+	c #D8645B",
"++	c #D66157",
"@+	c #D55E54",
"#+	c #D35A50",
"$+	c #D1564C",
"%+	c #D1574D",
"&+	c #E8AEA9",
"*+	c #DD9C96",
"=+	c #B52C20",
"-+	c #CF7067",
";+	c #F8E1DF",
">+	c #F7CAC6",
",+	c #F6C1BC",
"'+	c #F5BDB8",
")+	c #F4BAB5",
"!+	c #F4B7B2",
"~+	c #F3B3AE",
"{+	c #F2B0AB",
"]+	c #EFA6A0",
"^+	c #EEA49D",
"/+	c #EDA09A",
"(+	c #EC9C96",
"_+	c #EB9A93",
":+	c #EA968F",
"<+	c #E9928B",
"[+	c #E78C85",
"}+	c #E68880",
"|+	c #E27E76",
"1+	c #E17B73",
"2+	c #DE746B",
"3+	c #DC7067",
"4+	c #DB6D64",
"5+	c #D96960",
"6+	c #D9655C",
"7+	c #D65F55",
"8+	c #D45B51",
"9+	c #D3584E",
"0+	c #D1544A",
"a+	c #CF5046",
"b+	c #CE4D43",
"c+	c #CC493F",
"d+	c #DA7F77",
"e+	c #EBC1BF",
"f+	c #B9372C",
"g+	c #D47E77",
"h+	c #F9E0DE",
"i+	c #F7C4BF",
"j+	c #F6BFBA",
"k+	c #F5BBB7",
"l+	c #F4B8B3",
"m+	c #F2B2AC",
"n+	c #F1AEA9",
"o+	c #F1ACA6",
"p+	c #F0A8A2",
"q+	c #EFA49E",
"r+	c #EEA29B",
"s+	c #EC9B94",
"t+	c #EB9790",
"u+	c #EA948D",
"v+	c #E9918A",
"w+	c #E88D85",
"x+	c #E68A83",
"y+	c #E4837B",
"z+	c #E38078",
"A+	c #E17C74",
"B+	c #E07970",
"C+	c #DF756D",
"D+	c #DD7269",
"E+	c #DC6E65",
"F+	c #DB6B63",
"G+	c #D9685E",
"H+	c #D8645A",
"I+	c #D76157",
"J+	c #D55D53",
"K+	c #D45950",
"L+	c #D2564C",
"M+	c #D05248",
"N+	c #CF4F44",
"O+	c #CD4B41",
"P+	c #CB483D",
"Q+	c #C94439",
"R+	c #C84035",
"S+	c #D05E55",
"T+	c #EDC8C5",
"U+	c #BD4036",
"V+	c #D88D85",
"W+	c #F9DDDA",
"X+	c #F5BDB9",
"Y+	c #F5BAB5",
"Z+	c #F4B6B1",
"`+	c #F1ADA7",
" @	c #EFA39D",
".@	c #EE9F99",
"+@	c #ED9C96",
"@@	c #EC9992",
"#@	c #EB958E",
"$@	c #EA928B",
"%@	c #E78B84",
"&@	c #E68881",
"*@	c #E5857D",
"=@	c #E48179",
"-@	c #E17A72",
";@	c #E0776E",
">@	c #DE746C",
",@	c #DD7067",
"'@	c #DA6960",
")@	c #D9665C",
"!@	c #D86259",
"~@	c #D65E54",
"{@	c #D55C51",
"]@	c #D3574E",
"^@	c #D15449",
"/@	c #D05046",
"(@	c #CC493E",
"_@	c #CB463B",
":@	c #C94237",
"<@	c #C73E33",
"[@	c #C53B30",
"}@	c #C4372B",
"|@	c #CA4E44",
"1@	c #EDC9C6",
"2@	c #D17870",
"3@	c #F6BEBA",
"4@	c #F5BBB6",
"5@	c #F3B5AF",
"6@	c #F3B1AC",
"7@	c #F2AEA9",
"8@	c #F1ABA5",
"9@	c #F0A7A1",
"0@	c #EFA59E",
"a@	c #ED9E97",
"b@	c #EA948C",
"c@	c #E88D86",
"d@	c #E78982",
"e@	c #E6867E",
"f@	c #E37F77",
"g@	c #E27C74",
"h@	c #E17970",
"i@	c #DF756C",
"j@	c #DE7169",
"k@	c #DB6B62",
"l@	c #D9675E",
"m@	c #D76057",
"n@	c #D65C52",
"o@	c #D45A50",
"p@	c #D3564C",
"q@	c #D15247",
"r@	c #CE4B41",
"s@	c #CC473C",
"t@	c #CA4439",
"u@	c #C84036",
"v@	c #C73C31",
"w@	c #C5392D",
"x@	c #C33529",
"y@	c #C13126",
"z@	c #BF2E22",
"A@	c #C64539",
"B@	c #ECC7C3",
"C@	c #C86259",
"D@	c #F9DFDD",
"E@	c #F6BEB9",
"F@	c #F5B9B4",
"G@	c #F2AFAA",
"H@	c #F1A9A3",
"I@	c #F0A69F",
"J@	c #EFA29C",
"K@	c #ED9C95",
"L@	c #EC9891",
"M@	c #EB958F",
"N@	c #E98E87",
"O@	c #E88C84",
"P@	c #E5847C",
"Q@	c #E48279",
"R@	c #E37E75",
"S@	c #DF736B",
"T@	c #DD6F67",
"U@	c #DC6D64",
"V@	c #DB6960",
"W@	c #D76258",
"X@	c #D75E55",
"Y@	c #D55B50",
"Z@	c #D4574D",
"`@	c #D2544A",
" #	c #D05045",
".#	c #CF4C42",
"+#	c #CD493F",
"@#	c #CB453A",
"##	c #CA4137",
"$#	c #C83F34",
"%#	c #C63A2F",
"&#	c #C23328",
"*#	c #C03024",
"=#	c #BE2C20",
"-#	c #BD281C",
";#	c #BB2518",
">#	c #C64C44",
",#	c #EAC2BE",
"'#	c #B62D21",
")#	c #BA3B30",
"!#	c #F8DFDE",
"~#	c #F5B8B2",
"{#	c #F4B4AF",
"]#	c #F2AEA8",
"^#	c #F1AAA4",
"/#	c #EEA19A",
"(#	c #EE9E97",
"_#	c #ED9A93",
":#	c #EC9690",
"<#	c #EB948D",
"[#	c #EA9089",
"}#	c #E88C85",
"|#	c #E78A82",
"1#	c #E5827B",
"2#	c #E47F76",
"3#	c #E17870",
"4#	c #E0746C",
"5#	c #DE7269",
"6#	c #DD6E65",
"7#	c #DB6A61",
"8#	c #DA685E",
"9#	c #D9635A",
"0#	c #D76056",
"a#	c #D65C53",
"b#	c #D5594F",
"c#	c #D3554B",
"d#	c #D25248",
"e#	c #D04F44",
"f#	c #CE4A40",
"g#	c #CD483D",
"h#	c #CB4438",
"i#	c #C94035",
"j#	c #C73D32",
"k#	c #C6392D",
"l#	c #C43529",
"m#	c #C23025",
"n#	c #C02D21",
"o#	c #BB2417",
"p#	c #BA2115",
"q#	c #B71D11",
"r#	c #B71A0D",
"s#	c #CE665D",
"t#	c #DE9F99",
"u#	c #F0CCC9",
"v#	c #F7C6C2",
"w#	c #F3B2AD",
"x#	c #F3B0AA",
"y#	c #F2ACA6",
"z#	c #F0A59F",
"A#	c #EE9F98",
"B#	c #ED9B95",
"C#	c #EC9991",
"D#	c #EA918A",
"E#	c #E98F87",
"F#	c #E88B83",
"G#	c #E78780",
"H#	c #E6847C",
"I#	c #E37D74",
"J#	c #E27A72",
"K#	c #E1776E",
"L#	c #DF736A",
"M#	c #DE7067",
"N#	c #DD6C63",
"O#	c #DB685F",
"P#	c #DA665C",
"Q#	c #D86258",
"R#	c #D75E54",
"S#	c #D65A50",
"T#	c #D35449",
"U#	c #D14F45",
"V#	c #CF4D42",
"W#	c #CE483E",
"X#	c #CC453A",
"Y#	c #CA4237",
"Z#	c #C93E33",
"`#	c #C53428",
" $	c #C22B1F",
".$	c #BF2518",
"+$	c #BD1F13",
"@$	c #BB1D10",
"#$	c #B91A0D",
"$$	c #B8190C",
"%$	c #B7190C",
"&$	c #B6180C",
"*$	c #B6180B",
"=$	c #B5180B",
"-$	c #B4170B",
";$	c #E0A29C",
">$	c #CC6B63",
",$	c #D78780",
"'$	c #F8D0CD",
")$	c #F3B0AB",
"!$	c #F2ADA7",
"~$	c #F2AAA5",
"{$	c #F1A7A1",
"]$	c #F0A49D",
"^$	c #EFA19A",
"/$	c #EE9D96",
"($	c #ED9993",
"_$	c #EC9790",
":$	c #EB938C",
"<$	c #EA9088",
"[$	c #E98D85",
"}$	c #EC9E98",
"|$	c #F6D0CD",
"1$	c #E47F77",
"2$	c #E37C73",
"3$	c #E1786F",
"4$	c #E0756C",
"5$	c #DF7168",
"6$	c #DD6D64",
"7$	c #DC6A61",
"8$	c #DB675D",
"9$	c #D96359",
"0$	c #D86057",
"a$	c #D75C52",
"b$	c #D5584E",
"c$	c #D4554B",
"d$	c #D25247",
"e$	c #D04E43",
"f$	c #CF4B40",
"g$	c #CD473C",
"h$	c #E9B0AB",
"i$	c #E5A49E",
"j$	c #C02317",
"k$	c #BD1B0E",
"l$	c #BC1B0E",
"m$	c #BB1A0E",
"n$	c #BA1A0D",
"o$	c #B3170A",
"p$	c #B41D12",
"q$	c #ECC7C5",
"r$	c #B9352A",
"s$	c #BA382D",
"t$	c #F8DFDD",
"u$	c #F3AFA9",
"v$	c #F2ABA6",
"w$	c #EFA29B",
"x$	c #ED9891",
"y$	c #EC948D",
"z$	c #EB918A",
"A$	c #EA8E87",
"B$	c #E88A82",
"C$	c #F7D9D6",
"D$	c #F7DAD8",
"E$	c #EA9D96",
"F$	c #E1766D",
"G$	c #E0736A",
"H$	c #DE6F66",
"I$	c #DD6C62",
"J$	c #DC6860",
"K$	c #DA655B",
"L$	c #D96157",
"M$	c #D65B50",
"N$	c #D5564D",
"O$	c #D25045",
"P$	c #D04C42",
"Q$	c #CD4438",
"R$	c #C83327",
"S$	c #C52D20",
"T$	c #E8ADA7",
"U$	c #F6E1DF",
"V$	c #F7E3E1",
"W$	c #E7ABA6",
"X$	c #BE2115",
"Y$	c #B2160A",
"Z$	c #B1160A",
"`$	c #C45046",
" %	c #DFA29D",
".%	c #EAB7B3",
"+%	c #F6C1BD",
"@%	c #F3ADA7",
"#%	c #F2AAA4",
"$%	c #F1A6A0",
"%%	c #EFA09A",
"&%	c #EE9C95",
"*%	c #EE9A93",
"=%	c #ED968F",
"-%	c #EB938B",
";%	c #E98C85",
">%	c #E88981",
",%	c #F7D8D6",
"'%	c #F8DCD9",
")%	c #F7DBD9",
"!%	c #E8968F",
"~%	c #DE6D64",
"{%	c #DD6A60",
"]%	c #DB665D",
"^%	c #DA6359",
"/%	c #D86056",
"(%	c #D75B52",
"_%	c #D6594E",
":%	c #D35146",
"<%	c #D14E43",
"[%	c #CD4237",
"}%	c #C72D20",
"|%	c #C21E11",
"1%	c #C32518",
"2%	c #F7E4E3",
"3%	c #F8E6E5",
"4%	c #E6ACA8",
"5%	c #BC1F13",
"6%	c #B01509",
"7%	c #AF1509",
"8%	c #E3ADA9",
"9%	c #C25046",
"0%	c #BD4137",
"a%	c #F7D7D5",
"b%	c #F2A8A2",
"c%	c #F1A49E",
"d%	c #F0A29B",
"e%	c #EF9E98",
"f%	c #EE9B94",
"g%	c #ED9790",
"h%	c #EB9189",
"i%	c #EA8D86",
"j%	c #E98A83",
"k%	c #E8877F",
"l%	c #F7D8D5",
"m%	c #F8DBD9",
"n%	c #F7DBD8",
"o%	c #F6DAD8",
"p%	c #E6908A",
"q%	c #DB645B",
"r%	c #D85E54",
"s%	c #D6574D",
"t%	c #D45349",
"u%	c #D24F45",
"v%	c #CE4236",
"w%	c #C7291D",
"x%	c #C31E10",
"y%	c #C21D10",
"z%	c #F8E8E6",
"A%	c #F9E9E8",
"B%	c #E7AFAB",
"C%	c #BA1E12",
"D%	c #AE1508",
"E%	c #B8342A",
"F%	c #E4B3AF",
"G%	c #E6B1AD",
"H%	c #F0A39D",
"I%	c #EF9F99",
"J%	c #ED9992",
"K%	c #ED968E",
"L%	c #EC938C",
"M%	c #EB8F87",
"N%	c #EA8B84",
"O%	c #E98981",
"P%	c #E7857D",
"Q%	c #F8DBD8",
"R%	c #F8DAD8",
"S%	c #E38A83",
"T%	c #D6584E",
"U%	c #D5544A",
"V%	c #D45147",
"W%	c #D1483E",
"X%	c #C92F22",
"Y%	c #C41E11",
"Z%	c #C32417",
"`%	c #F7E2E0",
" &	c #F9EBEA",
".&	c #F9EDEC",
"+&	c #E6B1AC",
"@&	c #B81E13",
"#&	c #AD1408",
"$&	c #AC1408",
"%&	c #E2ADA8",
"&&	c #C14C42",
"*&	c #F6D9D7",
"=&	c #F1A59E",
"-&	c #F0A19B",
";&	c #EF9E97",
">&	c #ED948C",
",&	c #EB9089",
"'&	c #EB8D86",
")&	c #E98A82",
"!&	c #E8867E",
"~&	c #E7847B",
"{&	c #EA958E",
"]&	c #F7D6D4",
"^&	c #F7DAD7",
"/&	c #F6DBD9",
"(&	c #F6DAD7",
"_&	c #E08179",
":&	c #D55348",
"<&	c #D34E43",
"[&	c #CB3428",
"}&	c #C52012",
"|&	c #E8ACA7",
"1&	c #F7E3E2",
"2&	c #F7E5E4",
"3&	c #F8E7E5",
"4&	c #FAEFEE",
"5&	c #FAF1F0",
"6&	c #E7B3AF",
"7&	c #B71E12",
"8&	c #AB1307",
"9&	c #B93D33",
"0&	c #E0A8A4",
"a&	c #D6867E",
"b&	c #F5C1BD",
"c&	c #F09F99",
"d&	c #EF9C95",
"e&	c #EE9991",
"f&	c #EC928B",
"g&	c #EB8E87",
"h&	c #EA8C84",
"i&	c #E98880",
"j&	c #E8847D",
"k&	c #E78279",
"l&	c #F6D6D3",
"m&	c #F8DAD7",
"n&	c #F7D9D7",
"o&	c #F7DCD9",
"p&	c #DC746C",
"q&	c #C8271A",
"r&	c #C51F11",
"s&	c #F8E9E7",
"t&	c #F9EAE9",
"u&	c #FBF2F2",
"v&	c #FCF4F4",
"w&	c #E5ADA9",
"x&	c #AA1307",
"y&	c #A91307",
"z&	c #E9C3C0",
"A&	c #B73024",
"B&	c #F3D2D0",
"C&	c #F0A29C",
"D&	c #EF9A93",
"E&	c #EC9189",
"F&	c #EB8D85",
"G&	c #EA8A82",
"H&	c #E9867E",
"I&	c #E8837B",
"J&	c #E67F77",
"K&	c #E57C74",
"L&	c #F6DBD8",
"M&	c #F7DCDA",
"N&	c #F7DCDB",
"O&	c #F6DCDB",
"P&	c #F4D2D0",
"Q&	c #D4584E",
"R&	c #F9ECEB",
"S&	c #FAEEED",
"T&	c #FAF0EF",
"U&	c #FCF6F5",
"V&	c #F6E5E3",
"W&	c #B51E13",
"X&	c #A81206",
"Y&	c #CE7973",
"Z&	c #CD6F67",
"`&	c #BC3E33",
" *	c #F5D1CF",
".*	c #ED958E",
"+*	c #EC918A",
"@*	c #EC8F87",
"#*	c #EB8B83",
"$*	c #E9887F",
"%*	c #E78179",
"&*	c #E67E75",
"**	c #E57A72",
"=*	c #E4776E",
"-*	c #E2746B",
";*	c #EDACA6",
">*	c #F6D8D6",
",*	c #F5D7D5",
"'*	c #F5D8D6",
")*	c #F4D6D3",
"!*	c #D3594F",
"~*	c #C22216",
"{*	c #E7A7A2",
"]*	c #FBF1F1",
"^*	c #FBF3F3",
"/*	c #F8E9E8",
"(*	c #C1443A",
"_*	c #A71206",
":*	c #AE261C",
"<*	c #D0776F",
"[*	c #F4BDB8",
"}*	c #EC9088",
"|*	c #EA8982",
"1*	c #E9867D",
"2*	c #E77F77",
"3*	c #E67C73",
"4*	c #E4786F",
"5*	c #E3756D",
"6*	c #E27168",
"7*	c #E16E65",
"8*	c #DF6C63",
"9*	c #ECA9A4",
"0*	c #F6DBDA",
"a*	c #F6DCD9",
"b*	c #D35E54",
"c*	c #E7AAA5",
"d*	c #FCF5F4",
"e*	c #FCF7F6",
"f*	c #F7E6E5",
"g*	c #C04036",
"h*	c #A61106",
"i*	c #A51105",
"j*	c #B4291D",
"k*	c #E8B7B2",
"l*	c #EFA099",
"m*	c #EC8E87",
"n*	c #EA8880",
"o*	c #E9847C",
"p*	c #E88078",
"q*	c #E77E75",
"r*	c #E57A71",
"s*	c #E4766D",
"t*	c #E3746B",
"u*	c #E27066",
"v*	c #E06C63",
"w*	c #DF6A60",
"x*	c #DD655C",
"y*	c #DC6359",
"z*	c #EBA59F",
"A*	c #F5D7D4",
"B*	c #F6DDDA",
"C*	c #F6DEDC",
"D*	c #F6DFDD",
"E*	c #F7E1DF",
"F*	c #FAEDEC",
"G*	c #A51005",
"H*	c #D99993",
"I*	c #C14D43",
"J*	c #F4D3D0",
"K*	c #EB8C85",
"L*	c #EB8981",
"M*	c #EA867E",
"N*	c #E9827A",
"O*	c #E77F76",
"P*	c #E5796F",
"Q*	c #E4756C",
"R*	c #E06A61",
"S*	c #DE675D",
"T*	c #DD645A",
"U*	c #DC6056",
"V*	c #DA5C52",
"W*	c #D95A50",
"X*	c #E9A29C",
"Y*	c #F5D6D4",
"Z*	c #F6E0DE",
"`*	c #F8EAE9",
" =	c #C1453B",
".=	c #A41004",
"+=	c #C15F57",
"@=	c #D17D75",
"#=	c #EA877F",
"$=	c #E9837B",
"%=	c #E88178",
"&=	c #E77D74",
"*=	c #E67971",
"==	c #E5776D",
"-=	c #E3736A",
";=	c #E26F66",
">=	c #E16C63",
",=	c #DF695F",
"'=	c #DE655B",
")=	c #DD6258",
"!=	c #DB5F54",
"~=	c #DA5A50",
"{=	c #D8584D",
"]=	c #D75449",
"^=	c #D55146",
"/=	c #E89F99",
"(=	c #F8E5E4",
"_=	c #A31004",
":=	c #B23930",
"<=	c #DC9B96",
"[=	c #BE453A",
"}=	c #F3C5C1",
"|=	c #E87F76",
"1=	c #E77B73",
"2=	c #E5786F",
"3=	c #E37168",
"4=	c #E26E64",
"5=	c #E06A60",
"6=	c #DF675D",
"7=	c #DE645A",
"8=	c #DC5F55",
"9=	c #DB5D52",
"0=	c #D9594E",
"a=	c #D8554A",
"b=	c #D65348",
"c=	c #D54E43",
"d=	c #D34B3F",
"e=	c #D3483D",
"f=	c #E69993",
"g=	c #F6DDDB",
"h=	c #FDF8F7",
"i=	c #F8EBEA",
"j=	c #A20F04",
"k=	c #A4170B",
"l=	c #E5B9B5",
"m=	c #C76057",
"n=	c #F1B7B2",
"o=	c #E77D73",
"p=	c #E5766D",
"q=	c #E47369",
"r=	c #E36F66",
"s=	c #E0685E",
"t=	c #DF655B",
"u=	c #DC5E53",
"v=	c #DA5B51",
"w=	c #D9574C",
"x=	c #D75349",
"y=	c #D65146",
"z=	c #D44D41",
"A=	c #D3493E",
"B=	c #D2463B",
"C=	c #D03F33",
"D=	c #C82418",
"E=	c #E18A83",
"F=	c #C2463C",
"G=	c #A10F03",
"H=	c #A00E03",
"I=	c #E7BFBC",
"J=	c #F0AEA9",
"K=	c #E6786F",
"L=	c #E5746B",
"M=	c #E37167",
"N=	c #E16A61",
"O=	c #E0665C",
"P=	c #DE6359",
"Q=	c #DD6056",
"R=	c #DB5C52",
"S=	c #DA584E",
"T=	c #D9554A",
"U=	c #D75247",
"V=	c #D44B3F",
"W=	c #D2473C",
"X=	c #D14338",
"Y=	c #C9271A",
"Z=	c #C61F12",
"`=	c #E18D87",
" -	c #9F0E03",
".-	c #E6BDBA",
"+-	c #D17871",
"@-	c #E4736A",
"#-	c #E36F65",
"$-	c #E26B62",
"%-	c #E1695F",
"&-	c #DF645B",
"*-	c #DE6157",
"=-	c #DD5E54",
"--	c #DB5A50",
";-	c #DA574C",
">-	c #D85349",
",-	c #D75045",
"'-	c #D54C41",
")-	c #D4493E",
"!-	c #D2463A",
"~-	c #D14136",
"{-	c #CA2A1E",
"]-	c #C31F11",
"^-	c #E18E88",
"/-	c #F9EAE8",
"(-	c #FDF9F8",
"_-	c #9E0E02",
":-	c #E6BEBB",
"<-	c #D4817A",
"[-	c #E36D63",
"}-	c #E16960",
"|-	c #E0675D",
"1-	c #DF6359",
"2-	c #DD5F55",
"3-	c #DC5C51",
"4-	c #DB584E",
"5-	c #D85146",
"6-	c #D64E43",
"7-	c #D54B3F",
"8-	c #D3463B",
"9-	c #D14438",
"0-	c #D13F34",
"a-	c #CF3C30",
"b-	c #CC3126",
"c-	c #F1CCC8",
"d-	c #FEFAFA",
"e-	c #D47B75",
"f-	c #9D0D02",
"g-	c #EDA099",
"h-	c #E1685E",
"i-	c #E0645A",
"j-	c #DF6157",
"k-	c #DD5E53",
"l-	c #DC5A50",
"m-	c #D95348",
"n-	c #D74F44",
"o-	c #D64C41",
"p-	c #D4493D",
"q-	c #D34539",
"r-	c #D14236",
"s-	c #D03E32",
"t-	c #CE3A2E",
"u-	c #CC3529",
"v-	c #C62114",
"w-	c #C22114",
"x-	c #E6A5A0",
"y-	c #FBF1F0",
"z-	c #FEFCFC",
"A-	c #C75950",
"B-	c #A61105",
"C-	c #9C0D02",
"D-	c #CC6C64",
"E-	c #EDA39D",
"F-	c #DE5F55",
"G-	c #DD5C51",
"H-	c #DA5449",
"I-	c #D85247",
"J-	c #D74D42",
"K-	c #D54A3E",
"L-	c #D4473C",
"M-	c #D24337",
"N-	c #D03C31",
"O-	c #CE382C",
"P-	c #CC3428",
"Q-	c #C82519",
"R-	c #C22013",
"S-	c #E49F99",
"T-	c #F8E7E6",
"U-	c #FFFEFE",
"V-	c #FFFFFF",
"W-	c #C4534A",
"X-	c #9B0C01",
"Y-	c #ECA6A1",
"Z-	c #DE5D52",
"`-	c #DB574C",
" ;	c #D95247",
".;	c #D85045",
"+;	c #D64C40",
"@;	c #D5483D",
"#;	c #D3463A",
"$;	c #D24135",
"%;	c #CF3A2F",
"&;	c #CE372A",
"*;	c #CC3226",
"=;	c #C92B1F",
"-;	c #F9E9E7",
";;	c #FDFAF9",
">;	c #FEFBFB",
",;	c #C25249",
"';	c #9A0C01",
");	c #E6BFBB",
"!;	c #BE463B",
"~;	c #EDB6B2",
"{;	c #DC584E",
"];	c #DB554A",
"^;	c #D95146",
"/;	c #D84E43",
"(;	c #D64A3E",
"_;	c #D4463B",
":;	c #D34337",
"<;	c #D13F33",
"[;	c #D03C30",
"};	c #CF382C",
"|;	c #CD3528",
"1;	c #CB3125",
"2;	c #CA2D21",
"3;	c #C52113",
"4;	c #E49E98",
"5;	c #FEFDFD",
"6;	c #C05047",
"7;	c #9C1307",
"8;	c #E5BAB6",
"9;	c #F0C8C5",
"0;	c #DA5348",
"a;	c #D94F44",
"b;	c #D74C40",
"c;	c #D6483D",
"d;	c #D44539",
"e;	c #D13E32",
"f;	c #CF3A2E",
"g;	c #CE362A",
"h;	c #CD3326",
"i;	c #CB2F23",
"j;	c #C62417",
"k;	c #FCF5F5",
"l;	c #BF4F46",
"m;	c #990C00",
"n;	c #AA352C",
"o;	c #DB9C96",
"p;	c #F0CAC7",
"q;	c #D84D42",
"r;	c #D74A3E",
"s;	c #D5463B",
"t;	c #D44337",
"u;	c #D23F33",
"v;	c #D03B2F",
"w;	c #D0392C",
"x;	c #CE3428",
"y;	c #CC3124",
"z;	c #CB2D21",
"A;	c #C92A1D",
"B;	c #C72618",
"C;	c #F8E8E7",
"D;	c #BD4F46",
"E;	c #980B00",
"F;	c #BA5B54",
"G;	c #D17D76",
"H;	c #E5B0AB",
"I;	c #DB5F55",
"J;	c #D54438",
"K;	c #D34135",
"L;	c #D23E31",
"M;	c #D0392D",
"N;	c #CF372A",
"O;	c #CD3226",
"P;	c #CC2F22",
"Q;	c #CA2B1F",
"R;	c #C8281B",
"S;	c #C42013",
"T;	c #E5A19B",
"U;	c #FBF5F4",
"V;	c #BB4C43",
"W;	c #D49792",
"X;	c #C14E44",
"Y;	c #D0776E",
"Z;	c #E48B82",
"`;	c #D33F33",
" >	c #D13C30",
".>	c #CF382B",
"+>	c #CF3427",
"@>	c #CD3125",
"#>	c #CB2D20",
"$>	c #C9291C",
"%>	c #C82619",
"&>	c #C62315",
"*>	c #E49E97",
"=>	c #C6534A",
"->	c #E3ABA7",
";>	c #FBF6F5",
">>	c #BA4D44",
",>	c #E7C3C0",
"'>	c #EDB8B4",
")>	c #D13A2E",
"!>	c #CF3629",
"~>	c #CE3226",
"{>	c #CD2F23",
"]>	c #CB2B1E",
"^>	c #C72418",
"/>	c #E49D97",
"(>	c #C65148",
"_>	c #B1180C",
":>	c #E2ABA7",
"<>	c #B94B42",
"[>	c #A12117",
"}>	c #E3B3AF",
"|>	c #EEC6C3",
"1>	c #D03D31",
"2>	c #CE3124",
"3>	c #CC2C20",
"4>	c #CA2A1C",
"5>	c #C92519",
"6>	c #C72215",
"7>	c #C11D10",
"8>	c #DA7A72",
"9>	c #C54F46",
"0>	c #B01609",
"a>	c #AF190C",
"b>	c #E3B0AC",
"c>	c #FAF2F1",
"d>	c #A3170D",
"e>	c #C6756F",
"f>	c #CC6F67",
"g>	c #D3817A",
"h>	c #DE776F",
"i>	c #CC2A1E",
"j>	c #CA281A",
"k>	c #C82317",
"l>	c #C62013",
"m>	c #C01D0F",
"n>	c #FBF2F1",
"o>	c #C55047",
"p>	c #AD180C",
"q>	c #E2B6B3",
"r>	c #EDC1BD",
"s>	c #C92518",
"t>	c #C82215",
"u>	c #BF1C0F",
"v>	c #BE1C0F",
"w>	c #CB4C42",
"x>	c #F7E2E1",
"y>	c #FBF4F3",
"z>	c #C65249",
"A>	c #AB160A",
"B>	c #E1ADA8",
"C>	c #E4BBB8",
"D>	c #A1160A",
"E>	c #AA362D",
"F>	c #DFA7A3",
"G>	c #E2A6A2",
"H>	c #D45248",
"I>	c #CA4C43",
"J>	c #F7E6E4",
"K>	c #A91509",
"L>	c #E1ADA9",
"M>	c #E4BCB9",
"N>	c #DCA9A6",
"O>	c #EAB5B1",
"P>	c #C94D43",
"Q>	c #A81409",
"R>	c #E0ADA9",
"S>	c #E5BDBA",
"T>	c #A62C22",
"U>	c #E2B2AE",
"V>	c #E3AAA5",
"W>	c #D04F45",
"X>	c #C84D43",
"Y>	c #A71106",
"Z>	c #A7160A",
"`>	c #E2B3AF",
" ,	c #DDAAA6",
".,	c #EFC9C6",
"+,	c #C32114",
"@,	c #B9190C",
"#,	c #B7180C",
"$,	c #C74E44",
"%,	c #A51509",
"&,	c #E2B4B0",
"*,	c #A1170B",
"=,	c #B2473E",
"-,	c #DDA29D",
";,	c #DB7F78",
">,	c #C8554C",
",,	c #F2D8D6",
"',	c #A31509",
"),	c #DDA9A5",
"!,	c #E0B2AE",
"~,	c #9B1308",
"{,	c #E9C6C3",
"],	c #EABFBB",
"^,	c #D69C97",
"/,	c #CB6962",
"(,	c #BB3B30",
"_,	c #EECAC7",
":,	c #C0271A",
"<,	c #BB5D55",
"[,	c #DC9E99",
"},	c #C76056",
"|,	c #E9B7B2",
"1,	c #BC1F12",
"2,	c #AD3D34",
"3,	c #E8C2BE",
"4,	c #CF726A",
"5,	c #E5ACA7",
"6,	c #B91B0E",
"7,	c #A62C23",
"8,	c #E9C5C2",
"9,	c #D5847E",
"0,	c #E1A09A",
"a,	c #A72F26",
"b,	c #E9C7C4",
"c,	c #D07770",
"d,	c #B81F13",
"e,	c #EAC7C4",
"f,	c #EABFBC",
"g,	c #BC3025",
"h,	c #BD625B",
"i,	c #E7C1BD",
"j,	c #ECC8C5",
"k,	c #C7574F",
"l,	c #9C1409",
"m,	c #D79E9A",
"n,	c #B73126",
"o,	c #E0A6A1",
"p,	c #E1A8A3",
"q,	c #B6291E",
"r,	c #990C01",
"s,	c #B5524A",
"t,	c #C4574E",
"u,	c #EBC6C3",
"v,	c #D27C75",
"w,	c #AF1D12",
"x,	c #DFB0AD",
"y,	c #CE756D",
"z,	c #EBC8C5",
"A,	c #D3837D",
"B,	c #AF2519",
"C,	c #AF4138",
"D,	c #DFB0AC",
"E,	c #E0ACA8",
"F,	c #CC6E65",
"G,	c #E7BAB7",
"H,	c #E4B4B0",
"I,	c #C45E57",
"J,	c #AB1D12",
"K,	c #CB827D",
"L,	c #DC9E98",
"M,	c #D4847E",
"N,	c #E6BAB7",
"O,	c #E8BFBC",
"P,	c #D48F88",
"Q,	c #C2625B",
"R,	c #B33D33",
"S,	c #A4180E",
"T,	c #A4271D",
"U,	c #B34A42",
"V,	c #C3706A",
"W,	c #DBA7A3",
"X,	c #E8C4C1",
"Y,	c #DEA5A1",
"Z,	c #CA665E",
"`,	c #C4564D",
" '	c #D07A73",
".'	c #DB9893",
"+'	c #E8C1BE",
"@'	c #E7C0BD",
"#'	c #E8C3C0",
"$'	c #DFABA6",
"%'	c #D58B84",
"                                                                                                                                        ",
"                                                                                                                                        ",
"                                                                                                                                        ",
"                                                                                                                                        ",
"                                                                                                                                        ",
"                                                                                                                                        ",
"                                                                                                                                        ",
"                                                          . . . . . . . . . .                                                           ",
"                                                . . . . . . . . . . . . . . . . . . .                                                   ",
"                                            . . . . + @ # $ % & * = - ; > , ' ) ! . . . . .                                             ",
"                                      . . . . ~ { ] ^ / ( _ : < [ } | 1 2 3 4 5 6 7 8 9 0 . . .                                         ",
"                                    . . a b c d e f g h i j k l m n o p q r s t u v w x & y z . . .                                     ",
"                                . . 0 # A B C D E F G H I J K L M N O P Q R S T U V W X Y Z `  .... . .                                 ",
"                            . . . +.@.#.$.%.&.*.h =.-.;.>.| n ,.'.).!.~.{.].^./.(._.:.<.[.}.|.1.2.3.4.. .                               ",
"                          . . 5.6.7.8.9.D 0.a.G b.c.d.e.f.M g.h.i.j.k.l.m.n.o.p.q.r.s.t.u.v.w.x.y.z.A.B.. .                             ",
"                        . . C.D.e E.F.G.*.H.I.J.k K.L.M.N.O.P.Q.~.R.S.T.U.(.V.W.X.Y.Z.`. +.+++@+#+$+%+&+*+=+. .                         ",
"                      . . -+;+>+,+'+)+!+~+{+c.J ]+^+/+(+_+:+<+k.[+}+n.o.|+1+r.2+3+4+5+6+x.7+8+9+0+a+b+c+d+e+f+. .                       ",
"                    . . g+h+i+j+k+l+H.m+n+o+p+q+r+N.s+t+u+v+w+x+T.y+z+A+B+C+D+E+F+G+H+I+J+K+L+M+N+O+P+Q+R+S+T+U+. .                     ",
"                  . . V+W+9.X+Y+Z+~+{+`+K.]+ @.@+@@@#@$@k.%@&@*@=@|+-@;@>@,@4+'@)@!@~@{@]@^@/@b+(@_@:@<@[@}@|@1@U+. .                   ",
"                . . 2@7.3@4@l+5@6@7@8@9@0@M.a@s+t+b@v+c@d@e@y+f@g@h@i@j@E+k@l@H+m@n@o@p@q@N+r@s@t@u@v@w@x@y@z@A@B@f+.                   ",
"              . . C@D@E@F@Z+~+G@o+H@I@J@.@K@L@M@$@N@O@}+P@Q@R@-@;@S@T@U@V@6+W@X@Y@Z@`@ #.#+#@###$#%#}@&#*#=#-#;#>#,#'#.                 ",
"              . )#!#j+~#{#6@]#^#p+q+/#(#_#:#<#[#}#|#e@1#2#g@3#4#5#6#7#8#9#0#a#b#c#d#e#f#g#h#i#j#k#l#m#n#-#o#p#q#r#s#t#. .               ",
"            . a u#v#Z+w#x#y#H@z#J@A#B#C##@D#E#F#G#H#=@I#J#K#L#M#N#O#P#Q#R#S#Z@T#U#V#W#X#Y#Z#`# $.$+$@$#$$$%$&$*$=$-$;$>$. .             ",
"          . . ,$'${#)$!$~${$]$^$/$($_$:$<$[$}$|$1 1$2$3$4$5$6$7$8$9$0$a$b$c$d$e$f$g$X#h$i$j$k$l$m$n$#$$$%$&$*$=$-$o$p$q$r$.             ",
"          . s$t${#u$v$H@z#w$(#K@x$y$z$A$B$p C$d D$E$F$G$H$I$J$K$L$X@M$N$T#O$P$Q$R$S$T$U$V$W$X$m$n$#$$$%$&$*$=$-$o$Y$Z$`$ %. .           ",
"        . . .%+%@%#%$%]$%%&%*%=%-%<$;%>%O ,%'%)%)%D$!%~%{%]%^%/%(%_%c$:%<%[%}%|%1%T$U$V$2%3%4%5%#$$$%$&$*$=$-$o$Y$Z$6%7%8%9%.           ",
"        . 0%a%v$b%c%d%e%f%g%y$h%i%j%k%P.l%m%D$n%n%n%o%p%q%L$r%S#s%t%u%v%w%x%y%1%T$U$V$2%3%z%A%B%C%%$&$*$=$-$o$Y$Z$6%7%D%E%F%. .         ",
"      . . G%G.$%H%I%/$J%K%L%M%N%O%P%:+a%Q%R%D$n%n%D$)%D$S%a$T%U%V%W%X%Y%x%y%Z%T$`%V$2%3%z%A% &.&+&@&*$=$-$o$Y$Z$6%7%D%#&$&%&&&.         ",
"      . f+*&=&-&;&f%g%>&,&'&)&!&~&{&]&R%^&D$D$n%)%)%/&/&(&_&:&<&[&}&Y%x%y%Z%|&`%1&2&3&z%A% &.&4&5&6&7&-$o$Y$Z$6%7%D%#&$&8&9&0&. .       ",
"      . a&b&c&d&e&K%f&g&h&i&j&k&v+l&m&^&n&^&D$D$/&/&o&o&^ o%p&q&r&Y%x%y%Z%|&`%1&2&3&s&t& &.&4&5&u&v&w&o$Y$Z$6%7%D%#&$&8&x&y&z&A&.       ",
"    . . B&C&D&g%>&E&F&G&H&I&J&K&1 n&^&n&n&^&D$o%L&)%M&N&O&@.P&Q&Y%x%y%Z%|&`%1&2&3&s&t&R&S&T&5&u&v&U&V&W&Z$6%7%D%#&$&8&x&y&X&Y&Z&.       ",
"    . `& *e&.*+*@*#*$*j&%*&***=*-*;*n&n&^&*&o%L&)%o&A A >*,*'*)*!*y%~*{*V$2%2&3&s&t&R&S&T&]*^*v&U&/*(*Z$6%7%D%#&$&8&x&y&X&_*:*F%. .     ",
"    . <*[*>&}*F&|*1*I&2*3*4*5*6*7*8*9*^&o%o%(&D$/&0*a*,*,*@./&A @.b*c*V$2%3%z%A%t&R&S&T&]*^*d*e*f*g*Z$6%7%D%#&$&8&x&y&X&_*h*i*z&j*.     ",
"  . . k*l*m*#*n*o*p*q*r*s*t*u*v*w*x*y*z*o%D$)%a*/&o%A*,*@./&B*C*D*E*V$2%3%z%A% &F*S&T&]*^*d*e*/*(*Z$6%7%D%#&$&8&x&y&X&_*h*i*G*H*I*.     ",
"  . . J*K*L*M*N*O*3*P*Q*6*7*R*S*T*U*V*W*X*o%/&0*L&Y*,*@./&B*C*Z*`%1&2%3%z%A% &F*4&5&u&^*d*e*`* =Z$6%7%D%#&$&8&x&y&X&_*h*i*G*.=+=@=.     ",
"  . a J*#=$=%=&=*===-=;=>=,='=)=!=~={=]=^=/=/&L&,*'*@./&B*C*Z*`%1&(=3&z%A% &F*4&5&u&v&U&e*`* =Z$6%7%D%#&$&8&x&y&X&_*h*i*G*.=_=:=<=. .   ",
"  . [=}=N*|=1=2=Q*3=4=5=6=7=8=9=0=a=b=c=d=e=f=,*'*D.A g=C*Z*`%1&(=3&s&t&R&F*4&5&u&v&U&h=i= =Z$6%7%D%#&$&8&x&y&X&_*h*i*G*.=_=j=k=l=. .   ",
"  . m=n=o=*=p=q=r=>=s=t=)=u=v=w=x=y=z=A=B=C=D=E=D.A g=D*E*`%1&(=3&s&t&R&S&T&5&u&v&U&h=i=F=Z$6%7%D%#&$&8&x&y&X&_*h*i*G*.=_=j=G=H=I=. .   ",
"  . >$J=K=L=M=4=N=O=P=Q=R=S=T=U=c=V=W=X=C=Y=Z=}&`=g=D*E*V$2%3%3&s&t&R&S&T&]*^*v&U&h=i=F=Z$6%7%D%#&$&8&x&y&X&_*h*i*G*.=_=j=G=H= -.-. .   ",
"  . +-m @-#-$-%-&-*-=---;->-,-'-)-!-~-C={-Z=r&Y%]-^-E*V$2%3%z%/-t&R&S&T&]*^*d*e*(-i=F=Z$6%7%D%#&$&8&x&y&X&_*h*i*i*.=_=j=G=H= -_-:-. .   ",
"  . <-N.[-}-|-1-2-3-4-T=5-6-7-8-9-0-a-b-Z=r&Y%x%y%~*c-2%3%z%/- &F*S&T&]*^*d*e*(-d-e-Z$6%7%D%#&$&8&x&y&X&_*h*i*i*.=_=j=G=H= -_-f-.-. .   ",
"  . +-g-h-i-j-k-l-;-m-n-o-p-q-r-s-t-u-v-r&Y%x%y%w-x-2%3%z%/- &F*4&y-u&^*d*e*(-d-z-h=A-7%D%#&$&8&x&y&X&_*h*B-i*.=_=j=G=H= -_-f-C-:-. .   ",
"  . D-E-1-F-G-4-H-I-J-K-L-M-C=N-O-P-Q-r&Y%x%y%R-S-(=T-z%/- &F*4&y-u&v&U&e*(-d-z-U-V-e*W-#&$&8&x&y&X&_*h*B-i*.=_=j=G=H= -_-f-C-X-.-. .   ",
"  . m=Y-Z-l-`- ;.;+;@;#;$;s-%;&;*;=;r&Y%x%y%R-S-(=T--;t&R&F*4&y-u&v&U&h=;;>;z-U-V-V-V-e*,;8&x&y&X&_*h*B-i*.=_=j=G=H= -_-f-C-X-';);. .   ",
"  . !;~;{;];^;/;(;_;:;<;[;};|;1;2;3;Y%x%y%R-4;(=T--;t&R&S&T&y-u&v&U&h=;;>;5;V-V-V-V-V-V-U&6;y&X&_*h*B-i*.=_=j=G=H= -_-f-C-X-';7;8;. .   ",
"  . 0 9;0;a;b;c;d;$;e;f;g;h;i;=;j;Y%x%y%R-4;3%T--;t&R&S&T&]*^*k;U&h=;;>;5;V-V-V-V-V-V-V-V-U&l;_*h*B-i*.=_=j=G=H= -_-f-C-X-';m;n;o;. .   ",
"  . . p;q;r;s;t;u;v;w;x;y;z;A;B;Y%x%y%R-4;3%C;/-t&R&S&T&]*^*k;e*(-;;>;5;V-V-V-V-V-V-V-V-V-V-U&D;B-i*.=_=j=G=H= -_-f-C-X-';m;E;F;G;.     ",
"  . . H;I;J;K;L;M;N;O;P;Q;R;j;S;x%y%R-T;3%C;/- &F*4&T&]*^*k;e*(-d->;U-V-V-V-V-V-V-V-V-V-V-V-V-U;V;.=_=j=G=H= -_-f-C-X-';m;E;E;W;X;.     ",
"    . Y;Z;`; >.>+>@>#>$>%>&>Y%x%y%R-*>3%C;/- &F*4&y-u&^*k;e*(-d-^*=>->V-V-V-V-V-V-V-V-V-V-V-V-V-;>>>j=G=H= -_-f-C-X-';m;E;E;E;,>j*.     ",
"    . `&'>)>!>~>{>]>Y=^>3;Y%x%y%R-/>T--;/- &F*4&y-u&v&U&h=(-d-^*(>Z$_>:>V-V-V-V-V-V-V-V-V-V-V-V-V-;><>H= -_-f-C-X-';m;E;E;E;[>}>. .     ",
"    . . |>1>2>3>4>5>6>r&Y%x%y%7>8>T--;t&R&F*4&y-u&v&U&h=;;>;u&9>Z$0>7%a>b>V-V-V-V-V-V-V-V-V-V-V-V-V-c>d>_-f-C-X-';m;E;E;E;E;e>f>.       ",
"      . g>h>i>j>k>l>r&Y%x%y%7>m>(@Z*t&R&S&T&n>u&v&U&h=;;>;^*o>Z$0>7%D%#&p>b>V-V-V-V-V-V-V-V-V-V-V-V-q>_-f-C-X-';m;E;E;E;E;E;,>A&.       ",
"      . f+r>s>t>Z=r&Y%x%y%7>m>u>v>w>x>S&T&n>^*k;U&h=;;>;y>z>Z$0>7%D%#&$&8&A>B>V-V-V-V-V-V-V-V-V-V-C>D>f-C-X-';m;E;E;E;E;E;E>F>. .       ",
"      . . G>H>Z=r&Y%x%y%7>m>u>v>k$l$I>J>n>^*k;e*(-;;>;y>z>Z$0>7%D%#&$&8&x&y&K>L>V-V-V-V-V-V-V-V-M>D>f-C-X-';m;E;E;E;E;E;E;N>I*.         ",
"        . 0%O>r&Y%x%y%7>m>u>v>k$l$m$n$P>/*k;e*(-d-z-d*z>Z$0>7%D%#&$&8&x&y&X&_*Q>R>V-V-V-V-V-V-S>D>f-C-X-';m;E;E;E;E;E;E;T>U>. .         ",
"        . . V>W>x%y%7>m>u>v>k$l$m$n$#$$$X>R&(-d-z-d*=>Z$0>7%D%#&$&8&x&y&X&_*Y>B-Z>`>V-V-V-V-S>D>f-C-X-';m;E;E;E;E;E;E;E; ,9%.           ",
"          . )#.,+,7>m>u>v>k$l$m$n$#$@,$$#,$,5&z-U&=>Z$0>7%D%#&$&8&x&y&X&_*Y>B-i*.=%,&,V-V-S>*,f-C-X-';m;E;E;E;E;E;E;E;=,-,. .           ",
"          . . <-;,m>u>v>k$l$m$n$#$@,$$#,*$=$>,,,=>Z$0>7%D%#&$&8&x&y&X&_*Y>B-i*.=_=j=',),!,*,f-C-X-';m;E;E;E;E;E;E;E;~,{,r$.             ",
"            . a ],@#v>k$l$m$n$#$@,$$#,*$=$-$o$Y$Z$0>7%D%#&$&8&x&y&X&_*Y>B-i*.=_=j=G=H= -_-f-C-X-';m;E;E;E;E;E;E;E;E;^,/,. .             ",
"              . (,_,:,l$m$n$#$@,$$#,*$=$-$o$Y$Z$0>7%D%#&$&8&x&y&X&_*Y>B-i*.=_=j=G=H= -_-f-C-X-';m;E;E;E;E;E;E;E;E;<,[,. .               ",
"              . . },|,1,n$#$@,$$#,*$=$-$o$Y$Z$0>7%D%#&$&8&x&y&X&_*Y>B-i*.=_=j=G=H= -_-f-C-X-';m;E;E;E;E;E;E;E;E;2,3,'#.                 ",
"                . . 4,5,6,@,$$#,*$=$-$o$Y$Z$0>7%D%#&$&8&x&y&X&_*Y>B-i*.=_=j=G=H= -_-f-C-X-';m;E;E;E;E;E;E;E;E;7,8,f+.                   ",
"                  . . 9,0,6,#,*$=$-$o$Y$Z$0>7%D%#&$&8&x&y&X&_*Y>B-i*.=_=j=G=H= -_-f-C-X-';m;E;E;E;E;E;E;E;E;a,b,0%. .                   ",
"                    . . c,6&d,=$-$o$Y$Z$0>7%D%#&$&8&x&y&X&_*Y>B-i*.=_=j=G=H= -_-f-C-X-';m;E;E;E;E;E;E;E;E;2,e,U+. .                     ",
"                      . . >$f,g,o$Y$Z$0>7%D%#&$&8&x&y&X&_*Y>B-i*.=_=j=G=H= -_-f-C-X-';m;E;E;E;E;E;E;E;E;h,i,f+. .                       ",
"                        . . C.j,k,Z$0>7%D%#&$&8&x&y&X&X&Y>B-i*.=_=j=G=H= -_-f-C-X-';m;E;E;E;E;E;E;E;l,m,o;=+. .                         ",
"                          . . n,o,p,q,D%#&$&8&x&y&X&X&Y>B-i*.=_=j=G=H= -_-f-C-X-';r,E;E;E;E;E;E;E;s,b,B.. .                             ",
"                            . . . t,u,v,w,8&x&y&X&X&Y>B-i*.=_=j=G=H= -_-f-C-X-';r,E;E;E;E;E;E;n;x,[,4.. .                               ",
"                                . . 0 y,z,A,B,X&X&Y>B-i*.=_=j=G=H= -_-f-C-X-';r,E;E;E;E;E;C,D,E,... . .                                 ",
"                                    . . a F,G,H,I,J,i*.=_=j=G=H= -_-f-C-X-';r,E;E;E;a,K,{,L,[=. . .                                     ",
"                                      . . . . ~ M,N,O,P,Q,R,S, -_-f-C-X-';T,U,V,W,X,Y,Z,+ . . .                                         ",
"                                            . . . . + `, '.'l=O,+'@');I=#'$'%'D-U+. . . . .                                             ",
"                                                . . . . . . . . . . . . . . . . . . .                                                   ",
"                                                          . . . . . . . . . .                                                           ",
"                                                                                                                                        ",
"                                                                                                                                        ",
"                                                                                                                                        ",
"                                                                                                                                        ",
"                                                                                                                                        "};
