/* XPM */
static const char *icon_xpm[] = {
/* columns rows colors chars-per-pixel */
"500 500 217 2 ",
"   c None",
".  c #343C7D",
"X  c #31377F",
"o  c #394676",
"O  c #3E536F",
"+  c #566A5B",
"@  c #597655",
"#  c #4D6A5F",
"$  c #637C4F",
"%  c #45536C",
"&  c #425D68",
"*  c #4A5C66",
"=  c #414D70",
"-  c #4B6263",
";  c #516261",
":  c #6B9A3D",
">  c #77993B",
",  c #7EBA27",
"<  c #73B72B",
"1  c #7BB42C",
"2  c #76B82A",
"3  c #7AB929",
"4  c #6EA631",
"5  c #6DA139",
"6  c #70A734",
"7  c #72A836",
"8  c #75AA3B",
"9  c #7CA736",
"0  c #7BB232",
"q  c #5C824D",
"w  c #5D8949",
"e  c #57814F",
"r  c #568050",
"t  c #638C47",
"y  c #63834B",
"u  c #6A8946",
"i  c #6C9341",
"p  c #729041",
"a  c #7AAE43",
"s  c #7AAD44",
"d  c #7EB14A",
"f  c #7FB042",
"g  c #94BF1F",
"h  c #84AC2D",
"j  c #88AF2B",
"k  c #84BC25",
"l  c #8BBE22",
"z  c #83B52B",
"x  c #89B628",
"c  c #90BF20",
"v  c #98BA2A",
"b  c #84A937",
"n  c #86B335",
"m  c #9BB436",
"M  c #96AF3E",
"N  c #A0AF3F",
"B  c #96C11E",
"V  c #AFCB0F",
"C  c #ADC70A",
"Z  c #B7CD07",
"A  c #BACF04",
"S  c #B3CC0B",
"D  c #B8CD08",
"F  c #BED000",
"G  c #BFD109",
"H  c #ACC914",
"J  c #A4C61C",
"K  c #A7C818",
"L  c #A8C818",
"P  c #B6CE1D",
"I  c #B8CF1A",
"U  c #BDD116",
"Y  c #BAD019",
"T  c #92C020",
"R  c #99C323",
"E  c #9DC52C",
"W  c #93C43E",
"Q  c #9BC63B",
"!  c #9FC737",
"~  c #8FC12D",
"^  c #A0C520",
"/  c #A6C92E",
"(  c #AACA2A",
")  c #AECC26",
"_  c #B2CD22",
"`  c #A3C939",
"'  c #A3C735",
"]  c #BDD12E",
"[  c #C2D311",
"{  c #C3D41B",
"}  c #C1D20A",
"|  c #C6D62D",
" . c #969D5C",
".. c #A59E5E",
"X. c #89AA46",
"o. c #98AA47",
"O. c #87BE44",
"+. c #89BE44",
"@. c #81B24D",
"#. c #88B549",
"$. c #97A254",
"%. c #8AB653",
"&. c #94BB57",
"*. c #90B051",
"=. c #A2AA49",
"-. c #A5A357",
";. c #9C9865",
":. c #9E9272",
">. c #A89968",
",. c #A98D7C",
"<. c #A99274",
"1. c #B19178",
"2. c #B38D7E",
"3. c #9ABC66",
"4. c #A1BF6C",
"5. c #8CC141",
"6. c #9DC15A",
"7. c #94C547",
"8. c #ACCD47",
"9. c #A4C55C",
"0. c #B5D15A",
"q. c #B2CF50",
"w. c #A7C667",
"e. c #B3CD69",
"r. c #BCD468",
"t. c #AAC477",
"y. c #BBD277",
"u. c #B3CB7A",
"i. c #9FC361",
"p. c #CAD950",
"a. c #C1D66C",
"s. c #C6D974",
"d. c #C9DA76",
"f. c #C8D973",
"g. c #CADB79",
"h. c #CCDC7D",
"j. c #C5D879",
"k. c #D2DF68",
"l. c #DFE77F",
"z. c #D3E073",
"x. c #D6E260",
"c. c #E0E87E",
"v. c #E0E77F",
"b. c #191696",
"n. c #1D1B94",
"m. c #15109C",
"M. c #181599",
"N. c #1A1898",
"B. c #23238E",
"V. c #282B88",
"C. c #2D3384",
"Z. c #2F3881",
"A. c #313680",
"S. c #202190",
"D. c #1F2092",
"F. c #BB7C9C",
"G. c #B67E97",
"H. c #BD79A3",
"J. c #BE75A8",
"K. c #C174AC",
"L. c #C276A6",
"P. c #C56DBC",
"I. c #C76CB8",
"U. c #C272B3",
"Y. c #D65CD6",
"T. c #CB66C5",
"R. c #C76AC2",
"E. c #C966C9",
"W. c #C968C5",
"Q. c #D161CC",
"!. c #AC8786",
"~. c #B4858D",
"^. c #B38A85",
"/. c #B78293",
"(. c #AF8191",
"). c #B7CA87",
"_. c #BCCE8B",
"`. c #CEDD83",
"'. c #CDDE8B",
"]. c #C4D887",
"[. c #D0DE87",
"{. c #D1DF8A",
"}. c #CAD698",
"|. c #C9D494",
" X c #CFE08A",
".X c #CFE086",
"XX c #DBE683",
"oX c #D3E28C",
"OX c #D7E487",
"+X c #D4E194",
"@X c #D7E39A",
"#X c #D9E49D",
"$X c #DAE195",
"%X c #D4D7A9",
"&X c #D5D8AA",
"*X c #E3DEBA",
"=X c #DBE6A4",
"-X c #DDE7AA",
";X c #DFE8AD",
":X c #E4E5AC",
">X c #E1E4A7",
",X c #E0E9B1",
"<X c #E9E6B8",
"1X c #E6D5C4",
"2X c #E8D7C5",
"3X c #EAD9C6",
"4X c #EDDBCA",
"5X c #F1DFCD",
"6X c #EDE5C3",
"7X c #F3E1CE",
"8X c #F5E9CB",
"9X c #F3E9C6",
"0X c #F6E4D1",
"qX c #F9E6D4",
"wX c #FCE9D6",
"eX c #FEEBD8",
"rX c #FEEBD8",
/* pixels */
"                                                                                                                                                                                                                                                                                                                                                                                                                                                                                                                                                                                                                                                                                                                                                                                                                                                                                                                                                                                                                                        ",
"                                                                                                                                                                                                                                                                                                                                                                                                                                                                                                                                                                                                                                                                                                                                                                                                                                                                                                                                                                                                                                        ",
"                                                                                                                                                                                                                                                                                                                                                                                                                                                                                                                                                                                                                                                                                                                                                                                                                                                                                                                                                                                                                                        ",
"                                                                                                                                                                                                                                                                                                                                                                                                                                                                                                                                                                                                                                                                                                                                                                                                                                                                                                                                                                                                                                        ",
"                                                                                                                                                                                                                                                                                                                                                                                                                                                                                                                                                                                                                                                                                                                                                                                                                                                                                                                                                                                                                                        ",
"                                                                                                                                                                                                                                                                                                                                                                                                                                                                                                                                                                                                                                                                                                                                                                                                                                                                                                                                                                                                                                        ",
"                                                                                                                                                                                                                                                                                                                                                                                                                                                                                                                                                                                                                                                                                                                                                                                                                                                                                                                                                                                                                                        ",
"                                                                                                                                                                                                                                                                                                                                                                                                                                                                                                                                                                                                                                                                                                                                                                                                                                                                                                                                                                                                                                        ",
"                                                                                                                                                                                                                                                                                                                                                                                                                                                                                                                                                                                                                                                                                                                                                                                                                                                                                                                                                                                                                                        ",
"                                                                                                                                                                                                                                                                                                                                                                                                                                                                                                                                                                                                                                                                                                                                                                                                                                                                                                                                                                                                                                        ",
"                                                                                                                                                                                                                                                                                                                                                                                                                                                                                                                                                                                                                                                                                                                                                                                                                                                                                                                                                                                                                                        ",
"                                                                                                                                                                                                                                                                                                                                                                                                                                                                                                                                                                                                                                                                                                                                                                                                                                                                                                                                                                                                                                        ",
"                                                                                                                                                                                                                                                                                                                                                                                                                                                                                                                                                                                                                                                                                                                                                                                                                                                                                                                                                                                                                                        ",
"                                                                                                                                                                                                                                                                                                                                                                                                                                                                                                                                                                                                                                                                                                                                                                      f.f.f.d.f.d.f.                                                                                                                                                                                                                                                    ",
"                                                                                                                                                                                                                                                                                                                                                                                                                                                                                                                                                                                                                                                                                                                                                          f.f.d.f.f.f.f.f.f.f.f.f.f.f.f.f.                                                                                                                                                                                                                                              ",
"                                                                                                                                                                                                                                                                                                                                                                                                                                                                                                                                                                                                                                                                                                                                                f.f.f.f.f.f.f.f.f.f.f.f.f.f.f.f.f.f.f.f.f.f.f.d.                                                                                                                                                                                                                                        ",
"                                                                                                                                                                                                                                                                                                                                                                                                                                                                                                                                                                                                                                                                                                                                        f.f.f.f.f.f.f.f.f.f.f.f.f.f.f.f.d.d.f.f.d.f.f.f.f.f.f.f.f.                                                                                                                                                                                                                                      ",
"                                                                                                                                                                                                                                                                                                                                                                                                                                                                                                                                                                                                                                                                                                                              f.f.f.f.f.f.f.f.f.f.f.f.f.f.f.f.f.f.f.f.f.s.e.6.%.@.@.@.@.@.@.%.w.a.f.                                                                                                                                                                                                                                    ",
"                                                                                                                                                                                                                                                                                                                                                                                                                                                                                                                                                                                                                                                                                                                      f.f.f.f.f.f.f.f.f.f.f.f.f.f.f.f.f.f.f.f.f.r.w.&.%.d d d d d @.@.@.@.@.@.@.@.%.r.                                                                                                                                                                                                                                  ",
"                                                                                                                                                                                                                                                                                                                                                                                                                                                                                                                                                                                                                                                                                                              f.f.f.f.f.f.f.f.f.f.f.f.f.f.f.f.f.f.f.f.f.e.w.&.@.d d d d d d d d d @.@.@.@.@.@.@.@.@.@.6.                                                                                                                                                                                                                                ",
"                                                                                                                                                                                                                                                                                                                                                                                                                                                                                                                                                                                                                                                                                                      f.f.f.f.f.f.f.f.f.f.f.f.f.f.f.d.f.f.f.f.s.e.9.&.@.d d d d d d d d d d d d d d d d @.@.@.@.@.@.@.@.%.                                                                                                                                                                                                                              ",
"                                                                                                                                                                                                                                                                                                                                                                                                                                                                                                                                                                                                                                                                                            f.f.f.f.f.f.f.f.f.f.f.f.f.f.f.f.f.f.f.f.d.s.e.6.%.d d d d d d d d d d d d d d d d d d d @.@.@.@.@.@.@.@.@.@.@.%.                                                                                                                                                                                                                            ",
"                                                                                                                                                                                                                                                                                                                                                                                                                                                                                                                                                                                                                                                                                    f.f.f.f.f.f.f.f.f.f.f.f.f.f.f.f.f.f.f.f.f.r.w.&.%.a a a d d d d d d d d d d d d d d d d d d d d @.@.@.@.@.@.@.@.@.@.@.@.                                                                                                                                                                                                                            ",
"                                                                                                                                                                                                                                                                                                                                                                                                                                                                                                                                                                                                                                                                            f.f.f.f.f.f.f.f.f.f.f.f.f.f.f.f.f.f.f.f.f.r.w.&.@.a a a a a a a d d d d d d d d d d d d d d d d d d d d @.@.@.@.@.@.@.@.@.@.@.@.@.                                                                                                                                                                                                                          ",
"                                                                                                                                                                                                                                                                                                                                                                                                                                                                                                                                                                                                                                                                  f.f.f.f.f.f.f.f.f.f.f.f.f.f.f.f.f.f.f.f.f.s.e.9.&.@.a a a a a a a a a a d d d d d d d d d d d d d d d d d d d d d @.@.@.@.@.@.@.@.@.@.@.@.@.%.                                                                                                                                                                                                                        ",
"                                                                                                                                                                                                                                                                                                                                                                                                                                                                                                                                                                                                                                                          d.f.f.f.f.f.f.f.f.f.f.f.f.f.f.f.f.f.f.f.f.s.e.6.%.a a a a a a a a a a a d a d a a d d d d d d d d d d d d d d d d d d d d @.@.@.@.@.@.@.@.@.@.@.@.@.@.                                                                                                                                                                                                                        ",
"                                                                                                                                                                                                                                                                                                                                                                                                                                                                                                                                                                                                                                                  f.f.f.f.f.f.f.f.f.f.f.f.f.f.f.f.f.f.f.f.f.a.e.6.%.s s a a a a a a a a a a a a a d d d d a d d d d d d d d d d d d d d d d d d d d d @.@.@.@.@.@.@.@.@.@.@.@.@.                                                                                                                                                                                                                        ",
"                                                                                                                                                                                                                                                                                                                                                                                                                                                                                                                                                                                                                                          f.f.f.f.f.f.f.f.f.f.f.f.f.f.f.f.f.f.f.f.f.r.w.&.#.s s s s s s a a a a a a a a a a a a a a d a d a d d d d d d d d d d d d d d d d d d d d d @.@.@.@.@.@.@.@.@.@.@.@.@.@.                                                                                                                                                                                                                      ",
"                                                                                                                                                                                                                                                                                                                                                                                                                                                                                                                                                                                                                                f.f.f.f.f.f.f.f.f.f.f.f.f.f.f.f.f.f.f.f.f.f.r.9.&.#.s s s s s s s s s s a a a a a a a a a a a a a a d a d a d d d d d d d d d d d d d d @.d d d d d d @.@.@.@.@.@.@.@.@.@.@.@.@.@.                                                                                                                                                                                                                      ",
"                                                                                                                                                                                                                                                                                                                                                                                                                                                                                                                                                                                                                        d.d.d.d.d.d.d.d.d.d.d.d.d.d.d.d.f.f.d.d.f.s.e.9.&.a s s s s s s s s s s s s s s a a a a a a a a a a a d a a d a a a a d d d d d d d d d %.t.}.6X8X_.@.d d d d @.@.@.@.@.@.@.@.@.@.@.@.@.@.                                                                                                                                                                                                                      ",
"                                                                                                                                                                                                                                                                                                                                                                                                                                                                                                                                                                                                                d.d.d.d.d.d.d.d.d.d.d.d.d.d.d.d.d.d.d.d.d.s.e.9.%.s 8 s s s s s s s s s s s s s s s s s a a a a a a a a a a d a a a a d a a a a d d d d &.t.}.6XeXeXeXeXeXeX8X_.@.d d d @.@.@.@.@.@.@.@.@.@.@.@.@.                                                                                                                                                                                                                      ",
"                                                                                                                                                                                                                                                                                                                                                                                                                                                                                                                                                                                                      d.d.d.d.d.d.d.d.d.d.d.d.d.d.d.d.d.d.d.d.d.d.s.w.6.#.8 8 8 8 8 8 8 s s s s s s s s s s s s s s s s a a a a a a a a a a a a a a a d d a a a &.).}.6XeXeXeXeXeXeXeXeXeXeXeXeX6X).@.d @.@.@.@.@.@.@.@.@.@.@.@.@.                                                                                                                                                                                                                      ",
"                                                                                                                                                                                                                                                                                                                                                                                                                                                                                                                                                                                              g.d.d.d.d.d.d.d.d.d.d.d.d.d.d.d.d.d.d.d.d.d.y.w.&.#.8 8 8 8 8 8 s 8 8 8 s s 8 8 s s s s s s s s s s s s s s a a a a a a a a a a a a a a d &.).%X8XeXeXeXeXeXeXeXeXeXwXwXwXwXeXeXeXeXeX6X).@.@.@.@.@.@.@.@.@.@.@.@.@.                                                                                                                                                                                                                      ",
"                                                                                                                                                                                                                                                                                                                                                                                                                                                                                                                                                                                      g.g.d.d.d.d.d.d.d.d.d.d.d.d.d.d.d.d.d.d.d.d.r.9.&.a 8 8 8 8 8 8 8 8 8 8 s 8 8 8 8 8 8 s s s s s s s s s s s s s s s s a a a a a a a a a d 3.).%X8XeXeXeXeXeXeXeXeXeXwXwXwXwXeXeXeXeXeXeXeXeXeXeXeX6Xt.@.@.@.@.@.@.@.@.@.@.@.                                                                                                                                                                                                                      ",
"                                                                                                                                                                                                                                                                                                                                                                                                                                                                                                                                                                              g.d.g.g.g.g.g.g.g.g.g.g.g.d.d.g.g.g.g.g.g.j.e.9.#.8 8 8 8 8 8 8 8 8 8 8 8 8 8 8 s s s 8 8 8 8 s 8 s s s s s s s s s s s s s s a a a a a a 3.).&X8XeXeXeXeXeXeXeXeXeXwXwXwXwXeXeXeXeXeXeXeXeXeXeXeXeXwXwXeXwXeX*Xt.@.@.@.@.@.@.@.@.@.                                                                                                                                                                                                                      ",
"                                                                                                                                                                                                                                                                                                                                                                                                                                                                                                                                                                    g.g.g.g.g.g.g.g.g.g.g.g.g.g.g.g.g.g.g.g.g.g.s.e.6.#.8 8 8 8 8 8 8 8 8 8 8 8 8 8 8 8 8 8 8 8 s 8 8 8 s 8 s 8 s s s s s s s s s s s s s s a d 3.).&XwXeXeXeXeXeXeXeXeXeXwXwXwXwXeXeXeXeXeXeXeXeXeXeXeXeXwXwXwXwXeXeXeXeXeXeXeX*Xt.@.@.@.@.@.@.@.                                                                                                                                                                                                                      ",
"                                                                                                                                                                                                                                                                                                                                                                                                                                                                                                                                                            g.g.g.g.g.g.g.g.g.g.g.g.g.g.g.g.g.g.g.g.g.g.s.w.&.#.8 8 8 8 8 8 8 8 8 8 8 8 8 8 8 8 8 8 8 8 8 8 8 8 s s 8 8 s s s s s s s s s s s s s s s @.3._.&XwXeXeXeXeXeXeXeXeXwXqXqXwXwXeXeXeXeXeXeXeXeXeXeXeXeXwXwXwXwXeXeXeXeXeXeXeXeXeXeXeXeXeX&X3.@.@.@.@.@.                                                                                                                                                                                                                      ",
"                                                                                                                                                                                                                                                                                                                                                                                                                                                                                                                                                    g.g.g.g.g.g.g.g.g.g.g.g.g.g.g.g.g.g.h.g.g.g.r.9.%.8 7 8 8 8 8 8 8 8 8 8 8 8 8 8 8 8 8 8 8 8 8 8 8 8 8 8 8 8 s s 8 8 8 s s s s s s s s s s d 3._.&XwXeXeXeXeXeXeXeXeXwXqXqXqXwXeXeXeXeXeXeXeXeXeXeXeXeXwXwXwXwXeXeXeXeXeXeXeXeXeXeXeXeXwXwXwXwXeXeXeX&X3.@.@.@.                                                                                                                                                                                                                      ",
"                                                                                                                                                                                                                                                                                                                                                                                                                                                                                                                                          h.h.h.h.h.h.h.h.h.h.h.h.h.h.h.h.h.h.h.h.h.h.g.e.9.#.8 7 8 8 8 7 8 8 8 8 8 8 8 8 8 8 8 8 8 8 8 8 8 8 8 8 8 8 8 8 8 8 8 8 s 8 8 s s s s s s s @.t.|.*XwXeXeXeXeXeXeXeXeXwXqXqXqXwXeXeXeXeXeXeXeXeXeXeXeXeXwXwXwXwXeXeXeXeXeXeXeXeXeXeXeXwXwXwXwXeXeXeXeXeXeXeXeXeXwX%X3.@.                h.h.g.h.h.h.h.h.h.h.h.h.h.                                                                                                                                                                            ",
"                                                                                                                                                                                                                                                                                                                                                                                                                                                                                                                                  g.h.h.h.h.h.h.h.h.h.h.h.h.h.h.h.h.h.h.h.h.h.j.e.6.#.8 7 7 7 7 7 8 8 8 7 7 8 8 8 8 8 8 8 8 8 8 8 8 8 8 8 8 8 8 8 8 8 8 8 8 8 8 8 s 8 8 8 s s @.t.|.*XwXwXwXwXwXeXeXeXeXqX0XqXqXwXeXeXeXeXeXeXeXeXeXeXeXwXqXqXqXqXeXeXeXeXeXeXeXeXeXeXeXwXwXwXwXwXeXeXeXeXeXeXeXeXeXeXeXeXeXeXwX&X    h.h.h.h.h.h.h.h.h.h.h.h.h.h.h.h.h.h.h.h.g.                                                                                                                                                                        ",
"                                                                                                                                                                                                                                                                                                                                                                                                                                                                                                                          h.h.h.h.h.h.h.h.h.h.h.h.h.h.h.h.h.h.h.h.h.h.s.w.&.#.7 7 7 7 7 7 7 7 7 7 8 8 8 8 8 8 8 8 8 8 8 8 8 8 8 8 8 8 8 8 8 8 8 8 8 8 8 8 8 8 8 8 8 8 @.t.}.<XeXwXwXeXeXeXeXeXeXqX0X0X0XwXeXeXeXeXeXeXeXeXeXeXeXwXqXqXqXqXeXeXeXeXeXeXeXeXeXeXeXwXwXwXwXwXeXeXeXeXeXeXeXwXwXeXeXeXeXeXeXwX9X:X$X[.h.h.h.h.h.h.h.h.h.h.h.h.h.h.h.h.h.h.h.h.h.h.h.h.h.                                                                                                                                                                    ",
"                                                                                                                                                                                                                                                                                                                                                                                                                                                                                                                h.h.h.h.h.h.h.h.h.h.h.h.h.h.h.h.h.h.h.h.h.h.h.y.w.%.8 6 6 7 7 7 7 7 7 7 7 7 7 7 7 7 8 8 8 8 8 8 8 8 8 8 8 8 8 8 8 8 8 8 8 8 8 8 8 8 8 8 8 8 8 %.t.}.6XeXeXeXeXeXwXwXeXwXqX0X0X0XwXeXeXeXeXeXeXeXeXeXeXeXwXqXqXqXwXeXeXeXeXeXeXeXeXeXeXeXwXqXqXqXwXeXeXeXeXeXeXeXeXeXeXeXeXwXeXeXwX6X:X$X`.h.h.h.h.h.h.h.h.h.h.h.h.h.h.h.h.h.h.g.j.f.f.f.j.h.h.h.h.h.h.                                                                                                                                                                  ",
"                                                                                                                                                                                                                                                                                                                                                                                                                                                                                                        h.h.h.h.h.h.h.h.h.h.h.h.h.h.h.h.h.h.h.h.`.`.h.r.9.#.8 6 6 6 6 6 6 7 7 7 7 7 7 7 7 7 7 7 7 7 7 8 7 7 8 8 8 8 8 8 8 8 8 8 8 8 8 8 8 8 8 8 8 8 8 %.t.%X8XeXeXeXeXeXeXeXeXwX0X7X0X0XwXeXeXeXeXeXeXeXeXeXeXeXqX0XqXqXwXeXeXeXeXeXeXeXeXeXeXeXqXqXqXqXwXeXeXeXeXeXeXeXeXeXeXeXeXeXeXeXwX<X>X$X`.h.h.h.h.h.h.h.h.h.h.h.h.h.h.h.h.h.d.0.` E B B B B B B B B R ' q.f.h.h.                                                                                                                                                                ",
"                                                                                                                                                                                                                                                                                                                                                                                                                                                                                                `.h.`.`.`.`.h.h.`.`.`.`.`.`.`.`.`.`.`.`.`.`.h.e.6.#.7 4 4 4 4 6 6 6 6 6 6 7 7 7 7 7 7 7 7 7 7 7 7 7 7 7 7 7 7 8 8 8 8 8 8 8 8 8 8 8 8 8 8 8 8 &.).&X8XeXeXeXeXeXeXeXeXwX0X0X0X0XwXwXwXwXeXeXeXeXeXeXeXeXqX0X0X0XwXeXeXeXeXeXeXeXeXeXeXwXqXqXqXqXwXeXeXeXeXeXeXeXeXeXeXeXeXeXeXeXwX<X>X+X`.`.`.h.`.`.`.`.`.`.`.`.`.`.`.`.`.`.`.a.8.R B B B B B B B B B B B B B B B B R 0.h.`.                                                                                                                                                            ",
"                                                                                                                                                                                                                                                                                                                                                                                                                                                                                        `.`.`.`.`.`.`.`.`.`.`.`.`.`.`.`.`.`.`.`.`.`.j.e.&.#.6 4 4 4 4 4 4 4 4 4 6 6 6 6 6 7 7 7 7 7 7 7 7 7 7 7 7 7 7 7 7 7 7 8 8 8 8 8 8 8 8 8 8 8 s 3.).&XwXeXeXeXeXeXeXeXeXqX0X0X0XqXwXeXeXeXeXeXeXeXeXeXeXwXqX0X0X0XwXeXeXeXeXeXeXeXeXeXeXwXqXqXqXqXeXeXeXeXeXeXeXeXeXeXeXeXeXeXeXeX8X<X>X{.`.`.`.`.`.`.`.`.`.`.`.`.`.`.`.`.`.`.`.a.8.R B B B B B B B B B B B B B B B B B B B B B B E j.                                                                                                                                                            ",
"                                                                                                                                                                                                                                                                                                                                                                                                                                                                              `.`.`.`.`.`.`.`.`.`.`.`.`.`.`.`.`.`.`.`.`.`.`.j.w.&.8 4 4 4 4 4 4 4 4 4 4 4 4 4 4 6 6 6 6 6 6 7 7 7 7 7 7 7 7 7 7 7 7 7 7 7 7 8 8 8 8 8 8 8 8 a 3.|.*XwXeXeXeXeXeXeXeXwXqX0X7X0XqXeXeXeXeXeXeXeXeXeXeXeXwX0X0X0X0XwXeXeXeXeXeXeXeXeXeXeXwXqX0X0XqXeXeXeXeXeXeXeXeXeXeXeXeXeXeXeXwX8X<X#X{.`.`.`.`.`.`.`.`.`.`.`.`.`.`.`.`.`.`.`.a.` R B B B B B B B B B B B B B B B B B B B B B B B B B B B R r.                                                                                                                                                          ",
"                                                                                                                                                                                                                                                                                                                                                                                                                                                                      `.`.`.`.`.`.`.`.`.`.`.`.`.`.`.`.`.`.`.`.`.`.`.y.9.%.8 4 4 4 4 4 4 4 4 4 4 4 4 4 4 4 4 4 4 6 6 6 6 6 6 7 7 7 7 7 7 7 7 7 7 7 7 7 7 8 8 8 8 8 8 @.3._.*XwXeXeXeXeXeXeXeXwX0X7X7X7XqXeXeXeXeXeXeXeXeXeXeXeXwX0X0X0X0XwXeXeXeXeXeXeXeXeXeXeXqX0X0X0XqXeXeXeXeXeXeXeXeXeXeXeXeXeXeXeXwX9X:X#X{.`.`.`.`.`.`.`.`.`.`.`.`.`.`.`.`.`.`.`.a.` R B B B B B B B B B B B B B B B B B B B B B B B B B B B B B B B B B r.                                                                                                                                                        ",
"                                                                                                                                                                                                                                                                                                                                                                                                                                                              `.`.`.`.`.`.`.`.`.`.`.`.`.`.`.`.`.`.`.`.`.`.`.y.9.#.7 4 4 4 4 4 4 4 4 4 4 4 4 4 4 4 4 4 4 4 4 4 4 6 6 6 6 6 6 7 7 7 7 7 7 7 7 7 7 7 7 7 8 8 8 @.4.}.<XwXeXeXeXeXeXeXeXwX0X7X7X7XqXeXeXeXeXeXeXeXeXeXeXeXqX0X0X0X0XwXeXeXeXeXeXeXeXeXeXeXqX0X0X0XwXeXeXeXeXeXeXeXeXeXeXeXeXeXeXeXwX6X:X@X[.`.`.`.`.`.`.`.`.`.`.`.`.`.`.`.`.`.`.h.r.` R B B B B B B B B B B B B B B B B B B B B B B B B B B B B B B B B B B B B B R                                                                                                                                                         ",
"                                                                                                                                                                                                                                                                                                                                                                                                                                                      `.`.`.`.`.`.`.`.`.`.`.`.`.`.`.`.`.`.`.`.`.`.h.y.9.#.7 4 4 4 4 4 4 4 4 4 4 4 4 4 4 4 4 4 4 4 4 4 4 4 4 6 4 4 6 6 6 4 4 7 7 7 7 7 7 7 7 7 7 7 7 @.t.}.6XeXeXeXeXeXeXeXeXwX0X5X5X0XqXeXeXeXeXeXeXeXeXeXeXwXqX0X7X0XqXwXeXeXeXeXeXeXeXeXeXwX0X0X0X0XwXeXeXeXeXeXeXeXeXeXeXeXeXeXeXeXwX6X:X$X[.`.`.`.`.`.`.`.`.`.`.`.`.`.`.`.`.`.`.h.r.` R B B B B B B B B B B B B B B B B B B B B B B B B B B B B B B B B B B B B B B B B B B E                                                                                                                                                       ",
"                                                                                                                                                                                                                                                                                                                                                                                                                                            `.`.`.`.`.`.`.`.`.`.`.`.`.`.`.`.`.`.`.`.`.`.`.j.e.&.#.4 4 4 4 4 4 4 4 4 4 4 4 4 4 4 4 4 4 4 4 4 4 4 4 4 4 4 4 4 4 4 4 6 6 6 6 6 7 7 7 7 7 7 7 8 %.t.}.8XeXeXeXeXeXeXeXeXqX7X5X5X0XwXeXeXeXeXeXeXeXeXeXeXwX0X7X7X7XqXeXeXeXeXeXeXeXeXeXeXwX0X0X0X0XwXeXeXeXeXeXeXeXeXeXeXeXeXeXeXeX8X<X>X+X`.`.`.`.`.`.`.`.`.`.`.`.`.`.`.`.[.`.`.h.0.` R B B B B B B B B B B B B B B B B B B B B B B B B B B B B B B B B B B B B B B B B B B B B B B B                                                                                                                                                       ",
"                                                                                                                                                                                                                                                                                                                                                                                                                                    [.`.`.`.`.`.`.`.`.`.`.`.`.`.`.`.`.`.`.`.`.`.`.j.e.&.a 4 4 4 4 4 4 4 4 4 4 4 4 4 4 4 4 4 4 4 4 4 4 4 4 4 4 4 4 4 4 4 4 4 4 4 4 6 6 6 6 6 6 7 7 7 %.).%X8XeXeXeXeXeXeXeXwXqX7X4X5X0XwXeXeXeXeXeXeXeXeXeXeXwX0X7X7X7XqXeXeXeXeXeXeXeXeXeXeXwX0X7X7X0XwXeXeXeXeXeXeXeXeXeXeXeXeXeXeXeX8X<X>X+X`.`.`.`.`.`.`.`.`.`.`.`.`.`.`.`.`.`.'.h.0.` R B B B B B B B B B B B B B B B B B B B B B B B B B B B B B B B B B B B B B B B B B B B B B B B B B B B B                                                                                                                                                     ",
"                                                                                                                                                                                                                                                                                                                                                                                                                            [.[.[.[.[.[.[.[.[.[.[.[.{.{.[.[.[.[.{.{.[.[.`.j.w.&.8 4 4 4 4 4 4 4 4 4 4 4 4 4 4 4 4 4 4 4 4 4 4 4 4 4 4 4 4 4 4 4 4 4 4 4 4 4 4 4 4 6 6 4 6 8 &.).&XwXeXeXeXeXeXeXeXwX0X5X4X5X0XwXeXeXeXeXeXeXeXeXeXeXwX0X5X5X0XqXeXeXeXeXeXeXeXeXeXeXqX0X7X7X0XwXeXeXeXeXeXeXeXeXeXeXeXeXeXeXwX8X<X>X{.[.[.[.[.[.[.[.[.[.[.[.[.[.[.[.[.[.{.{.h.0.` R B B B B B B B B B B B B B B B B B B B B B B B B B B B B B B B B B B B B B B B B B B B B B B B B B B B B B B B B                                                                                                                                                     ",
"                                                                                                                                                                                                                                                                                                                                                                                                                  [.[.[.[.[.[.[.[.[.[.[.[.[.[.[.[.{.[.[.[.[.[.[.`.y.w.%.8 4 4 4 4 4 4 4 4 4 4 4 4 4 4 4 4 4 4 4 4 4 4 4 4 4 4 4 4 4 4 4 4 4 4 4 4 4 4 4 4 4 4 4 4 8 3.).*XwXeXeXeXeXeXeXeXwX0X5X4X5X0XwXeXeXeXeXeXeXeXeXeXeXqX7X5X5X0XwXeXeXeXeXeXeXeXeXeXwXqX7X5X7X0XwXeXeXeXeXeXeXeXeXeXeXeXeXeXeXwX8X<X#X{.[.[.[.[.[.[.[.[.[.[.[.[.[.[.[.{.[.[.[.g.0.` R B B B B B B B B B B B B B B B B B B B B B B B B B B B B B B B B B B B B B B B B B B B B B B B B B B B B B B B B B B B B                                                                                                                                                     ",
"                                                                                                                                                                                                                                                                                                                                                                                                          {.{.{.{.{.{.{.{.{.{.{.{.{.{.{.{.{.{.{.{.{.{.{.].y.6.#.7 4 4 4 4 4 4 4 4 4 4 4 4 4 4 4 4 4 4 4 4 4 4 4 4 4 4 4 4 4 4 4 4 4 4 4 4 4 4 4 4 4 4 4 4 a 3.).*XwXeXeXeXeXeXeXeXqX0X4X4X5X0XwXeXeXeXeXeXeXeXeXeXwXqX7X4X5X0XwXeXeXeXeXeXeXeXeXeXwX0X7X5X5X0XwXeXeXeXeXeXeXeXeXeXeXeXeXeXeXwX6X,X#X{.{.{.{.{.{.{.{.{.{.{.{.{.{.{.{.{.{.{.'.j.q.` R B B B B B B B B B B B B B B B B B B B B B B B B B B B B B B B B B B B B B B B B B B B B B B B B B B B B B B B B B B B B B B B B                                                                                                                                                     ",
"                                                                                                                                                                                                                                                                                                                                                                                                  oX{.{.{.{.{.{.{.{.{.{.{.{.{.{.{.{.{.{.{.{.{.{.].e.6.#.4 4 4 4 4 4 4 4 4 4 4 4 4 4 4 4 4 4 4 4 4 4 4 4 4 4 4 4 4 4 4 4 4 4 4 4 4 4 4 4 4 4 4 4 4 a 3.|.*XwXeXeXeXeXeXeXeXqX7X4X4X5X0XwXeXeXeXeXeXeXeXeXeXwX0X5X4X5X0XwXeXeXeXeXeXeXeXeXeXwX0X5X5X7X0XwXeXeXeXeXeXeXeXeXeXeXeXeXeXeXwX6X:X@X{.{.{.{.{.{.{.{.{.{.{.{.{.{.{.{.{.{.{.{.j.q.` R B B B B B B B B B B B B B B B B B B B B B B B B B B B B B B B B B B B B B B B B B B B B B B B B B B B B B B B B B B B B B B B B B B B B B                                                                                                                                                   ",
"                                                                                                                                                                                                                                                                                                                                                                                        {.oX{.{.{.{.{.{.{.{.{.{.{.{.{.{.{.{.{.{.{.{.{.{.j.e.&.f 4 4 4 4 4 4 4 4 4 4 4 4 4 4 4 4 4 4 4 4 4 4 4 4 4 4 4 4 4 4 4 4 4 4 4 4 4 4 4 4 4 4 4 4 4 @.w.|.6XeXeXeXeXeXeXeXwX0X5X4X4X5X0XwXeXeXeXeXeXeXeXeXeXwX0X5X4X4X0XwXeXeXeXeXeXeXeXeXeXwX0X5X5X7XqXeXeXeXeXeXeXeXeXeXeXeXeXeXeXeXwX<X>X$X{.{.{.{.{.{.{.{.{.{.{.{.{.{.{.{.{.{.{.{.f.q.` R B B B B B B B B B B B B B B B B B B B B B B B B B B B B B B B B B B B B B B B B B B B B B B B B B B B B B B B B B B B B B B B B B B B B B B B B B                                                                                                                                                   ",
"                                                                                                                                                                                                                                                                                                                                                                                {.{.{.{.{.{.{.{.{.{.{.{.{.{.{.{.{.{.{.{.{.{.{.{.j.w.%.8 4 4 4 4 4 4 4 4 4 4 4 4 4 4 4 4 4 4 4 4 4 4 4 4 4 4 4 4 4 4 4 4 4 4 4 4 4 4 4 4 4 4 4 4 6 @.t.}.8XeXeXeXeXeXeXeXwX0X5X4X4X7XqXwXeXeXeXeXeXeXeXeXeXqX0X4X4X5X0XwXeXeXeXeXeXeXeXeXeXqX7X4X4X7XqXeXeXeXeXeXeXeXeXeXeXeXeXeXeXwX8X<X>X@X{.{.{.{.{.{.{.{.{.{.{.{.{.{.{.{.{.{.{.{.j.q.` R B B B B B B B B B B B B B B B B B B B B B B B B B B B B B B B B B B B B B B B B B B B B B B B B B B B B B B B B B B B B B B B B B B B B B B B B B B B B B                                                                                                                                                   ",
"                                                                                                                                                                                                                                                                                                                                                                        oX{.{.{.{.{.{.{.{.{.{.{.{.{.{.{.{.{.{.{.{.{.{.'.y.w.#.7 4 4 4 4 4 4 4 4 4 4 4 4 4 4 4 4 4 4 4 4 4 4 4 4 4 4 4 4 4 4 4 4 4 4 4 4 4 4 4 4 4 4 4 4 6 %.t.}.8XeXeXeXeXeXeXeXwX0X4X3X4X7XqXeXeXeXeXeXeXeXeXeXeXqX7X4X4X5X0XwXeXeXeXeXeXeXeXeXwXqX7X4X4X7XqXeXeXeXeXeXeXeXeXeXeXeXeXeXeXeX8X<X>X+X{.{.{.{.{.{.{.{.{.{.{.{.{.{.{.{.{.{.{.{.f.q.' B B B B B B B B B B B B B B B B B B B B B B B B B B B B B B B B B B B B B B B B B B B B B B B B B B B B B B B B B B B B B B B B B B B B B B B B B B B B B B B B B B                                                                                                                                                   ",
"                                                                                                                                                                                                                                                                                                                                                                oXoXoXoXoXoX{.oXoXoXoXoXoXoXoXoX{.oXoXoXoXoXoX`.y.6.#.6 4 4 4 4 4 4 4 4 4 4 4 4 4 4 4 4 4 4 4 4 4 4 4 4 4 4 4 4 4 4 4 4 4 4 4 4 4 4 4 4 4 4 4 4 7 &.u.&XwXeXeXeXeXeXeXeXqX0X4X3X4X7XqXeXeXeXeXeXeXeXeXeXwX0X5X4X4X5X0XwXeXeXeXeXeXeXeXeXwX0X5X4X4X0XqXeXeXeXeXeXeXeXwXwXeXeXeXeXeXwX9X<X=X+XoXoXoXoXoXoXoXoXoXoXoXoXoXoXoXoXoXoXoX[.a.q.' B B B B B B B B B B B B B B B B B B B B B B B B B B B B B B B B B B B B B B B B B B B B B B B B B B B B B B B B B B B B B B B B B B B B B B B B B B B B B B B B B B B B B B                                                                                                                                                   ",
"                                                                                                                                                                                                                                                                                                                                                      {.oX{.{.oXoXoXoXoXoXoXoXoXoXoXoXoXoXoXoXoXoXoXoX].e.6.#.4 4 4 4 4 4 4 4 4 4 4 4 4 4 4 4 4 4 4 4 4 4 4 4 4 4 4 4 4 4 4 4 4 4 4 4 4 4 4 4 4 4 4 4 4 8 &.).&XwXeXeXeXeXeXeXeXqX7X4X3X4X0XqXeXeXeXeXeXeXeXeXeXwX0X5X4X4X5X0XwXeXeXeXeXeXeXeXeXwX0X5X4X4X0XwXeXeXeXeXeXeXeXeXeXeXeXeXwXeXwX9X,X#XoX{.{.{.{.oXoXoXoXoXoXoXoXoXoXoXoXoXoXoX'.a.q.' B B B B B B B B B B B B B B B B B B B B B B B B B B B B B B B B B B B B B B B B B B B B B B B B B B B B B B B B B B B B B B B B B B B B B B B B B B B B B B B B B B B B B B B B B B                                                                                                                                                   ",
"                                                                                                                                                                                                                                                                                                                                              {.oXoXoX{.{.{.oXoXoXoX{.{.{.{.oXoXoXoX{.{.{.oXoX].e.&.8 4 4 4 4 4 4 4 4 4 4 4 4 4 4 4 4 4 4 4 4 4 4 4 4 4 4 4 4 4 4 4 4 4 4 4 4 4 4 4 4 4 4 4 4 4 a 4.|.*XwXeXeXeXeXeXeXwX0X5X4X2X4X0XqXeXeXeXeXeXeXeXeXeXwX0X4X3X4X7XqXeXeXeXeXeXeXeXeXeXwX0X4X4X4X0XwXeXeXeXeXeXwXwXeXeXeXeXeXeXeXwX<X:X#XoX{.{.oXoXoXoXoXoXoXoXoXoX{.{.{.{.oXoXoX{.a.q.' B B B B B B B B B B B B B B B B B B B B B B B B B B B B B B B B B B B B B B B B B B B B B B B B B B B B B B B B B B B B B B B B B B B B B B B B B B B B B B B B B B B B B B B B B B B B B B                                                                                                                                                   ",
"                                                                                                                                                                                                                                                                                                                                      oXoXoXoXoXoXoXoXoXoX{.+X+XoXoX{.{.oXoX+X+X+X+X{.y.w.%.8 4 4 4 4 4 4 4 4 4 4 4 4 4 4 4 4 4 4 4 4 4 4 4 4 4 4 4 4 4 4 4 4 4 4 4 4 4 4 4 4 4 4 4 4 4 @.w.|.*XeXeXeXeXeXeXeXwX0X5X3X3X4X0XwXeXeXeXeXeXeXeXeXeXqX0X4X3X4X7XqXeXeXeXeXeXeXeXeXeXqX7X4X3X4X0XwXeXeXeXeXeXeXeXeXeXwXwXeXeXeX8X<X:X@X{.oXoXoXoX{.{.oXoXoXoXoXoXoXoXoXoX{.{.oX'.r.q.' R B B B B B B B B B B B B B B B B B B B B B B B B B B B B B B B B B B B B B B B B B B B B B B B B B B B B B B B B B B B B B B B B B B B B B B B B B B B B B B B B B B B B B B B B B B B B B B B B B                                                                                                                                                   ",
"                                                                                                                                                                                                                                                                                                                            {.+X+X+X+X+XoXoX+X+X+X+X+X+XoX+X+X+X+X+X+X+XoX+X'.y.w.#.6 4 4 4 4 4 4 4 4 4 4 4 4 4 4 4 4 4 4 4 4 4 4 4 4 4 4 4 4 4 4 4 4 4 4 4 4 4 4 4 4 4 4 4 4 6 %.t.}.8XeXeXeXeXeXeXeXwX0X4X3X2X4X0XwXeXeXeXeXeXeXeXeXeXqX7X4X3X4X7XqXeXeXeXeXeXeXeXeXwXqX7X4X3X5X0XwXeXeXeXeXeXeXeXeXeXeXeXeXeXwX8X<X>X@X+X+X+X+X+X+X+XoX+X+X+X+X+X+X+X+X+X+X+X+X`.r.q.' R B B B B B B B B B B B B B B B B B B B B B B B B B B B B B B B B B B B B B B B B B B B B B B B B B B B B B B B B B B B B B B B B B B B B B B B B B B B B B B B B B B B B B B B B B B B B B B B B B B B B B                                                                                                                                                   ",
"                                                                                                                                                                                                                                                                                                                    +X+X+X+X+X+X+X+X+X+X+X+X+X+X+X+X+X+X+X+X+X+X+X+X].u.6.#.6 4 4 4 4 4 4 4 4 4 4 4 4 4 4 4 4 4 4 4 4 4 4 4 4 4 4 4 4 4 4 4 4 4 4 4 4 4 4 4 4 4 4 4 4 8 &.u.%X8XeXeXeXeXeXeXeXqX0X4X2X3X4X0XwXeXeXeXeXeXeXeXeXwX0X5X4X2X4X0XqXeXeXeXeXeXeXeXeXwX0X5X3X3X5X0XwXeXeXeXeXeXeXeXeXeXeXeXeXeXwX8X<X>X@X+X+X+X+X+X+X+X+X+X+X+X+X+X+X+X+X+X+X+X+X`.r.q.' B B B B B B B B B B B B B B B B B B B B B B B B B B B B B B B B B B B B B B B B B B B B B B B B B B B B B B B B B B B B B B B B B B B B B B B B B B B B B B B B B B B B B B B B B B B B B B B B B B B B B B B B B B                                                                                                                                                   ",
"                                                                                                                                                                                                                                                                                                            +X+X+X+X+X+X+X+X+X+X+X+X+X+X+X+X+X+X+X+X+X+X+X+X].e.&.f 4 4 4 4 4 4 4 4 4 4 4 4 4 4 4 4 4 4 4 4 4 4 4 4 4 4 4 4 4 4 4 4 4 4 4 4 4 4 4 4 4 4 4 4 4 s 3.).&XwXeXeXeXeXeXeXwXqX7X4X2X3X5X0XwXeXeXeXeXeXeXeXeXwX0X5X3X3X4X0XwXeXeXeXeXeXeXeXeXwX0X4X3X3X5X0XwXeXeXeXeXeXwXwXwXeXeXeXeXwXwX9X<X-X+X+X+X+X+X+X+X+X+X+X+X+X+X+X+X+X+X+X+X+X+X'.r.q.' B B B B B B B B B B B B B B B B B B B B B B B B B B B B B B B B B B B B B B B B B B B B B B B B B B B B B B B B B B B B B B B B B B B B B B B B B B B B B B B B B B B B B B B B B B B B B B B B B B B B B B B B B B B B B B                                                                                                                                                   ",
"                                                                                                                                                                                                                                                                                                    +X+X+X+X+X+X+X+X+X+X+X+X+X+X+X+X+X+X+X+X+X+X+X+X].w.&.8 4 4 4 4 4 4 4 4 4 4 4 4 4 4 4 4 4 4 4 4 4 4 4 4 4 4 4 4 4 4 4 4 4 4 4 4 4 4 4 4 4 4 4 4 4 a 3._.*XwXeXeXeXeXeXeXwX0X5X3X2X3X5X0XwXeXeXeXeXeXeXeXeXwX0X4X3X2X4X0XwXeXeXeXeXeXeXeXeXqX0X4X3X4X5X0XwXeXeXeXeXeXeXeXeXeXwXwXwXwXwX6X<X=X+X+X+X+X+X+X+X+X+X+X+X+X+X+X+X+X+X+X+X+X+X'.r.8.' B B B B B B B B B B B B B B B B B B B B B B B B B B B B B B B B B B B B B B B B B B B B B B B B B B B B B B B B B B B B B B B B B B B B B B B B B B B B B B B B B B B B B B B B B B B B B B B B B B B B B B B B B B B B B B B B B B                                                                                                                                                   ",
"                                                                                                                                                                                                                                                                                          +X+X+X+X+X+X+X+X+X+X+X+X+X+X+X+X+X+X+X+X+X+X+X+X+X].w.%.8 4 4 4 4 4 4 4 4 4 4 4 4 4 4 4 4 4 4 4 4 4 4 4 4 4 4 4 4 4 4 4 4 4 4 4 4 4 4 4 4 4 4 4 4 6 @.t.}.6XeXeXeXeXeXeXeXwX0X5X3X2X3X5X0XwXeXeXeXeXeXeXeXeXqX0X4X2X3X4X0XwXeXeXeXeXeXeXeXeXqX7X4X2X4X7XqXwXeXwXwXwXeXeXeXeXeXeXeXeXeXwX<X:X#X+X@X+X+X+X+X+X+X+X+X+X+X+X+X+X+X+X+X+X+X+X'.r.q.E B B B B B B B B B B B B B B B B B B B B B B B B B B B B B B B B B B B B B B B B B B B B B B B B B B B B B B B B B B B B B B B B B B B B B B B B B B B B B B B B B B B B B B B B B B B B B B B B B B B B B B B B B B B B B B B B B B B B B B                                                                                                                                                   ",
"                                                                                                                                                                                                                                                                                  @X+X@X+X+X+X+X@X@X+X+X+X+X@X@X@X@X+X+X+X+X@X@X@X{.y.w.#.6 4 4 4 4 4 4 4 4 4 4 4 4 4 4 4 4 4 4 4 4 4 4 4 4 4 4 4 4 4 4 4 4 4 4 4 4 4 4 4 4 4 4 4 4 7 %.u.%X8XeXeXeXeXeXeXeXwX0X4X2X2X4X5X0XwXeXeXeXeXeXeXeXwXqX7X4X2X3X5X0XwXeXeXeXeXeXeXeXwX0X5X4X2X4X7XqXeXeXeXeXeXeXwXwXwXeXeXeXeXwX8X<X:X#X+X+X+X+X@X@X@X@X+X+X+X+X@X@X+X+X+X+X+X+X+X`.a.q.E B B B B B B B B B B B B B B B B B B B B B B B B B B B B B B B B B B B B B B B B B B B B B B B B B B B B B B B B B B B B B B B B B B B B B B B B B B B B B B B B B B B B B B B B B B B B B B B B B B B B B B B B B B B B B B B B B B B B B B B B B B                                                                                                                                                   ",
"                                                                                                                                                                                                                                                                          +X+X@X@X@X@X@X@X@X@X@X@X@X@X@X@X@X@X@X@X@X@X@X@X'.y.i.#.4 4 4 4 4 4 4 4 4 4 4 4 4 4 4 4 4 4 4 4 4 4 4 4 4 4 4 4 4 4 4 4 4 4 4 4 4 4 4 4 4 4 4 4 4 8 &.).&XwXeXeXeXeXeXeXeXqX7X4X2X2X4X7XqXeXeXeXeXeXeXeXeXwX0X5X3X2X3X5X0XwXeXeXeXeXeXeXeXwX0X5X3X2X4X7XqXeXeXeXeXeXeXeXeXeXeXeXeXeXwX8X<X>X@X@X@X@X@X@X@X@X@X@X@X@X@X@X@X@X@X@X@X@X@X@X`.r.q.E B B B B B B B B B B B B B B B B B B B B B B B B B B B B B B B B B B B B B B B B B B B B B B B B B B B B B B B B B B B B B B B B B B B B B B B B B B B B B B B B B B B B B B B B B B B B B B B B B B B B B B B B B B B B B B B B B B B B B B B B B B B B B B                                                                                                                                                   ",
"                                                                                                                                                                                                                                                                +X'.+X@X@X@X@X@X@X@X@X@X@X@X@X@X@X@X@X@X@X@X@X@X@X].e.&.f 4 4 4 4 4 4 4 4 4 4 4 4 4 4 4 4 4 4 4 4 4 4 4 4 4 4 4 4 4 4 4 4 4 4 4 4 4 4 4 4 4 4 4 4 4 a 3._.*XwXeXeXeXeXeXeXwXqX7X4X2X2X4X7XqXeXeXeXeXeXeXeXeXwX0X5X3X2X3X5X0XwXeXeXeXeXeXeXeXwX0X4X3X2X4X7XqXeXeXeXeXwXwXeXeXeXeXeXeXeXwX9X<X>X@X@X@X@X@X@X@X@X@X@X@X@X@X@X@X@X@X@X@X@X@X@X`.r.q.E B B B B B B B B B B B B B B B B B B B B B B B B B B B B B B B B B B B B B B B B B B B B B B B B B B B B B B B B B B B B B B B B B B B B B B B B B B B B B B B B B B B B B B B B B B B B B B B B B B B B B B B B B B B B B B B B B B B B B B B B B B B B B B B B B B                                                                                                                                                   ",
"                                                                                                                                                                                                                                                        {.'.@X@X@X@X@X@X@X@X@X@X@X@X@X@X@X@X@X@X@X@X@X@X@X].e.&.8 4 4 4 4 4 4 4 4 4 4 4 4 4 4 4 4 4 4 4 4 4 4 4 4 4 4 4 4 4 4 4 4 4 4 4 4 4 4 4 4 4 4 4 4 4 @.w.|.6XeXeXeXeXeXeXeXwX0X5X3X2X2X4X7XqXeXeXeXeXeXeXeXeXwX0X4X2X2X4X5X0XwXeXeXeXeXeXeXeXqX0X4X2X2X4X0XqXeXeXeXeXeXeXeXeXeXeXwXwXeXwX9X<X-X@X@X@X@X@X@X@X@X@X@X@X@X@X@X@X@X@X@X@X@X@X@X`.r.8.E B B B B B B B B B B B B B B B B B B B B B B B B B B B B B B B B B B B B B B B B B B B B B B B B B B B B B B B B B B B B B B B B B B B B B B B B B B B B B B B B B B B B B B B B B B B B B B B B B B B B B B B B B B B B B B B B B B B B B B B B B B B B B B B B B B B B B B                                                                                                                                                   ",
"                                                                                                                                                                                                                                                ].+X@X@X@X@X@X@X@X@X@X@X@X@X@X@X@X@X@X@X@X@X@X@X+Xy.w.%.7 4 4 4 4 4 4 4 4 4 4 4 4 4 4 4 4 4 4 4 4 4 4 4 4 4 4 4 4 4 4 4 4 4 4 4 4 4 4 4 4 4 4 4 4 7 &.u.%X8XeXeXeXeXeXeXeXwX0X5X3X1X2X4X0XqXeXeXeXeXeXeXeXeXqX7X4X2X2X4X7XqXwXeXeXeXeXeXeXwXqX7X4X2X2X4X0XwXeXeXeXeXeXeXeXeXeXeXeXeXeXwX6X<X-X@X@X@X@X@X@X@X@X@X@X@X@X@X@X@X@X@X@X@X@X@X@X`.r.8.E B B B B B B B B B B B B B B B B B B B B B B B B B B B B B B B B B B B B B B B B B B B B B B B B B B B B B B B B B B B B B B B B B B B B B B B B B B B B B B B B B B B B B B B B B B B B B B B B B B B B B B B B B B B B B B B B B B B B B B B B B B B B B B B B B B B B B B B B B B                                                                                                                                                   ",
"                                                                                                                                                                                                                                      ].].+X@X@X@X@X@X@X@X@X@X@X@X@X@X@X@X@X@X@X@X@X@X@X+Xy.i.#.6 4 4 4 4 4 4 4 4 4 4 4 4 4 4 4 4 4 4 4 4 4 4 4 4 4 4 4 4 4 4 4 4 4 4 4 4 4 4 4 4 4 4 4 4 s 3.).&XwXeXeXeXeXeXeXeXqX0X4X2X1X2X4X0XwXeXeXeXeXeXeXeXwXqX7X4X2X2X4X7XqXeXeXeXeXeXeXeXwX0X5X4X2X2X4X0XwXeXeXeXeXeXeXeXeXeXeXeXeXeX8X6X,X=X@X@X@X@X@X@X@X@X@X@X@X@X@X@X@X@X@X@X@X@X@X@X'.r.8.E B B B B B B B B B B B B B B B B B B B B B B B B B B B B B B B B B B B B B B B B B B B B B B B B B B B B B B B B B B B B B B B B B B B B B B B B B B B B B B B B B B B B B B B B B B B B B B B B B B B B B B B B B B B B B B B B B B B B B B B B B B B B B B B B B B B B B B B B B B B B B B                                                                                                                                                   ",
"                                                                                                                                                                                                                              ].'.@X@X@X@X@X@X@X@X@X@X@X@X@X@X@X@X@X@X@X@X@X@X@X'.u.6.#.4 4 4 4 4 4 4 4 4 4 4 4 4 4 4 4 4 4 4 4 4 4 4 4 4 4 4 4 4 4 4 4 4 4 4 4 4 4 4 4 4 4 4 4 4 @.w.|.*XwXeXeXeXeXeXeXeXqX7X4X2X1X2X4X0XwXeXeXeXeXeXeXeXwX0X5X3X2X2X4X7XqXeXeXeXeXeXeXeXwX0X5X3X1X3X4X0XwXeXeXeXeXeXeXeXeXeXeXeXeXwX8X<X:X#X@X@X@X@X@X@X@X@X@X@X@X@X@X@X@X@X@X@X@X@X@X@X'.r.8.E B B B B B B B B B B B B B B B B B B B B B B B B B B B B B B B B B B B B B B B B B B B B B B B B B B B B B B B B B B B B B B B B B B B B B B B B B B B B B B B B B B B B B B B B B B B B B B B B B B B B B B B B B B B B B B B B B B B B B B B B B B B B B B B B B B B B B B B B B B B B B B B B B B                                                                                                                                                   ",
"                                                                                                                                                                                                                      ].'.@X@X@X@X@X@X@X@X@X@X@X@X@X@X@X@X@X@X@X@X@X@X@X'.e.&.8 4 4 4 4 4 4 4 4 4 4 4 4 4 4 4 4 4 4 4 4 4 4 4 4 4 4 4 4 4 4 4 4 4 4 4 4 4 4 4 4 4 4 4 4 7 &.t.}.8XeXeXeXeXeXeXeXwX0X5X4X2X1X3X4X0XwXeXeXeXeXeXeXeXwX0X5X3X1X2X4X0XqXeXeXeXeXeXeXeXwX0X4X3X1X3X5X0XwXeXeXeXeXeXeXeXeXeXeXeXeXwX8X<X:X#X@X@X@X@X@X@X@X@X@X@X@X@X@X@X@X@X@X@X@X@X@X@X`.r.8.R B B B B B B B B B B B B B B B B B B B B B B B B B B B B B B B B B B B B B B B B B B B B B B B B B B B B B B B B B B B B B B B B B B B B B B B B B B B B B B B B B B B B B B B B B B B B B B B B B B B B B B B B B B B B B B B B B B B B B B B B B B B B B B B B B B B B B B B B B B B B B B B B B B B B B B                                                                                                                                                   ",
"                                                                                                                                                                                                            y.].+X@X@X@X@X@X@X@X@X@X@X@X@X@X@X@X@X@X@X@X@X@X@X@X].w.&.8 4 4 4 4 4 4 4 4 4 4 4 4 4 4 4 4 4 4 4 4 4 4 4 4 4 4 4 4 4 4 4 4 4 4 4 4 4 4 4 4 4 4 4 4 a 3.).&XwXeXeXeXeXeXeXeXwX0X5X3X1X1X3X5X0XwXeXeXeXeXeXeXeXqX0X4X2X1X2X4X0XwXeXeXeXeXeXeXeXqX7X4X2X1X3X5X0XwXeXeXeXeXeXeXeXeXeXeXeXeXwX9X<X:X#X@X@X@X@X@X@X@X@X@X@X@X@X@X@X@X@X@X@X@X@X@X@X`.r.8.R B B B B B B B B B B B B B B B B B B B B B B B B B B B B B B B B B B B B B B B B B B B B B B B B B B B B B B B B B B B B B B B B B B B B B B B B B B B B B B B B B B B B B B B B B B B B B B B B B B B B B B B B B B B B B B B B B B B B B B B B B B B B B B B B B B B B B B B B B B B B B B B B B B B B B B B B B B                                                                                                                                                   ",
"                                                                                                                                                                                                    u.].@X#X#X#X#X#X#X#X#X#X#X#X#X#X#X#X#X#X#X#X#X#X#X+X_.w.%.7 4 4 4 4 4 4 4 4 4 4 4 4 4 4 4 4 4 4 4 4 4 4 4 4 4 4 4 4 4 4 4 4 4 4 4 4 4 4 4 4 4 4 4 4 @.w.|.*XeXeXeXeXeXeXeXeXwX0X4X3X1X1X3X5X0XwXeXeXeXeXeXeXeXqX7X4X2X1X2X4X0XwXeXeXeXeXeXeXwXqX7X4X2X2X3X5X0XwXeXeXeXeXeXeXeXeXeXeXeXeXwX9X<X>X#X#X#X#X#X#X@X@X#X#X#X#X#X#X#X#X#X#X#X#X#X#X@X`.r.8.R B B B B B B B B B B B B B B B B B B B B B B B B B B B B B B B B B B B B B B B B B B B B B B B B B B B B B B B B B B B B B B B B B B B B B B B B B B B B B B B B B B B B B B B B B B B B B B B B B B B B B B B B B B B B B B B B B B B B B B B B B B B B B B B B B B B B B B B B B B B B B B B B B B B B B B B B B B B B B B                                                                                                                                                   ",
"                                                                                                                                                                                                ) r.@X#X#X#X#X#X#X#X#X#X#X#X#X#X#X#X#X#X#X#X#X'.y.w.#.6 4 4 4 4 4 4 4 4 4 4 4 4 4 4 4 4 4 4 4 4 4 4 4 4 4 4 4 4 4 4 4 4 4 4 4 4 4 4 4 4 4 4 4 8 &.u.%X8XeXeXeXeXeXeXeXeXqX0X4X2X1X2X3X5X0XwXeXeXeXeXeXeXwX0X5X4X2X1X2X4X0XwXeXeXeXeXeXeXwX0X5X3X2X2X4X5X0XwXeXeXeXeXeXeXeXeXeXeXeXeXwX9X<X-X#X#X#X#X#X#X#X#X#X#X@X#X#X#X#X#X#X#X#X#X#X#X@X`.r.8.R B B B B B B B B B B B B B B B B B B B B B B B B B B B B B B B B B B B B B B B B B B B B B B B B B B B B B B B B B B B B B B B B B B B B B B B B B B B B B B B B B B B B B B B B B B B B B B B B B B B B B B B B B B B B B B B B B B B B B B B B B B B B B B B B B B B B B B B B B B B B B B B B B B B B B B B B B B B B B B B B B B                                                                                                                                                   ",
"                                                                                                                                                                                                C F I y.#X#X#X#X#X#X#X#X#X#X#X#X#X#X#X'.u.&.f 4 4 4 4 4 4 4 4 4 4 4 4 4 4 4 4 4 4 4 4 4 4 4 4 4 4 4 4 4 4 4 4 4 4 4 4 4 4 4 4 4 4 4 4 a 3.).&XwXeXeXeXeXeXeXeXeXqX7X4X2X1X2X4X5X0XwXeXeXeXeXeXeXwX0X5X3X1X1X3X4X0XwXeXeXeXeXeXeXwX0X5X3X1X2X4X7XqXeXeXeXwXwXwXwXeXeXeXeXeXwX8X6X,X-X#X#X#X#X#X#X#X#X#X#X#X#X#X#X#X#X#X#X#X#X#X#X@X`.r.8.R B B B B B B B B B B B B B B B B B B B B B B B B B B B B B B B B B B B B B B B B B B B B B B B B B B B B B B B B B B B B B B B B B B B B B B B B B B B B B B B B B B B B B B B B B B B B B B B B B B B B B B B B B B B B B B B B B B B B B B B B B B B B B B B B B B B B B B B B B B B B B B B B B B B B B B B B B B B B B B B B B B B B B B                                                                                                                                                   ",
"                                                                                                                                                                                                C F F F ] ].#X#X#X#X#X#X#X#X#X#X].&.8 4 4 4 4 4 4 4 4 4 4 4 4 4 4 4 4 4 4 4 4 4 4 4 4 4 4 4 4 4 4 4 4 4 4 4 4 4 4 4 4 4 4 4 6 @.t.}.*XeXeXeXeXeXeXeXeXwX0X5X4X2X1X2X4X7XqXwXeXeXeXeXeXeXwX0X4X3X1X1X3X5X0XwXeXeXeXeXeXeXwX0X4X2X1X2X4X7XqXeXeXeXeXeXeXeXwXwXwXeXeXwX8X<X,X=X#X#X#X#X#X#X#X#X#X#X#X#X#X#X#X#X#X#X#X#X#X#X#X`.r.8.R B B B B B B B B B B B B B B B B B B B B B B B B B B B B B B B B B B B B B B B B B B B B B B B B B B B B B B B B B B B B B B B B B B B B B B B B B B B B B B B B B B B B B B B B B B B B B B B B B B B B B B B B B B B B B B B B B B B B B B B B B B B B B B B B B B B B B B B B B B B B B B B B B B B B B B B B B B B B B B B B B B B B B B B B B B                                                                                                                                                   ",
"                                                                                                                                                                                                C F F F F F ] '.#X#X#X#X#X#X#X#X#X].&.4 4 4 4 4 4 4 4 4 4 4 4 4 4 4 4 4 4 4 4 4 4 4 4 4 4 4 4 4 4 4 4 4 4 4 4 4 4 4 8 &.u.%X8XeXeXeXeXeXeXeXeXwX0X5X3X1X1X2X4X7XqXeXeXeXeXeXeXeXqX0X4X2X1X1X3X5X0XwXeXeXeXeXeXeXqX7X4X2X1X2X4X7XqXeXeXeXeXeXeXeXwXwXwXwXwXwX8X<X:X=X#X#X#X#X#X#X#X#X#X#X#X#X#X#X#X#X#X#X#X#X#X#X#X`.r.8.R B B B B B B B B B B B B B B B B B B B B B B B B B B B B B B B B B B B B B B B B B B B B B B B B B B B B B B B B B B B B B B B B B B B B B B B B B B B B B B B B B B B B B B B B B B B B B B B B B B B B B B B B B B B B B B B B B B B B B B B B B B B B B B B B B B B B B B B B B B B B B B B B B B B B B B B B B B B B B B B B B B B B B B B B B B B B B B                                                                                                                                                   ",
"                                                                                                                                                                                                C F F F F F F F p.+X=X=X=X=X#X#X=X=X=X].&.4 4 4 4 4 4 4 4 4 4 4 4 4 4 4 4 4 4 4 4 4 4 4 4 4 4 4 4 4 4 4 4 4 @.w.|.*XwXeXeXeXeXeXeXeXeXwX0X4X3X1X1X2X4X7XqXeXeXeXeXeXeXeXqX7X4X2X1X2X3X5X0XwXeXeXeXeXeXwXqX7X4X2X1X2X4X0XqXeXeXeXeXeXeXeXeXeXeXeXwXwX8X<X:X=X=X=X#X#X#X#X#X=X=X=X#X=X#X=X=X=X=X=X=X=X=X=X#X`.r.8.R B B B B B B B B B B B B B B B B B B B B B B B B B B B B B B B B B B B B B B B B B B B B B B B B B B B B B B B B B B B B B B B B B B B B B B B B B B B B B B B B B B B B B B B B B B B B B B B B B B B B B B B B B B B B B B B B B B B B B B B B B B B B B B B B B B B B B B B B B B B B B B B B B B B B B B B B B B B B B B B B B B B B B B B B B B B B B B B B B B                                                                                                                                                   ",
"                                                                                                                                                                                                C F F F F F F F F } p.@X=X=X=X=X=X=X=X=X=X].&.4 4 4 4 4 4 4 4 4 4 4 4 4 4 4 4 4 4 4 4 4 4 4 4 4 4 8 &.t.}.8XeXeXeXeXeXeXeXeXeXqX0X4X2X1X1X2X4X7XqXeXeXeXeXeXeXwX0X5X4X2X1X2X4X5X0XwXeXeXeXeXeXwX0X5X3X2X1X2X4X0XwXeXeXeXeXeXeXeXeXeXeXeXeXwX9X<X:X=X=X=X=X=X=X=X=X=X=X=X=X=X=X=X=X=X=X=X=X=X=X=X#X`.r.8.R B B B B B B B B B B B B B B B B B B B B B B B B B B B B B B B B B B B B B B B B B B B B B B B B B B B B B B B B B B B B B B B B B B B B B B B B B B B B B B B B B B B B B B B B B B B B B B B B B B B B B B B B B B B B B B B B B B B B B B B B B B B B B B B B B B B B B B B B B B B B B B B B B B B B B B B B B B B B B B B B B B B B B B B B B B B B B B B B B B B B B B                                                                                                                                                   ",
"                                                                                                                                                                                                C A F F F F F F F F F } p.#X=X=X=X=X=X=X=X=X=X].&.4 4 4 4 4 4 4 4 4 4 4 4 4 4 4 4 4 4 4 4 @.w._.*XwXeXeXeXeXeXeXeXeXwXqX7X4X2X1X1X2X4X0XqXeXeXeXeXeXeXwX0X5X3X1X1X2X4X7XqXeXeXeXeXeXeXwX0X5X3X1X1X2X4X0XwXeXeXeXeXeXeXeXeXeXeXeXeXwX6X<X-X=X=X=X=X=X=X=X=X=X=X=X=X=X=X=X=X=X=X=X=X=X=X=X#X`.r.8.R B B B B B B B B B B B B B B B B B B B B B B B B B B B B B B B B B B B B B B B B B B B B B B B B B B B B B B B B B B B B B B B B B B B B B B B B B B B B B B B B B B B B B B B B B B B B B B B B B B B B B B B B B B B B B B B B B B B B B B B B B B B B B B B B B B B B B B B B B B B B B B B B B B B B B B B B B B B B B B B B B B B B B B B B B B B B B B B B B B B B B B B B B B                                                                                                                                                   ",
"                                                                                                                                                                                                S F F F F F F F F F F F F [ a.=X=X=X=X=X=X=X=X=X=X].&.4 4 4 4 4 4 4 4 4 4 4 4 4 8 &.).%X8XeXeXeXeXeXeXeXeXeXwX0X5X3X2X1X1X2X4X0XwXeXeXeXeXeXeXwX0X4X3X1X1X2X4X7XqXeXeXeXeXeXeXqX0X4X2X1X1X3X4X0XwXeXeXeXeXeXeXeXeXeXeXeXwX8X6X,X-X=X=X=X=X=X=X=X=X=X=X=X=X=X=X=X=X=X=X=X=X=X=X=X#X`.r.8.R B B B B B B B B B B B B B B B B B B B B B B B B B B B B B B B B B B B B B B B B B B B B B B B B B B B B B B B B B B B B B B B B B B B B B B B B B B B B B B B B B B B B B B B B B B B B B B B B B B B B B B B B B B B B B B B B B B B B B B B B B B B B B B B B B B B B B B B B B B B B B B B B B B B B B B B B B B B B B B B B B B B B B B B B B B B B B B B B B B B B B B B B B B B B B B                                                                                                                                                   ",
"                                                                                                                                                                                                S F F F F F F F F F F F F F F { h.=X=X=X=X=X=X=X=X=X=X].&.4 4 4 4 4 4 7 %.t.}.<XeXeXeXeXeXeXeXeXeXeXwX0X5X3X1X1X1X2X4X0XwXeXeXeXeXeXeXqX0X4X2X1X1X2X4X7XqXeXeXeXeXeXeXqX7X4X2X1X1X3X5X0XwXeXeXeXeXeXeXeXeXeXeXeXwX8X<X,X-X=X=X=X=X=X=X=X=X=X=X=X=X=X=X=X=X=X=X=X=X=X=X=X#X`.r.8.R B B B B B B B B B B B B B B B B B B B B B B B B B B B B B B B B B B B B B B B B B B B B B B B B B B B B B B B B B B B B B B B B B B B B B B B B B B B B B B B B B B B B B B B B B B B B B B B B B B B B B B B B B B B B B B B B B B B B B B B B B B B B B B B B B B B B B B B B B B B B B B B B B B B B B B B B B B B B B B B B B B B B B B B B B B B B B B B B B B B B B B B B B B B B B B B B B B                                                                                                                                                   ",
"                                                                                                                                                                                                Z F F F F F F F F F F F F F F F F | [.=X=X=X=X=X=X=X=X=X=X].&.@.w._.&XwXeXeXeXeXeXeXeXeXeXeXwX0X4X2X1X1X1X3X4X0XwXeXeXeXeXeXwXqX7X4X2X1X1X2X4X0XqXeXeXeXeXeXwX0X5X4X2X1X1X3X5X0XwXeXeXeXeXeXeXeXeXeXeXeXwX8X<X,X-X=X=X=X=X=X=X=X=X=X=X=X=X=X=X=X=X=X=X=X=X=X=X=X#Xh.r.8.R B B B B B B B B B B B B B B B B B B B B B B B B B B B B B B B B B B B B B B B B B B B B B B B B B B B B B B B B B B B B B B B B B B B B B B B B B B B B B B B B B B B B B B B B B B B B B B B B B B B B B B B B B B B B B B B B B B B B B B B B B B B B B B B B B B B B B B B B B B B B B B B B B B B B B B B B B B B B B B B B B B B B B B B B B B B B B B B B B B B B B B B B B B B B B B B B B B B B B B                                                                                                                                                   ",
"                                                                                                                                                                                                Z F F F F F F F F F F F F F F F F F F | +X=X=X=X=X=X=X=X=X=X=X:X9XeXeXeXeXeXeXeXeXeXqX7X4X2X1X1X1X3X5X0XwXeXeXeXeXeXwX0X5X4X2X1X1X2X4X0XwXeXeXeXeXeXwX0X5X3X1X1X2X3X5X0XwXeXeXeXeXeXeXeXeXeXeXeXwX8X<X:X=X=X=X=X-X=X=X=X=X=X=X=X=X=X=X=X=X=X=X=X=X=X=X=X#X`.r.8.R B B B B B B B B B B B B B B B B B B B B B B B B B B B B B B B B B B B B B B B B B B B B B B B B B B B B B B B B B B B B B B B B B B B B B B B B B B B B B B B B B B B B B B B B B B B B B B B B B B B B B B B B B B B B B B B B B B B B B B B B B B B B B B B B B B B B B B B B B B B B B B B B B B B B B B B B B B B B B B B B B B B B B B B B B B B B B B B B B B B B B B B B B B B B B B B B B B B B B B B B B B                                                                                                                                                   ",
"                                                                                                                                                                                                Z F F F F F F F F F F F F F F F F F F F F p.#X-X-X-X-X-X-X-X-X-X-X:X9XeXeXwXqX7X4X2X1X1X1X3X5X0XwXeXeXeXeXeXwX0X5X3X1X1X1X2X4X0XwXeXeXeXeXeXwX0X4X3X1X1X2X4X5X0XwXeXeXeXeXeXeXeXwXwXeXeXwX9X<X:X-X-X-X-X-X-X-X-X-X-X-X-X-X-X-X-X-X-X-X-X-X-X-X-X#X`.r.8.R B B B B B B B B B B B B B B B B B B B B B B B B B B B B B B B B B B B B B B B B B B B B B B B B B B B B B B B B B B B B B B B B B B B B B B B B B B B B B B B B B B B B B B B B B B B B B B B B B B B B B B B B B B B B B B B B B B B B B B B B B B B B B B B B B B B B B B B B B B B B B B B B B B B B B B B B B B B B B B B B B B B B B B B B B B B B B B B B B B B B B B B B B B B B B B B B B B B B B B B B B B B B B B                                                                                                                                                   ",
"                                                                                                                                                                                                Z F F F F F F F F F F F F F F F F F F F F F } x.-X-X-X-X-X-X-X-X-X-X-X,X3X1X1X1X2X4X7XqXwXeXeXeXeXeXwX0X4X2X1X1X1X3X4X0XwXeXeXeXeXeXqX0X4X2X1X1X2X4X5X0XwXeXeXeXeXeXeXeXeXeXeXwX8X6X<X-X-X-X-X-X-X-X-X-X-X-X-X-X-X-X-X-X-X-X-X-X-X-X-X-X#Xj.0.` R B B B B B B B B B B B B B B B B B B B B B B B B B B B B B B B B B B B B B B B B B B B B B B B B B B B B B B B B B B B B B B B B B B B B B B B B B B B B B B B B B B B B B B B B B B B B B B B B B B B B B B B B B B B B B B B B B B B B B B B B B B B B B B B B B B B B B B B B B B B B B B B B B B B B B B B B B B B B B B B B B B B B B B B B B B B B B B B B B B B B B B B B B B B B B B B B B B B B B B B B B B B B B B B B B B                                                                                                                                                   ",
"                                                                                                                                                                                                Z F F F F F F F F F F F F F F F F F F F F F F F [ k.-X-X-X-X-X-X-X-X-X-X-X;X<XqXeXeXeXeXeXeXqX7X4X2X1X1X1X3X5X0XwXeXeXeXeXeXqX7X4X2X1X1X2X4X7XqXeXeXeXeXeXeXeXeXeXeXeXeX8X6X<X;X-X-X-X-X-X-X-X-X-X-X-X-X-X-X-X-X=X=X-X=X-X-X-X-X=X`.0.` R B B B B B B B B B B B B B B B B B B B B B B B B B B B B B B B B B B B B B B B B B B B B B B B B B B B B B B B B B B B B B B B B B B B B B B B B B B B B B B B B B B B B B B B B B B B B B B B B B B B B B B B B B B B B B B B B B B B B B B B B B B B B B B B B B B B B B B B B B B B B B B B B B B B B B B B B B B B B B B B B B B B B B B B B B B B B B B B B B B B B B B B B B B B B B B B B B B B B B B B B B B B B B B B B B B B B B B                                                                                                                                                   ",
"                                                                                                                                                                                                Z F F F F F F F F F F F F F F F F F F F F F F F F F { z.-X-X-X-X-X-X-X-X-X-X-X,X8XwXqX7X4X2X1X1X1X3X5X0XwXeXeXeXeXwX0X5X4X2X1X1X2X4X7XqXeXeXeXeXeXeXeXeXeXeXeXwX8X6X<X-X-X-X-X-X-X-X-X-X-X-X-X-X-X-X-X-X-X-X-X-X-X-X-X-X=X`.0.` B B B B B B B B B B B B B B B B B B B B B B B B B B B B B B B B B B B B B B B B B B B B B B B B B B B B B B B B B B B B B B B B B B B B B B B B B B B B B B B B B B B B B B B B B B B B B B B B B B B B B B B B B B B B B B B B B B B B B B B B B B B B B B B B B B B B B B B B B B B B B B B B B B B B B B B B B B B B B B B B B B B B B B B B B B B B B B B B B B B B B B B B B B B B B B B B B B B B B B B B B B B B B B B B B B B B B B B B B B B                                                                                                                                                   ",
"                                                                                                                                                                                                Z F F F F F F F F F F F F F F F F F F F F F F F F F F F | OX-X-X-X-X-X-X-X-X-X-X-X;X*X1X2X3X7XqXwXeXeXeXeXwX0X5X3X1X1X1X2X4X7XqXeXeXeXeXeXeXeXeXeXeXeXwX8X<X<X;X-X-X-X-X-X-X-X-X-X-X-X-X-X-X-X-X-X-X-X-X-X-X-X-X=X`.0.` B B B B B B B B B B B B B B B B B B B B B B B B B B B B B B B B B B B B B B B B B B B B B B B B B B B B B B B B B B B B B B B B B B B B B B B B B B B B B B B B B B B B B B B B B B B B B B B B B B B B B B B B B B B B B B B B B B B B B B B B B B B B B B B B B B B B B B B B B B B B B B B B B B B B B B B B B B B B B B B B B B B B B B B B B B B B B B B B B B B B B B B B B B B B B B B B B B B B B B B B B B B B B B B B B B B B B B B B B B B B B B B                                                                                                                                                   ",
"                                                                                                                                                                                                Z F F F F F F F F F F F F F F F F F F F F F F F F F F F F F | $X-X-X-X-X-X-X-X-X-X-X-X;X8XeXeXeXeXwX0X4X3X1X1X1X2X4X0XqXeXeXeXeXeXeXeXeXeXeXeXwX8X<X,X-X-X-X-X-X-X-X-X-X-X-X-X-X-X-X-X-X-X-X-X-X-X-X-X-X#X`.0.` B B B B B B B B B B B B B B B B B B B B B B B B B B B B B B B B B B B B B B B B B B B B B B B B B B B B B B B B B B B B B B B B B B B B B B B B B B B B B B B B B B B B B B B B B B B B B B B B B B B B B B B B B B B B B B B B B B B B B B B B B B B B B B B B B B B B B B B B B B B B B B B B B B B B B B B B B B B B B B B B B B B B B B B B B B B B B B B B B B B B B B B B B B B B B B B B B B B B B B B B B B B B B B B B B B B B B B B B B B B B B B B B B B B                                                                                                                                                   ",
"                                                                                                                                                                                                Z F F F F F F F F F F F F F F F F F F F F F F F F F F F F F F F p.#X-X-X-X-X-X-X-X-X-X-X-X,X6X4X2X1X1X1X3X4X0XwXeXeXeXeXeXeXeXeXeXeXeXwX9X<X,X-X-X-X-X-X-X-X-X-X-X-X-X-X-X-X-X-X-X-X-X-X-X-X-X-X#X`.0.` B B B B B B B B B B B B B B B B B B B B B B B B B B B B B B B B B B B B B B B B B B B B B B B B B B B B B B B B B B B B B B B B B B B B B B B B B B B B B B B B B B B B B B B B B B B B B B B B B B B B B B B B B B B B B B B B B B B B B B B B B B B B B B B B B B B B B B B B B B B B B B B B B B B B B B B B B B B B B B B B B B B B B B B B B B B B B B B B B B B B B B B B B B B B B B B B B B B B B B B B B B B B B B B B B B B B B B B B B B B B B B B B B B B B B B B                                                                                                                                                   ",
"                                                                                                                                                                                                Z F F F F F F F F F F F F F F F F F F F F F F F F F F F F F F F F } p.=X;X;X;X;X;X;X;X;X;X;X;X:X*X5X0XwXeXeXeXeXeXeXeXeXeXeXwXwX9X<X,X;X;X;X;X;X;X;X;X;X;X;X;X;X;X;X;X;X;X;X;X;X;X;X;X;X#Xj.0.` B B B B B B B B B B B B B B B B B B B B B B B B B B B B B B B B B B B B B B B B B B B B B B B B B B B B B B B B B B B B B B B B B B B B B B B B B B B B B B B B B B B B B B B B B B B B B B B B B B B B B B B B B B B B B B B B B B B B B B B B B B B B B B B B B B B B B B B B B B B B B B B B B B B B B B B B B B B B B B B B B B B B B B B B B B B B B B B B B B B B B B B B B B B B B B B B B B B B B B B B B B B B B B B B B B B B B B B B B B B B B B B B B B B B B B B B B B B                                                                                                                                                   ",
"                                                                                                                                                                                                A F F F F F F F F F F F F F F F F F F F F F F F F F F F F F F F F F F } x.;X;X;X;X;X;X;X;X;X;X;X;X<X8XeXeXeXeXeXeXeXwX8X6X<X,X;X;X;X;X;X;X;X;X;X;X;X;X;X;X;X;X;X;X;X;X;X;X;X;X;X#Xj.0.` B B B B B B B B B B B B B B B B B B B B B B B B B B B B B B B B B B B B B B B B B B B B B B B B B B B B B B B B B B B B B B B B B B B B B B B B B B B B B B B B B B B B B B B B B B B B B B B B B B B B B B B B B B B B B B B B B B B B B B B B B B B B B B B B B B B B B B B B B B B B B B B B B B B B B B B B B B B B B B B B B B B B B B B B B B B B B B B B B B B B B B B B B B B B B B B B B B B B B B B B B B B B B B B B B B B B B B B B B B B B B B B B B B B B B B B B B B B B B B B                                                                                                                                                   ",
"                                                                                                                                                                                                A F F F F F F F F F F F F F F F F F F F F F F F F F F F F F F F F F F F F [ k.;X;X;X;X;X;X;X;X;X;X;X;X<X8XeXwX8X6X<X,X;X;X;X;X;X;X;X;X;X;X;X;X;X;X;X;X;X;X;X;X;X;X;X;X;X=Xj.0.` B B B B B B B B B B B B B B B B B B B B B B B B B B B B B B B B B B B B B B B B B B B B B B B B B B B B B B B B B B B B B B B B B B B B B B B B B B B B B B B B B B B B B B B B B B B B B B B B B B B B B B B B B B B B B B B B B B B B B B B B B B B B B B B B B B B B B B B B B B B B B B B B B B B B B B B B B B B B B B B B B B B B B B B B B B B B B B B B B B B B B B B B B B B B B B B B B B B B B B B B B B B B B B B B B B B B B B B B B B B B B B B B B B B B B B B B B B B B B B B B B B B                                                                                                                                                   ",
"                                                                                                                                                                                                A F F F F F F F F F F F F F F F F F F F F F F F F F F F F F F F F F F F F F F | OX;X;X;X;X;X;X;X;X;X;X;X;X,X;X;X;X;X;X;X;X;X;X;X;X;X;X;X;X;X;X;X;X;X;X;X;X;X;X;X#Xj.q.' B B B B B B B B B B B B B B B B B B B B B B B B B B B B B B B B B B B B B B B B B B B B B B B B B B B B B B B B B B B B B B B B B B B B B B B B B B B B B B B B B B B B B B B B B B B B B B B B B B B B B B B B B B B B B B B B B B B B B B B B B B B B B B B B B B B B B B B B B B B B B B B B B B B B B B B B B B B B B B B B B B B B B B B B B B B B B B B B B B B B B B B B B B B B B B B B B B B B B B B B B B B B B B B B B B B B B B B B B B B B B B B B B B B B B B B B B B B B B B B B B B B B B B B                                                                                                                                                   ",
"                                                                                                                                                                                                A F F F F F F F F F F F F F F F F F F F F F F F F F F F F F F F F F F F F F F F F | oX;X;X;X;X;X;X;X;X;X;X;X;X;X;X;X;X;X;X;X;X;X;X;X;X;X;X;X;X;X;X;X;X;X=Xj.0.' B B B B B B B B B B B B B B B B B B B B B B B B B B B B B B B B B B B B B B B B B B B B B B B B B B B B B B B B B B B B B B B B B B B B B B B B B B B B B B B B B B B B B B B B B B B B B B B B B B B B B B B B B B B B B B B B B B B B B B B B B B B B B B B B B B B B B B B B B B B B B B B B B B B B B B B B B B B B B B B B B B B B B B B B B B B B B B B B B B B B B B B B B B B B B B B B B B B B B B B B B B B B B B B B B B B B B B B B B B B B B B B B B B B B B B B B B B B B B B B B B B B B B B B B B B B                                                                                                                                                   ",
"                                                                                                                                                                                                F F F F F F F F F F F F F F F F F F F F F F F F F F F F F F F F F F F F F F F F F F F | #X,X,X,X,X,X,X,X,X,X,X,X,X,X,X,X,X,X,X,X,X,X,X,X,X,X,X,X=Xj.0.' B B B B B B B B B B B B B B B B B B B B B B B B B B B B B B B B B B B B B B B B B B B B B B B B B B B B B B B B B B B B B B B B B B B B B B B B B B B B B B B B B B B B B B B B B B B B B B B B B B B B B B B B B B B B B B B B B B B B B B B B B B B B B B B B B B B B B B B B B B B B B B B B B B B B B B B B B B B B B B B B B B B B B B B B B B B B B B B B B B B B B B B B B B B B B B B B B B B B B B B B B B B B B B B B B B B B B B B B B B B B B B B B B B B B B B B B B B B B B B B B B B B B B B B B B B B B B B B                                                                                                                                                   ",
"                                                                                                                                                                                                A F F F F F F F F F F F F F F F F F F F F F F F F F F F F F F F F F F F F F F F F F F F F p.=X,X,X,X,X,X,X,X,X,X,X,X,X,X,X,X,X,X,X,X,X,X=X].0.' B B B B B B B B B B B B B B B B B B B B B B B B B B B B B B B B B B B B B B B B B B B B B B B B B B B B B B B B B B B B B B B B B B B B B B B B B B B B B B B B B B B B B B B B B B B B B B B B B B B B B B B B B B B B B B B B B B B B B B B B B B B B B B B B B B B B B B B B B B B B B B B B B B B B B B B B B B B B B B B B B B B B B B B B B B B B B B B B B B B B B B B B B B B B B B B B B B B B B B B B B B B B B B B B B B B B B B B B B B B B B B B B B B B B B B B B B B B B B B B B B B B B B B B B B B B B B B B B B B B                                                                                                                                                   ",
"                                                                                                                                                                                                F F F F F F F F F F F F F F F F F F F F F F F F F F F F F F F F F F F F F F F F F F F F F F G p.;X,X,X,X,X,X,X,X,X,X,X,X,X,X,X,X#Xj.0.E B B B B B B B B B B B B B B B B B B B B B B B B B B B B B B B B B B B B B B B B B B B B B B B B B B B B B B B B B B B B B B B B B B B B B B B B B B B B B B B B B B B B B B B B B B B B B B B B B B B B B B B B B B B B B B B B B B B B B B B B B B B B B B B B B B B B B B B B B B B B B B B B B B B B B B B B B B B B B B B B B B B B B B B B B B B B B B B B B B B B B B B B B B B B B B B B B B B B B B B B B B B B B B B B B B B B B B B B B B B B B B B B B B B B B B B B B B B B B B B B B B B B B B B B B B B B B B B B B B B B B B B                                                                                                                                                   ",
"                                                                                                                                                                                                F F F F F F F F F F F F F F F F F F F F F F F F F F F F F F F F F F F F F F F F F F F F F F F F [ k.;X,X,X,X,X,X,X,X,X,X#Xj.0.E B B B B B B B B B B B B B B B B B B B B B B B B B B B B B B B B B B B B B B B B B B B B B B B B B B B B B B B B B B B B B B B B B B B B B B B B B B B B B B B B B B B B B B B B B B B B B B B B B B B B B B B B B B B B B B B B B B B B B B B B B B B B B B B B B B B B B B B B B B B B B B B B B B B B B B B B B B B B B B B B B B B B B B B B B B B B B B B B B B B B B B B B B B B B B B B B B B B B B B B B B B B B B B B B B B B B B B B B B B B B B B B B B B B B B B B B B B B B B B B B B B B B B B B B B B B B B B B B B B B B B B B B B B B                                                                                                                                                   ",
"                                                                                                                                                                                                F F F F F F F F F F F F F F F F F F F F F F F F F F F F F F F F F F F F F F F F F F F F F F F F F } x.XX,X,X,X,X#Xj.0.E B B B B B B B B B B B B B B B B B B B B B B B B B B B B B B B B B B B B B B B B B B B B B B B B B B B B B B B B B B B B B B B B B B B B B B B B B B B B B B B B B B B B B B B B B B B B B B B B B B B B B B B B B B B B B B B B B B B B B B B B B B B B B B B B B B B B B B B B B B B B B B B B B B B B B B B B B B B B B B B B B B B B B B B B B B B B B B B B B B B B B B B B B B B B B B B B B B B B B B B B B B B B B B B B B B B B B B B B B B B B B B B B B B B B B B B B B B B B B B B B B B B B B B B B B B B B B B B B B B B B B B B B B B B B B B B                                                                                                                                                   ",
"                                                                                                                                                                                                F F F F F F F F F F F F F F F F F F F F F F F F F F F F F F F F F F F F F F F F F F F F F F F F F [ c.c.+Xj.q.E B B B B B B B B B B B B B B B B B B B B B B B B B B B B B B B B B B B B B B B B B B B B B B B B B B B B B B B B x > y + % . C.V.V.n.b.m.b.n.B.V.C.. % + y > x B B B B B B B B B B B B B B B B B B B B B B B B B B B B B B B B B B B B B B B B B B B B B B B B B B B B B B B B B B B B B B B B B B B B B B B B B B B B B B B B B B B B B B B B B B B B B B B B B B B B B B B B B B B B B B B B B B B B B B B B B B B B B B B B B B B B B B B B B B B B B B B B B B B B B B B B B B B B B B B B B B B B B B B B B B B B B B B B B B B B B B B B B B B B B B B B B B B B                                                                                                                                                   ",
"                                                                                                                                                                                                F F F F F F F F F F F F F F F F F F F F F F F F F F F F F F F F F F F F F F F F F F F F F F F F F [ c.c.#X` B B B B B B B B B B B B B B B B B B B B B B B B B B B B B B B B B B B B B B B B B B B B B B B B B B B B B x p + o n.m.m.m.m.m.m.m.m.m.m.m.m.m.m.m.m.m.m.m.m.m.m.m.n.o + > c B B B B B B B B B B B B B B B B B B B B B B B B B B B B B B B B B B B B B B B B B B B B B B B B B B B B B B B B B B B B B B B B B B B B B B B B B B B B B B B B B B B B B B B B B B B B B B B B B B B B B B B B B B B B B B B B B B B B B B B B B B B B B B B B B B B B B B B B B B B B B B B B B B B B B B B B B B B B B B B B B B B B B B B B B B B B B B B B B B B B B B B B B B B B B B B                                                                                                                                                   ",
"                                                                                                                                                                                                F F F F F F F F F F F F F F F F F F F F F F F F F F F F F F F F F F F F F F F F F F F F F F F F F [ c.c.#X` B B B B B B B B B B B B B B B B B B B B B B B B B B B B B B B B B B B B B B B B B B B B B B B B B g > * V.m.m.m.m.m.m.m.m.m.m.m.m.m.m.m.m.m.m.m.m.m.m.m.m.m.m.m.m.m.m.m.m.M.A.+ b B B B B B B B B B B B B B B B B B B B B B B B B B B B B B B B B B B B B B B B B B B B B B B B B B B B B B B B B B B B B B B B B B B B B B B B B B B B B B B B B B B B B B B B B B B B B B B B B B B B B B B B B B B B B B B B B B B B B B B B B B B B B B B B B B B B B B B B B B B B B B B B B B B B B B B B B B B B B B B B B B B B B B B B B B B B B B B B B B B B B B B B B B B B B                                                                                                                                                   ",
"                                                                                                                                                                                                F F F F F F F F F F F F F F F F F F F F F F F F F F F F F F F F F F F F F F F F F F F F F F F F F [ c.c.#X` B B B B B B B B B B B B B B B B B B B B B B B B B B B B B B B B B B B B B B B B B B B B B B c > * B.m.m.m.m.m.m.m.m.m.m.m.m.m.m.m.m.m.m.m.m.m.m.m.m.m.m.m.m.m.m.m.m.m.m.m.m.m.m.m.V.+ b B B B B B B B B B B B B B B B B B B B B B B B B B B B B B B B B B B B B B B B B B B B B B B B B B B B B B B B B B B B B B B B B B B B B B B B B B B B B B B B B B B B B B B B B B B B B B B B B B B B B B B B B B B B B B B B B B B B B B B B B B B B B B B B B B B B B B B B B B B B B B B B B B B B B B B B B B B B B B B B B B B B B B B B B B B B B B B B B B B B B B B B B B                                                                                                                                                   ",
"                                                                                                                                                                                                F F F F F F F F F F F F F F F F F F F F F F F F F F F F F F F F F F F F F F F F F F F F F F F F F [ c.c.#X` B B B B B B B B B B B B B B B B B B B B B B B B B B B B B B B B B B B B B B B B B B B B b ; n.m.m.m.m.m.m.m.m.m.m.m.m.m.m.m.m.m.m.m.m.m.m.m.m.m.m.m.m.m.m.m.m.m.m.m.m.m.m.m.m.m.m.m.m.m.C.$ c B B B B B B B B B B B B B B B B B B B B B B B B B B B B B B B B B B B B B B B B B B B B B B B B B B B B B B B B B B B B B B B B B B B B B B B B B B B B B B B B B B B B B B B B B B B B B B B B B B B B B B B B B B B B B B B B B B B B B B B B B B B B B B B B B B B B B B B B B B B B B B B B B B B B B B B B B B B B B B B B B B B B B B B B B B B B B B B B B B B B B B                                                                                                                                                   ",
"                                                                                                                                                                                                F F F F F F F F F F F F F F F F F F F F F F F F F F F F F F F F F F F F F F F F F F F F F F F F F [ c.c.#X` B B B B B B B B B B B B B B B B B B B B B B B B B B B B B B B B B B B B B B B B B B > o m.m.m.m.m.m.m.m.m.m.m.m.m.m.m.m.m.m.m.m.m.m.m.m.m.m.m.m.m.m.m.m.m.m.m.m.m.m.m.m.m.m.m.m.m.m.m.m.m.m.n.* j B B B B B B B B B B B B B B B B B B B B B B B B B B B B B B B B B B B B B B B B B B B B B B B B B B B B B B B B B B B B B B B B B B B B B B B B B B B B B B B B B B B B B B B B B B B B B B B B B B B B B B B B B B B B B B B B B B B B B B B B B B B B B B B B B B B B B B B B B B B B B B B B B B B B B B B B B B B B B B B B B B B B B B B B B B B B B B B B B B B B                                                                                                                                                   ",
"                                                                                                                                                                                                F F F F F F F F F F F F F F F F F F F F F F F F F F F F F F F F F F F F F F F F F F F F F F F F F [ c.c.#X` B B B B B B B B B B B B B B B B B B B B B B B B B B B B B B B B B B B B B B B B p X m.m.m.m.m.m.m.m.m.m.m.m.m.m.m.m.m.m.m.m.m.m.m.m.m.m.m.m.m.m.m.m.m.m.m.m.m.m.m.m.m.m.m.m.m.m.m.m.m.m.m.m.m.m.M.* j B B B B B B B B B B B B B B B B B B B B B B B B B B B B B B B B B B B B B B B B B B B B B B B B B B B B B B B B B B B B B B B B B B B B B B B B B B B B B B B B B B B B B B B B B B B B B B B B B B B B B B B B B B B B B B B B B B B B B B B B B B B B B B B B B B B B B B B B B B B B B B B B B B B B B B B B B B B B B B B B B B B B B B B B B B B B B B B B B B                                                                                                                                                   ",
"                                                                                                                                                                                                F F F F F F F F F F F F F F F F F F F F F F F F F F F F F F F F F F F F F F F F F F F F F F F F F [ c.c.#X` B B B B B B B B B B B B B B B B B B B B B B B B B B B B B B B B B B B B B B > o m.m.m.m.m.m.m.m.m.m.m.m.m.m.m.m.m.m.m.m.m.m.m.m.m.m.m.m.m.m.m.m.m.m.m.m.m.m.m.m.m.m.m.m.m.m.m.m.m.m.m.m.m.m.m.m.m.m.b.# x B B B B B B B B B B B B B B B B B B B B B B B B B B B B B B B B B B B B B B B B B B B B B B B B B B B B B B B B B B B B B B B B B B B B B B B B B B B B B B B B B B B B B B B B B B B B B B B B B B B B B B B B B B B B B B B B B B B B B B B B B B B B B B B B B B B B B B B B B B B B B B B B B B B B B B B B B B B B B B B B B B B B B B B B B B B B B B B B                                                                                                                                                   ",
"                                                                                                                                                                                                F F F F F F F F F F F F F F F F F F F F F F F F F F F F F F F F F F F F F F F F F F F F F F F F F [ c.c.#X` B B B B B B B B B B B B B B B B B B B B B B B B B B B B B B B B B B B B x * m.m.m.m.m.m.m.m.m.m.m.m.m.m.m.m.m.m.m.m.m.m.m.m.m.m.m.m.m.m.m.m.m.m.m.m.m.m.m.m.m.m.m.m.m.m.m.m.m.m.m.m.m.m.m.m.m.m.m.m.m.m.B.y B B B B B B B B B B B B B B B B B B B B B B B B B B B B B B B B B B B B B B B B B B B B B B B B B B B B B B B B B B B B B B B B B B B B B B B B B B B B B B B B B B B B B B B B B B B B B B B B B B B B B B B B B B B B B B B B B B B B B B B B B B B B B B B B B B B B B B B B B B B B B B B B B B B B B B B B B B B B B B B B B B B B B B B B B B B B B B B                                                                                                                                                   ",
"                                                                                                                                                                                                F F F F F F F F F F F F F F F F F F F F F F F F F F F F F F F F F F F F F F F F F F F F F F F F F [ c.c.#X` B B B B B B B B B B B B B B B B B B B B B B B B B B B B B B B B B B B u B.m.m.m.m.m.m.m.m.m.m.m.m.m.m.m.m.m.m.m.m.m.m.m.m.m.m.m.m.m.m.m.m.m.m.m.m.m.m.m.m.m.m.m.m.m.m.m.m.m.m.m.m.m.m.m.m.m.m.m.m.m.m.m.m.m.o j B B B B B B B B B B B B B B B B B B B B B B B B B B B B B B B B B B B B B B B B B B B B B B B B B B B B B B B B B B B B B B B B B B B B B B B B B B B B B B B B B B B B B B B B B B B B B B B B B B B B B B B B B B B B B B B B B B B B B B B B B B B B B B B B B B B B B B B B B B B B B B B B B B B B B B B B B B B B B B B B B B B B B B B B B B B B B                                                                                                                                                   ",
"                                                                                                                                                                                                F F F F F F F F F F F F F F F F F F F F F F F F F F F F F F F F F F F F F F F F F F F F F F F F F [ c.c.#X` B B B B B B B B B B B B B B B B B B B B B B B B B B B B B B B B B x * m.m.m.m.m.m.m.m.m.m.m.m.m.m.m.m.m.m.m.m.m.m.m.m.m.m.m.m.m.m.m.m.m.m.m.m.m.m.m.m.m.m.m.m.m.m.m.m.m.m.m.m.m.m.m.m.m.m.m.m.m.m.m.m.m.m.m.m.n.y B B B B B B B B B B B B B B B B B B B B B B B B B B B B B B B B B B B B B B B B B B B B B B B B B B B B B B B B B B B B B B B B B B B B B B B B B B B B B B B B B B B B B B B B B B B B B B B B B B B B B B B B B B B B B B B B B B B B B B B B B B B B B B B B B B B B B B B B B B B B B B B B B B B B B B B B B B B B B B B B B B B B B B B B B B B B                                                                                                                                                   ",
"                                                                                                                                                                                                F F F F F F F F F F F F F F F F F F F F F F F F F F F F F F F F F F F F F F F F F F F F F F F F F [ c.c.'.` B B B B B B B B B B B B B B B B B B B B B B B B B B B B B B B B > V.m.m.m.m.m.m.m.m.m.m.m.m.m.m.m.m.m.m.m.m.m.m.m.m.m.m.m.m.m.m.m.m.m.m.m.m.m.m.m.m.m.m.m.m.m.m.m.m.m.m.m.m.m.m.m.m.m.m.m.m.m.m.m.m.m.m.m.m.m.m.m.% c B B B B B B B B B B B B B B B B B B B B B B B B B B B B B B B B B B B B B B B B B B B B B B B B B B B B B B B B B B B B B B B B B B B B B B B B B B B B B B B B B B B B B B B B B B B B B B B B B B B B B B B B B B B B B B B B B B B B B B B B B B B B B B B B B B B B B B B B B B B B B B B B B B B B B B B B B B B B B B B B B B B B B B B B B B                                                                                                                                                   ",
"                                                                                                                                                                                                F F F F F F F F F F F F F F F F F F F F F F F F F F F F F F F F F F F F F F F F F F F F F F F F F [ c.c.'.` B B B B B B B B B B B B B B B B B B B B B B B B B B B B B B B $ b.m.m.m.m.m.m.m.m.m.m.m.m.m.m.m.m.m.m.m.m.m.m.m.m.m.m.m.m.m.m.m.m.m.m.m.m.m.m.m.m.m.m.m.m.m.m.m.m.m.m.m.m.m.m.m.m.m.m.m.m.m.m.m.m.m.m.m.m.m.m.m.m.m.A.h B B B B B B B B B B B B B B B B B B B B B B B B B B B B B B B B B B B B B B B B B B B B B B B B B B B B B B B B B B B B B B B B B B B B B B B B B B B B B B B B B B B B B B B B B B B B B B B B B B B B B B B B B B B B B B B B B B B B B B B B B B B B B B B B B B B B B B B B B B B B B B B B B B B B B B B B B B B B B B B B B B B B B B B B B                                                                                                                                                   ",
"                                                                                                                                                                                                F F F F F F F F F F F F F F F F F F F F F F F F F F F F F F F F F F F F F F F F F F F F F F F F F [ c.c.'.` B B B B B B B B B B B B B B B B B B B B B B B B B B B B B B + m.m.m.m.m.m.m.m.m.m.m.m.m.m.m.m.m.m.m.m.m.m.m.m.m.m.m.m.m.m.m.m.m.m.m.m.m.m.m.m.m.m.m.m.m.m.m.m.m.m.m.m.m.m.m.m.m.m.m.m.m.m.m.m.m.m.m.m.m.m.m.m.m.m.m.m.B.> B B B B B B B B B B B B B B B B B B B B B B B B B B B B B B B B B B B B B B B B B B B B B B B B B B B B B B B B B B B B B B B B B B B B B B B B B B B B B B B B B m ..-.v B B B B B B B B B B B B B B B B B B B B B B B B B B B B B B B B B B B B B B B B B B B B B B B B B B B B B B B B B B B B B B B B B B B B B B B B B B B B B B B B B B B                                                                                                                                                   ",
"                                                                                                                                                                                                F F F F F F F F F F F F F F F F F F F F F F F F F F F F F F F F F F F F F F F F F F F F F F F F F [ c.c.'.` B B B B B B B B B B B B B B B B B B B B B B B B B B B B c o m.m.m.m.m.m.m.m.m.m.m.m.m.m.m.m.m.m.m.m.m.m.m.m.m.m.m.m.m.m.m.m.m.m.m.m.m.m.m.m.m.m.m.m.m.m.m.m.m.m.m.m.m.m.m.m.m.m.m.m.m.m.m.m.m.m.m.m.m.m.m.m.m.m.m.m.m.m.n.p B B B B B B B B B B B B B B B B B B B B B B B B B B B B B B B B B B B B B B B B B B B B B B B B B B B B B B B B B B B B B B B B B B B B B B B B B B B B B B v F.E.E.E.R.>.B B B B B B B B B B B B B B B B B B B B B B B B B B B B B B B B B B B B B B B B B B B B B B B B B B B B B B B B B B B B B B B B B B B B B B B B B B B B B B B B B B                                                                                                                                                   ",
"                                                                                                                                                                                                F F F F F F F F F F F F F F F F F F F F F F F F F F F F F F F F F F F F F F F F F F F F F F F F F [ c.c.'.` B B B B B B B B B B B B B B B B B B B B B B B B B B B c . m.m.m.m.m.m.m.m.m.m.m.m.m.m.m.m.m.m.m.m.m.m.m.m.m.m.m.m.m.m.m.m.m.n.A.= * ; + @ $ + ; * % o B.m.m.m.m.m.m.m.m.m.m.m.m.m.m.m.m.m.m.m.m.m.m.m.m.m.m.m.m.m.m.m.m.m.M.u B B B B B B B B B B B B B B B B B B B B B B B B B B B B B B B B B B B B B B B B B B B B B B B B B B B B B B B B B B B B B B B B B B B B B B B B B B B B =.I.E.E.E.E.E.E.>.B B B B B B B B B B B B B B B B B B B B B B B B B B B B B B B B B B B B B B B B B B B B B B B B B B B B B B B B B B B B B B B B B B B B B B B B B B B B B B B B B                                                                                                                                                   ",
"                                                                                                                                                                                                F F F F F F F F F F F F F F F F F F F F F F F F F F F F F F F F F F F F F F F F F F F F F F F F F [ c.c.'.` B B B B B B B B B B B B B B B B B B B B B B B B B B x A.m.m.m.m.m.m.m.m.m.m.m.m.m.m.m.m.m.m.m.m.m.m.m.m.m.m.m.m.m.b.. + > x B B B B B B B B B B B B B B c 9 y % B.m.m.m.m.m.m.m.m.m.m.m.m.m.m.m.m.m.m.m.m.m.m.m.m.m.m.m.m.m.M.u B B B B B B B B B B B B B B B B B B B B B B B B B B B B B B B B B B B B B B B B B B B B B B B B B B B B B B B B B B B B B B B B B B B B B B B B B R <.E.E.E.E.E.E.E.E.R.v B B B B B B B B B B B B B B B B B B B B B B B B B B B B B B B B B B B B B B B B B B B B B B B B B B B B B B B B B B B B B B B B B B B B B B B B B B B B B B B B                                                                                                                                                   ",
"                                                                                                                                                                                                F F F F F F F F F F F F F F F F F F F F F F F F F F F F F F F F F F F F F F F F F F F F F F F F F [ c.c.'.` B B B B B B B B B B B B B B B B B B B B B B B B B c . m.m.m.m.m.m.m.m.m.m.m.m.m.m.m.m.m.m.m.m.m.m.m.m.m.m.m.n.* p c B B B B B B B B B B B B B B B B B B B B B B B b @ V.m.m.m.m.m.m.m.m.m.m.m.m.m.m.m.m.m.m.m.m.m.m.m.m.m.m.m.M.p B B B B B B B B B B B B B B B B B B B B B B B B B B B B B B B B B B B B B B B B B B B B B B B B B B B B B B B B B B B B B B B B B B B B B B B v /.E.E.E.E.E.E.E.E.E.E.>.B B B B B B B B B B B B B B B B B B B B B B B B B B B B B B B B B B B B B B B B B B B B B B B B B B B B B B B B B B B B B B B B B B B B B B B B B B B B B B B B                                                                                                                                                   ",
"                                                                                                                                                                                                F F F F F F F F F F F F F F F F F F F F F F F F F F F F F F F F F F F F F F F F F F F F F F F F F [ c.c.'.` B B B B B B B B B B B B B B B B B B B B B B B B c o m.m.m.m.m.m.m.m.m.m.m.m.m.m.m.m.m.m.m.m.m.m.m.m.m.m.. $ c B B B B B B B B B B B B B B B B B B B B B B B B B B B B B > = M.m.m.m.m.m.m.m.m.m.m.m.m.m.m.m.m.m.m.m.m.m.m.m.m.m.b.> B B B B B B B B B B B B B B B B B B B B B B B B B B B B B B B B B B B B B B B B B B B B B B B B B B B B B B B B B B B B B B B B B B B B B =.U.E.E.E.E.E.E.E.E.E.E.E.^.B B B B B B B B B B B B B B B B B B B B B B B B B B B B B B B B B B B B B B B B B B B B B B B B B B B B B B B B B B B B B B B B B B B B B B B B B B B B B B B B                                                                                                                                                   ",
"                                                                                                                                                                                                F F F F F F F F F F F F F F F F F F F F F F F F F F F F F F F F F F F F F F F F F F F F F F F F F [ c.c.'.` B B B B B B B B B B B B B B B B B B B B B B B B % m.m.m.m.m.m.m.m.m.m.m.m.m.m.m.m.m.m.m.m.m.m.m.m.m.o > B B B B B B B B B B B B B B B B B B B B B B B B B B B B B B B B B B x * M.m.m.m.m.m.m.m.m.m.m.m.m.m.m.m.m.m.m.m.m.m.m.m.m.n.b B B B B B B B B B B B B B B B B B B B B B B B B B B B B B B B B B B B B B B B B B B B B B B B B B B B B B B B B B B B B B B B B B B B >.W.E.E.E.E.E.E.E.E.E.E.E.E.~.B B B B B B B B B B B B B B B B B B B B B B B B B B B B B B B B B B B B B B B B B B B B B B B B B B B B B B B B B B B B B B B B B B B B B B B B B B B B B B B B                                                                                                                                                   ",
"                                                                                                                                                                                                F F F F F F F F F F F F F F F F F F F F F F F F F F F F F F F F F F F F F F F F F F F F F F F F F [ c.c.'.` B B B B B B B B B B B B B B B B B B B B B B B + m.m.m.m.m.m.m.m.m.m.m.m.m.m.m.m.m.m.m.m.m.m.m.m.. > B B B B B B B B B B B B B B B B B B B B B B B B B B B B B B B B B B B B B B h % m.m.m.m.m.m.m.m.m.m.m.m.m.m.m.m.m.m.m.m.m.m.m.m.V.x B B B B B B B B B B B B B B B B B B B B B B B B B B B B B B B B B B B B B B B B B B B B B B B B B B B B B B B B B B B B B B B B v ~.E.E.E.E.E.E.E.E.E.E.E.E.E.E.1.B B B B B B B B B B B B B B B B B B B B B B B B B B B B B B B B B B B B B B B B B B B B B B B B B B B B B B B B B B B B B B B B B B B B B B B B B B B B B B B B                                                                                                                                                   ",
"                                                                                                                                                                                                F F F F F F F F F F F F F F F F F F F F F F F F F F F F F F F F F F F F F F F F F F F F F F F F F [ c.c.'.` B B B B B B B B B B B B B B B B B B B B B B p m.m.m.m.m.m.m.m.m.m.m.m.m.m.m.m.m.m.m.m.m.m.m.n.$ B B B B B B B B B B B B B B B B B B B B B B B B B B B B B B B B B B B B B B B B B B > V.m.m.m.m.m.m.m.m.m.m.m.m.m.m.m.m.m.m.m.m.m.m.m.. g B B B B B B B B B B B B B B B B B B B B B B B B B B B B B B B B B B B B B B B B B B B B B B B B B B B B B B B B B B B B B B M K.E.E.E.E.E.E.E.E.E.E.E.E.E.E.E.=.B B B B B B B B B B B B B B B B B B B B B B B B B B B B B B B B B B B B B B B B B B B B B B B B B B B B B B B B B B B B B B B B B B B B B B B B B B B B B B B B                                                                                                                                                   ",
"                                                                                                                                                                                                F F F F F F F F F F F F F F F F F F F F F F F F F F F F F F F F F F F F F F F F F F F F F F F F F [ c.c.'.` B B B B B B B B B B B B B B B B B B B B B j n.m.m.m.m.m.m.m.m.m.m.m.m.m.m.m.m.m.m.m.m.m.m.. h B B B B B B B B B B B B B B B B B B B B B B B B B B B B B B B B B B B B B B B B B B B B c ; m.m.m.m.m.m.m.m.m.m.m.m.m.m.m.m.m.m.m.m.m.m.m.+ B B B B B B B B B B B B B B B B B B B B B B B B B B B B B B B B B B B B B B B B B B B B B B B B B B B B B B B B B B B B B -.R.E.E.E.E.E.E.E.E.E.E.E.E.E.E.E./.B B B B B B B B B B B B B B B B B B B B B B B B B B B B B B B B B B B B B B B B B B B B B B B B B B B B B B B B B B B B B B B B B B B B B B B B B B B B B B B B B                                                                                                                                                   ",
"                                                                                                                                                                                                F F F F F F F F F F F F F F F F F F F F F F F F F F F F F F F F F F F F F F F F F F F F F F F F F [ c.c.'.` B B B B B B B B B B B B B B B B B B B B c . m.m.m.m.m.m.m.m.m.m.m.m.m.m.m.m.m.m.m.m.m.m.@ B B B B B B B B B B B B B B B B B B B B B B B B B B B B B B B B B B B B B B B B B B B B B B B B p n.m.m.m.m.m.m.m.m.m.m.m.m.m.m.m.m.m.m.m.m.m.m.> B B B B B B B B B B B B B B B B B B B B B B B B B B B B B B B B B B B B B B B B B B B B B B B B B B B B B B B B B B c ^.E.E.E.E.E.E.E.E.E.E.E.E.E.E.E.E.K.v B B B B B B B B B B B B B B B B B B B B B B B B B B B B B B B B B B B B B B B B B B B B B B B B B B B B B B B B B B B B B B B B B B B B B B B B B B B B B B B B B                                                                                                                                                   ",
"                                                                                                                                                                                                F F F F F F F F F F F F F F F F F F F F F F F F F F F F F F F F F F F F F F F F F F F F F F F F F [ c.c.'.` B B B B B B B B B B B B B B B B B B B B @ m.m.m.m.m.m.m.m.m.m.m.m.m.m.m.m.m.m.m.m.m.b.u B B B B B B B B B B B B B B B B B B B B B B B B B B B B B B B B B B B B B B B B B B B B B B B B B B b B.m.m.m.m.m.m.m.m.m.m.m.m.m.m.m.m.m.m.m.m.m.V.c B B B B B B B B B B B B B B B B B B B B B B B B B B B B B B B B B B B B B B B B B B B B B B B B B B B B B B B B m J.E.E.E.E.E.E.E.E.E.E.E.E.E.E.E.E./.v B B B B B B B B B B B B B B B B B B B B B B B B B B B B B B B B B B B B B B B B B B B B B B B B B B B B B B B B B B B B B B B B B B B B B B B B B B B B B B B B B B                                                                                                                                                   ",
"                                                                                                                                                                                                F F F F F F F F F F F F F F F F F F F F F F F F F F F F F F F F F F F F F F F F F F F F F F F F F [ c.c.'.` B B B B B B B B B B B B B B B B B B B b b.m.m.m.m.m.m.m.m.m.m.m.m.m.m.m.m.m.m.m.m.S.> B B B B B B B B B B B B B B B B B B B B B B B B B B B B B B B B B B B B B B B B B B B B B B B B B B B B j V.m.m.m.m.m.m.m.m.m.m.m.m.m.m.m.m.m.m.m.m.m.; B B B B B B B B B B B B B B B B B B B B B B B B B B B B B B B B B B B B B B B B B B B B B B B B B B B B B B B -.P.E.E.E.E.E.E.E.E.E.E.E.E.E.E.E.E.<.B B B B B B B B B B B B B B B B B B B B B B B B B B B B B B B B B B B B B B B B B B B B B B B B B B B B B B B B B B B B B B B B B B B B B B B B B B B B B B B B B B B B                                                                                                                                                   ",
"                                                                                                                                                                                                F F F F F F F F F F F F F F F F F F F F F F F F F F F F F F F F F F F F F F F F F F F F F F F F F [ c.c.'.` B B B B B B B B B B B B B B B B B B B . m.m.m.m.m.m.m.m.m.m.m.m.m.m.m.m.m.m.m.m.n.b B B B B B B B B B B B B B B B B B B B B B B B B B B B B B B B B B B B B B B B B B B B B B B B B B B B B B B x V.m.m.m.m.m.m.m.m.m.m.m.m.m.m.m.m.m.m.m.m.m.9 B B B B B B B B B B B B B B B B B B B B B B B B B B B B B B B B B B B B B B B B B B B B B B B B B B B B R 1.E.E.E.E.E.E.E.E.E.E.E.E.E.E.E.E.U.=.B B B B B B B B B B B B B B B B B B B B B B B B B B B B B B B B B B B B B B B B B B B B B B B B B B B B B B B B B B B B B B B B B B B B B B B B B B B B B B B B B B B B B                                                                                                                                                   ",
"                                                                                                                                                                                                F F F F F F F F F F F F F F F F F F F F F F F F F F F F F F F F F F F F F F F F F F F F F F F F F [ c.c.'.` B B B B B B B B B B B B B B B B B B y m.m.m.m.m.m.m.m.m.m.m.m.m.m.m.m.m.m.m.m.b.> B B B B B B B B B B B B B B B B B B B B B B B B B B B B B B B B B B B B B B B B B B B B B B B B B B B B B B B B j B.m.m.m.m.m.m.m.m.m.m.m.m.m.m.m.m.m.m.m.m.. B B B B B B B B B B B B B B B B B B B B B B B B B B B B B B B B B B B B B B B B B B B B B B B B B B B v F.E.E.E.E.E.E.E.E.E.E.E.E.E.E.E.E.F.v B B B B B B B B B B B B B B B B B B B B B B B B B B B B B B B B B B B B B B B B B B B B B B B B B B B B B B B B B B B B B B B B B B B B B B B B B B B B B B B B B B B B B B                                                                                                                                                   ",
"                                                                                                                                                                                                F F F F F F F F F F F F F F F F F F F F F F F F F F F F F F F F F F F F F F F F F F F F F F F F F [ c.c.'.` B B B B B B B B B B B B B B B B B c B.m.m.m.m.m.m.m.m.m.m.m.m.m.m.m.m.m.m.m.M.> B B B B B B B B B B B B B B B B B B B B B B B B B B B B B B B B B B B B B B B B B B B B B B B B B B B B B B B B B B 9 n.m.m.m.m.m.m.m.m.m.m.m.m.m.m.m.m.m.m.m.m.u B B B B B B B B B B B B B B B B B B B B B B B B B B B B B B B B B B B B B B B B B B B B B B B B B =.I.E.E.E.E.E.E.E.E.E.E.E.E.E.E.E.E.1.R B B B B B B B B B B B B B B B B B B B B B B B B B B B B B B B B B B B B B B B B B B B B B B B B B B B B B B B B B B B B B B B B B B B B B B B B B B B B B B B B B B B B B B B                                                                                                                                                   ",
"                                                                                                                                                                                                F F F F F F F F F F F F F F F F F F F F F F F F F F F F F F F F F F F F F F F F F F F F F F F F F [ c.c.'.` B B B B B B B B B B B B B B B B B + m.m.m.m.m.m.m.m.m.m.m.m.m.m.m.m.m.m.m.m.$ B B B B B B B B B B B B B B B B B B B B B B B B B B B B B B B B B B B B B B B B B B B B B B B B B B B B B B B B B B B B p m.m.m.m.m.m.m.m.m.m.m.m.m.m.m.m.m.m.m.m.B.c B B B B B B B B B B B B B B B B B B B B B B B B B B B B B B B B B B B B B B B B B B B B B B B >.E.E.E.E.E.E.E.E.E.E.E.E.E.E.E.E.I.=.B B B B B B B B B B B B B B B B B B B B B B B B B B B B B B B B B B B B B B B B B B B B B B B B B B B B B B B B B B B B B B B B B B B B B B B B B B B B B B B B B B B B B B B B B                                                                                                                                                   ",
"                                                                                                                                                                                                F F F F F F F F F F F F F F F F F F F F F F F F F F F F F F F F F F F F F F F F F F F F F F F F F [ c.c.'.` B B B B B B B B B B B B B B B B x n.m.m.m.m.m.m.m.m.m.m.m.m.m.m.m.m.m.m.m.o B B B B B B B B B B B B B B B B B B B B B B B B B B B B B B B B B B B B B B B B B B B B B B B B B B B B B B B B B B B B B B ; m.m.m.m.m.m.m.m.m.m.m.m.m.m.m.m.m.m.m.m.$ B B B B B B B B B B B B B B B B B B B B B B B B B B B B B B B B B B B B B B B B B B B B B v /.E.E.E.E.E.E.E.E.E.E.E.E.E.E.E.E.J.m B B B B B B B B B B B B B B B B B B B B B B B B B B B B B B B B B B B B B B B B B B B B B B B B B B B B B B B B B B B B B B B B B B B B B B B B B B B B B B B B B B B B B B B B B B                                                                                                                                                   ",
"                                                                                                                                                                                                F F F F F F F F F F F F F F F F F F F F F F F F F F F F F F F F F F F F F F F F F F F F F F F F F [ c.c.'.` B B B B B B B B B B B B B B B B ; m.m.m.m.m.m.m.m.m.m.m.m.m.m.m.m.m.m.m.B.x B B B B B B B B B B B B B B B B B B B B B B B B B B B B B B B B B B B B B B B B B B B B B B B B B B B B B B B B B B B B B B c A.m.m.m.m.m.m.m.m.m.m.m.m.m.m.m.m.m.m.m.B.c B B B B B B B B B B B B B B B B B B B B B B B B B B B B B B B B B B B B B B B B B B B N U.E.E.E.E.E.E.E.E.E.E.E.E.E.E.E.E.^.c B B B B B B B B B B B B B B B B B B B B B B B B B B B B B B B B B B B B B B B B B B B B B B B B B B B B B B B B B B B B B B B B B B B B B B B B B B B B B B B B B B B B B B B B B B B                                                                                                                                                   ",
"                                                                                                                                                                                                F F F F F F F F F F F F F F F F F F F F F F F F F F F F F F F F F F F F F F F F F F F F F F F F F [ c.c.'.` B B B B B B B B B B B B B B B x n.m.m.m.m.m.m.m.m.m.m.m.m.m.m.m.m.m.m.m.> B B B B B B B B B B B B B B B B B B B B B B B B B B B B B B B B B B B B B B B B B B B B B B B B B B B B B B B B B B B B B B B B h b.m.m.m.m.m.m.m.m.m.m.m.m.m.m.m.m.m.m.m.u B B B B B B B B B B B B B B B B B B B B B B B B B B B B B B B B B B B B B B B B B B >.W.E.E.E.E.E.E.E.E.E.E.E.E.E.E.E.R.-.B B B B B B B B B B B B B B B B B B B B B B B B B B B B B B B B B B B B B B B B B B B B B B B B B B B B B B B B B B B B B B B B B B B B B B B B B B B B B B B B B B B B B B B B B B B B B                                                                                                                                                   ",
"                                                                                                                                                                                                F F F F F F F F F F F F F F F F F F F F F F F F F F F F F F F F F F F F F F F F F F F F F F F F F [ c.c.'.` B B B B B B B B B B B B B B B @ m.m.m.m.m.m.m.m.m.m.m.m.m.m.m.m.m.m.m.o B B B B B B B B B B B B B B B B B B B B B B B B B B B B B B B B B B B B B B B B B B B B B B B B B B B B B B B B B B B B B B B B B B + m.m.m.m.m.m.m.m.m.m.m.m.m.m.m.m.m.m.m.A.B B B B B B B B B B B B B B B B B B B B B B B B B B B B B B B B B B B B B B B B v ~.E.E.E.E.E.E.E.E.E.E.E.E.E.E.E.E.K.m B B B B B B B B B B B B B B B B B B B B B B B B B B B B B B B B B B B B B B B B B B B B B B B B B B B B B B B B B B B B B B B B B B B B B B B B B B B B B B B B B B B B B B B B B B B B B B                                                                                                                                                   ",
"                                                                                                                                                                                                F F F F F F F F F F F F F F F F F F F F F F F F F F F F F F F F F F F F F F F F F F F F F F F F F [ c.c.'.` B B B B B B B B B B B B B B c B.m.m.m.m.m.m.m.m.m.m.m.m.m.m.m.m.m.m.M.h B B B B B B B B B B B B B B B B B B B B B B B B B B B B B B B B B B B B B B B B B B B B B B B B B B B B B B B B B B B B B B B B B B c V.m.m.m.m.m.m.m.m.m.m.m.m.m.m.m.m.m.m.m.> B B B B B B B B B B B B B B B B B B B B B B B B B B B B B B B B B B B B B B m L.E.E.E.E.E.E.E.E.E.E.E.E.E.E.E.E.~.v B B B B B B B B B B B B B B B B B B B B B B B B B B B B B B B B B B B B B B B B B B B B B B B B B B B B B B B B B B B B B B B B B B B B B B B B B B B B B B B B B B B B B B B B B B B B B B B                                                                                                                                                   ",
"                                                                                                                                                                                                F F F F F F F F F F F F F F F F F F F F F F F F F F F F F F F F F F F F F F F F F F F F F F F F F [ c.c.'.` B B B B B B B B B B B B B B u m.m.m.m.m.m.m.m.m.m.m.m.m.m.m.m.m.m.m.# B B B B B B B B B B B B B B B B B B B B B B B B B B B B B B B B B B B B B B B B B B B B B B B B B B B B B B B B B B B B B B B B B B B B p m.m.m.m.m.m.m.m.m.m.m.m.m.m.m.m.m.m.m.= B B B B B B B B B B B B B B B B B B B B B B B B B B B B B B B B B B B B B -.R.E.E.E.E.E.E.E.E.E.E.E.E.E.E.E.W.>.B B B B B B B B B B B B B B B B B B B B B B B B B B B B B B B B B B B B B B B B B B B B B B B B B B B B B B B B B B B B B B B B B B B B B B B B B B B B B B B B B B B B B B B B B B B B B B B B B                                                                                                                                                   ",
"                                                                                                                                                                                                F F F F F F F F F F F F F F F F F F F F F F F F F F F F F F F F F F F F F F F F F F F F F F F F F [ c.c.'.` B B B B B B B B B B B B B B A.m.m.m.m.m.m.m.m.m.m.m.m.m.m.m.m.m.m.n.l B B B B B B B B B B B B B B B B B B B B B B B B B B B B B B B B B B B B B B B B B B B B B B B B B B B B B B B B B B B B B B B B B B B B B . m.m.m.m.m.m.m.m.m.m.m.m.m.m.m.m.m.m.M.j B B B B B B B B B B B B B B B B B B B B B B B B B B B B B B B B B B c 2.E.E.E.E.E.E.E.E.E.E.E.E.E.E.E.E.U.M B B B B B B B B B B B B B B B B B B B B B B B B B B B B B B B B B B B B B B B B B B B B B B B B B B B B B B B B B B B B B B B B B B B B B B B B B B B B B B B B B B B B B B B B B B B B B B B B B B                                                                                                                                                   ",
"                                                                                                                                                                                                F F F F F F F F F F F F F F F F F F F F F F F F F F F F F F F F F F F F F F F F F F F F F F F F F [ c.c.'.` B B B B B B B B B B B B B > m.m.m.m.m.m.m.m.m.m.m.m.m.m.m.m.m.m.m.; B B B B B B B B B B B B B B B B B B B B B B B B B B B B B B B B B B B B B B B B B B B B B B B B B B B B B B B B B B B B B B B B B B B B B B p m.m.m.m.m.m.m.m.m.m.m.m.m.m.m.m.m.m.m.+ B B B B B B B B B B B B B B B B B B B B B B B B B B B B B B B B B m J.E.E.E.E.E.E.E.E.E.E.E.E.E.E.E.E./.v B B B B B B B B B B B B B B B B B B B B B B B B B B B B B B B B B B B B B B B B B B B B B B B B B B B B B B B B B B B B B B B B B B B B B B B B B B B B B B B B B B B B B B B B B B B B B B B B B B B                                                                                                                                                   ",
"                                                                                                                                                                                                F F F F F F F F F F F F F F F F F F F F F F F F F F F F F F F F F F F F F F F F F F F F F F F F F [ c.c.'.` B B B B B B B B B B B B B * m.m.m.m.m.m.m.m.m.m.m.m.m.m.m.m.m.m.M.x B B B B B B B B B B B B B B B B B B B B B B B B B B B B B B B B B B B B B B B B B B B B B B B B B B B B B B B B B B B B B B B B B B B B B B B C.m.m.m.m.m.m.m.m.m.m.m.m.m.m.m.m.m.m.B.B B B B B B B B B B B B B B B B B B B B B B B B B B B B B B B B -.P.E.E.E.E.E.E.E.E.E.E.E.E.E.E.E.E.<.B B B B B B B B B B B B B B B B B B B B B B B B B B B B B B B B B B B B B B B B B B B B B B B B B B B B B B B B B B B B B B B B B B B B B B B B B B B B B B B B B B B B B B B B B B B B B B B B B B B B B                                                                                                                                                   ",
"                                                                                                                                                                                                F F F F F F F F F F F F F F F F F F F F F F F F F F F F F F F F F F F F F F F F F F F F F F F F F [ c.c.'.` B B B B B B B B B B B B g B.m.m.m.m.m.m.m.m.m.m.m.m.m.m.m.m.m.m.% B B B B B B B B B B B B B B B B B B B B B B B B B B B B B B B B B B B B B B B B B B B B B B B B B B B B B B B B B B B B B B B B B B B B B B B B y m.m.m.m.m.m.m.m.m.m.m.m.m.m.m.m.m.m.m.> B B B B B B B B B B B B B B B B B B B B B B B B B B B B B R 1.E.E.E.E.E.E.E.E.E.E.E.E.E.E.E.E.I.=.B B B B B B B B B B B B B B B B B B B B B B B B B B B B B B B B B B B B B B B B B B B B B B B B B B B B B B B B B B B B B B B B B B B B B B B B B B B B B B B B B B B B B B B B B B B B B B B B B B B B B B                                                                                                                                                   ",
"                                                                                                                                                                                                F F F F F F F F F F F F F F F F F F F F F F F F F F F F F F F F F F F F F F F F F F F F F F F F F [ c.c.'.` B B B B B B B B B B B B > m.m.m.m.m.m.m.m.m.m.m.m.m.m.m.m.m.m.m.9 B B B B B B B B B B B B B B B B B B B B B B B B B B B B B B B B B B B B B B B B B B B B B B B B B B B B B B B B B B B B B B B B B B B B B B B B c B.m.m.m.m.m.m.m.m.m.m.m.m.m.m.m.m.m.m.* B B B B B B B B B B B B B B B B B B B B B B B B B B B B v F.E.E.E.E.E.E.E.E.E.E.E.E.E.E.E.E.F.v B B B B B B B B B B B B B B B B B B B B B B B B B B B B B B B B B B B B B B B B B B B B B B B B B B B B B B B B B B B B B B B B B B B B B B B B B B B B B B B B B B B B B B B B B B B B B B B B B B B B B B B                                                                                                                                                   ",
"                                                                                                                                                                                                F F F F F F F F F F F F F F F F F F F F F F F F F F F F F F F F F F F F F F F F F F F F F F F F F [ c.c.'.` B B B B B B B B B B B B * m.m.m.m.m.m.m.m.m.m.m.m.m.m.m.m.m.m.C.B B B B B B B B B B B B B B B B B B B B B B B B B B B B B B B B B B B B B B B B B B B B B B B B B B B B B B B B B B B B B B B B B B B B B B B B B B ; m.m.m.m.m.m.m.m.m.m.m.m.m.m.m.m.m.m.B.B B B B B B B B B B B B B B B B B B B B B B B B B B B =.I.E.E.E.E.E.E.E.E.E.E.E.E.E.E.E.E.1.R B B B B B B B B B B B B B B B B B B B B B B B B B B B B B B B B B B B B B B B B B B B B B B B B B B B B B B B B B B B B B B B B B B B B B B B B B B B B B B B B B B B B B B B B B B B B B B B B B B B B B B B B                                                                                                                                                   ",
"                                                                                                                                                                                                F F F F F F F F F F F F F F F F F F F F F F F F F F F F F F F F F F F F F F F F F F F F F F F F F [ c.c. X` B B B B B B B B B B B B V.m.m.m.m.m.m.m.m.m.m.m.m.m.m.m.m.m.m.+ B B B B B B B B B B B B B B B B B B B B B B B B B B B B B B B B B B B B B B B B B B B B B B B B B B B B B B B B B B B B B B B B B B B B B B B B B B 9 m.m.m.m.m.m.m.m.m.m.m.m.m.m.m.m.m.m.m.> B B B B B B B B B B B B B B B B B B B B B B B B B >.W.E.E.E.E.E.E.E.E.E.E.E.E.E.E.E.P.=.B B B B B B B B B B B B B B B B B B B B B B B B B B B B B B B B B B B B B B B B B B B B B B B B B B B B B B B B B B B B B B B B B B B B B B B B B B B B B B B B B B B B B B B B B B B B B B B B B B B B B B B B B B                                                                                                                                                   ",
"                                                                                                                                                                                                F F F F F F F F F F F F F F F F F F F F F F F F F F F F F F F F F F F F F F F F F F F F F F F F F [ c.c.'.` B B B B B B B B B B B h m.m.m.m.m.m.m.m.m.m.m.m.m.m.m.m.m.m.m.h B B B B B B B B B B B B B B B B B B B B B B B B B B B B B B B B B B B B B B B B B B B B B B B B B B B B B B B B B B B B B B B B B B B B B B B B B B B V.m.m.m.m.m.m.m.m.m.m.m.m.m.m.m.m.m.m.+ B B B B B B B B B B B B B B B B B B B B B B B v /.E.E.E.E.E.E.E.E.E.E.E.E.E.E.E.E.J.m B B B B B B B B B B B B B B B B B B B B B B B B B B B B B B B B B B B B B B B B B B B B B B B B B B B B B B B B B B B B B B B B B B B B B B B B B B B B B B B B B B B B B B B B B B B B B B B B B B B B B B B B B B B                                                                                                                                                   ",
"                                                                                                                                                                                                F F F F F F F F F F F F F F F F F F F F F F F F F F F F F F F F F F F F F F F F F F F F F F F F F [ c.c.'.` B B B B B B B B B B B $ m.m.m.m.m.m.m.m.m.m.m.m.m.m.m.m.m.m.. B B B B B B B B B B B B B B B B B B B B B B B B B B B B B B B B B B B B B B B B B B B B B B B B B B B B B B B B B B B B B B B B B B B B B B B B B B B B + m.m.m.m.m.m.m.m.m.m.m.m.m.m.m.m.m.m.. B B B B B B B B B B B B B B B B B B B B B B N U.E.E.E.E.E.E.E.E.E.E.E.E.E.E.E.E.^.c B B B B B B B B B B B B B B B B B B B B B B B B B B B B B B B B B B B B B B B B B B B B B B B B B B B B B B B B B B B B B B B B B B B B B B B B B B B B B B B B B B B B B B B B B B B B B B B B B B B B B B B B B B B B                                                                                                                                                   ",
"                                                                                                                                                                                                F F F F F F F F F F F F F F F F F F F F F F F F F F F F F F F F F F F F F F F F F F F F F F F F F [ c.c. X` B B B B B B B B B B B % m.m.m.m.m.m.m.m.m.m.m.m.m.m.m.m.m.m.@ B B B B B B B B B B B B B B B B B B B B B B B B B B B B B B B B B B B B B B B B B B B B B B B B B B B B B B B B B B B B B B B B B B B B B B B B B B B B b m.m.m.m.m.m.m.m.m.m.m.m.m.m.m.m.m.m.b.c B B B B B B B B B B B B B B B B B B B B -.R.E.E.E.E.E.E.E.E.E.E.E.E.E.E.E.R.-.B B B B B B B B B B B B B B B B B B B B B B B B B B B B B B B B B B B B B B B B B B B B B B B B B B B B B B B B B B B B B B B B B B B B B B B B B B B B B B B B B B B B B B B B B B B B B B B B B B B B B B B B B B B B B B                                                                                                                                                   ",
"                                                                                                                                                                                                F F F F F F F F F F F F F F F F F F F F F F F F F F F F F F F F F F F F F F F F F F F F F F F F F [ c.c. X` B B B B B B B B B B B V.m.m.m.m.m.m.m.m.m.m.m.m.m.m.m.m.m.m.9 B B B B B B B B B B B B B B B B B B B B B B B B B B B B B B B B B B B B B B B B B B B B B B B B B B B B B B B B B B B B B B B B B B B B B B B B B B B B B B.m.m.m.m.m.m.m.m.m.m.m.m.m.m.m.m.m.m.> B B B B B B B B B B B B B B B B B B v /.E.E.E.E.E.E.E.E.E.E.E.E.E.E.E.E.U.=.c B B B B B B B B B B B B B B B B B B B B B B B B B B B B B B B B B B B B B B B B B B B B B B B B B B B B B B B B B B B B B B B B B B B B B B B B B B B B B B B B B B B B B B B B B B B B B B B B B B B B B B B B B B B B B B                                                                                                                                                   ",
"                                                                                                                                                                                                F F F F F F F F F F F F F F F F F F F F F F F F F F F F F F F F F F F F F F F F F F F F F F F F F [ c.c. X` B B B B B B B B B B x m.m.m.m.m.m.m.m.m.m.m.m.m.m.m.m.m.m.n.g B B B B B B B B B B B B B B B B B B B B B B B B B B B B B B B B B B B B B B B B B B B B B B B B B B B B B B B B B B B B B B B B B B B B B B B B B B B B B % m.m.m.m.m.m.m.m.m.m.m.m.m.m.m.m.m.m.+ B B B B B B B B B B B B B B B B B =.R.E.E.E.E.E.E.E.E.E.E.E.E.E.E.E.E.E.E.E.E.R.U.H./.2.>.=.m c B B B B B B B B B B B B B B B B B B B B B B B B B B B B B B B B B B B B B B B B B B B B B B B B B B B B B B B B B B B B B B B B B B B B B B B B B B B B B B B B B B B B B B B B B B B B B B B B B B B B B                                                                                                                                                   ",
"                                                                                                                                                                                                F F F F F F F F F F F F F F F F F F F F F F F F F F F F F F F F F F F F F F F F F F F F F F F F F [ c.c. X` B B B B B B B B B B p m.m.m.m.m.m.m.m.m.m.m.m.m.m.m.m.m.m.= B B B B B B B B B B B B B B B B B B B B B B B B B B B B B B B B B B B B B B B B B B B B B B B B B B B B B B B B B B B B B B B B B B B B B B B B B B B B B B $ m.m.m.m.m.m.m.m.m.m.m.m.m.m.m.m.m.m.= B B B B B B B B B B B B B B B B m R.E.E.E.E.E.E.E.E.E.E.E.E.E.E.E.E.E.E.E.E.E.E.E.E.E.E.E.E.E.E.K.~.<.=.v B B B B B B B B B B B B B B B B B B B B B B B B B B B B B B B B B B B B B B B B B B B B B B B B B B B B B B B B B B B B B B B B B B B B B B B B B B B B B B B B B B B B B B B B B B B B B B B B                                                                                                                                                   ",
"                                                                                                                                                                                                F F F F F F F F F F F F F F F F F F F F F F F F F F F F F F F F F F F F F F F F F F F F F F F F F [ c.c. X` B B B B B B B B B B @ m.m.m.m.m.m.m.m.m.m.m.m.m.m.m.m.m.m.$ B B B B B B B B B B B B B B B B B B B B B B B B B B B B B B B B B B B B B B B B B B B B B B B B B B B B B B B B B B B B B B B B B B B B B B B B B B B B B B j m.m.m.m.m.m.m.m.m.m.m.m.m.m.m.m.m.m.V.B B B B B B B B B B B B B B B B /.E.E.E.E.E.E.E.E.E.E.E.E.E.E.E.E.E.E.E.E.E.E.E.E.E.E.E.E.E.E.E.E.E.E.E.E.K.^...m B B B B B B B B B B B B B B B B B B B B B B B B B B B B B B B B B B B B B B B B B B B B B B B B B B B B B B B B B B B B B B B B B B B B B B B B B B B B B B B B B B B B B B B B B B B B                                                                                                                                                   ",
"                                                                                                                                                                                                F F F F F F F F F F F F F F F F F F F F F F F F F F F F F F F F F F F F F F F F F F F F F F F F F [ c.c. X` B B B B B B B B B B % m.m.m.m.m.m.m.m.m.m.m.m.m.m.m.m.m.m.9 B B B B B B B B B B B B B B B B B B B B B B B B B B B B B B B B B B B B B B B B B B B B B B B B B B B B B B B B B B B B B B B B B B B B B B B B B B B B B B B B.m.m.m.m.m.m.m.m.m.m.m.m.m.m.m.m.m.m.x B B B B B B B B B B B B B B m E.E.E.E.E.E.E.E.E.E.E.E.E.E.E.E.E.E.E.E.E.E.E.E.E.E.E.E.E.E.E.E.E.E.E.E.E.E.E.E.E.K.2.=.R B B B B B B B B B B B B B B B B B B B B B B B B B B B B B B B B B B B B B B B B B B B B B B B B B B B B B B B B B B B B B B B B B B B B B B B B B B B B B B B B B B B B B B B B                                                                                                                                                   ",
"                                                                                                                                                                                                F F F F F F F F F F F F F F F F F F F F F F F F F F F F F F F F F F F F F F F F F F F F F F F F F [ c.c. X` B B B B B B B B B B A.m.m.m.m.m.m.m.m.m.m.m.m.m.m.m.m.m.M.c B B B B B B B B B B B B B B B B B B B B B B B B B B B B B B B B B B B B B B B B B B B B B B B B B B B B B B B B B B B B B B B B B B B B B B B B B B B B B B B o m.m.m.m.m.m.m.m.m.m.m.m.m.m.m.m.m.m.> B B B B B B B B B B B B B B -.E.E.E.E.E.E.E.E.E.E.E.E.E.E.E.E.E.E.E.E.E.E.E.E.E.E.E.E.E.E.E.E.E.E.E.E.E.E.E.E.E.E.E.E.P.^.=.B B B B B B B B B B B B B B B B B B B B B B B B B B B B B B B B B B B B B B B B B B B B B B B B B B B B B B B B B B B B B B B B B B B B B B B B B B B B B B B B B B B B B B                                                                                                                                                   ",
"                                                                                                                                                                                                F F F F F F F F F F F F F F F F F F F F F F F F F F F F F F F F F F F F F F F F F F F F F F F F F [ c.c. X` B B B B B B B B B B n.m.m.m.m.m.m.m.m.m.m.m.m.m.m.m.m.m.C.B B B B B B B B B B B B B B B B B B B B B B B B B B B B B B B B B B B B B B B B B B B B B B B B B B B B B B B B B B B B B B B B B B B B B B B B B B B B B B B B ; m.m.m.m.m.m.m.m.m.m.m.m.m.m.m.m.m.m.y B B B B B B B B B B B B B B ..E.E.E.E.E.E.E.E.E.E.E.E.E.E.E.E.E.E.E.E.E.E.E.E.E.E.E.E.E.E.E.E.E.E.E.E.E.E.E.E.E.E.E.E.E.E.E.U.1.m B B B B B B B B B B B B B B B B B B B B B B B B B B B B B B B B B B B B B B B B B B B B B B B B B B B B B B B B B B B B B B B B B B B B B B B B B B B B B B B B B B B                                                                                                                                                   ",
"                                                                                                                                                                                                F F F F F F F F F F F F F F F F F F F F F F F F F F F F F F F F F F F F F F F F F F F F F F F F F [ c.c. X` B B B B B B B B B x m.m.m.m.m.m.m.m.m.m.m.m.m.m.m.m.m.m.% B B B B B B B B B B B B B B B B B B B B B B B B B B B B B B B B B B B B B B B B B B B B B B B B B B B B B B B B B B B B B B B B B B B B B B B B B B B B B B B B y m.m.m.m.m.m.m.m.m.m.m.m.m.m.m.m.m.m.+ B B B B B B B B B B B B B B -.E.E.E.E.E.E.E.E.E.E.E.E.E.E.E.E.E.E.E.E.E.E.E.E.E.E.E.E.E.E.E.E.E.E.E.E.E.E.E.E.E.E.E.E.E.E.E.E.E.E.~.=.B B B B B B B B B B B B B B B B B B B B B B B B B B B B B B B B B B B B B B B B B B B B B B B B B B B B B B B B B B B B B B B B B B B B B B B B B B B B B B B B B                                                                                                                                                   ",
"                                                                                                                                                                                                F F F F F F F F F F F F F F F F F F F F F F F F F F F F F F F F F F F F F F F F F F F F F F F F F [ c.c. X` B B B B B B B B B > m.m.m.m.m.m.m.m.m.m.m.m.m.m.m.m.m.m.+ B B B B B B B B B B B B B B B B B B B B B B B B B B B B B B B B B B B B B B B B B B B B B B B B B B B B B B B B B B B B B B B B B B B B B B B B B B B B B B B B 9 m.m.m.m.m.m.m.m.m.m.m.m.m.m.m.m.m.m.% B B B B B B B B B B B B B B m E.E.E.E.E.E.E.E.E.E.E.E.E.E.E.E.E.E.E.E.E.E.E.E.E.E.E.E.E.E.E.E.E.E.E.E.E.E.E.E.E.E.E.E.E.E.E.E.E.E.E.E.H.=.B B B B B B B B B B B B B B B B B B B B B B B B B B B B B B B B B B B B B B B B B B B B B B B B B B B B B B B B B B B B B B B B B B B B B B B B B B B B B B B                                                                                                                                                   ",
"                                                                                                                                                                                                F F F F F F F F F F F F F F F F F F F F F F F F F F F F F F F F F F F F F F F F F F F F F F F F F [ c.c. X` B B B B B B B B B p m.m.m.m.m.m.m.m.m.m.m.m.m.m.m.m.m.m.u B B B B B B B B B B B B B B B B B B B B B B B B B B B B B B B B B B B B B B B B B B B B B B B B B B B B B B B B B B B B B B B B B B B B B B B B B B B B B B B B x m.m.m.m.m.m.m.m.m.m.m.m.m.m.m.m.m.m.. B B B B B B B B B B B B B B B U.E.E.E.E.E.E.E.E.E.E.E.E.E.E.E.E.E.E.E.E.E.E.E.E.E.E.E.E.E.E.E.E.E.E.E.E.E.E.E.E.E.E.E.E.E.E.E.E.E.E.E.E.E.F.=.B B B B B B B B B B B B B B B B B B B B B B B B B B B B B B B B B B B B B B B B B B B B B B B B B B B B B B B B B B B B B B B B B B B B B B B B B B B B B                                                                                                                                                   ",
"                                                                                                                                                                                                F F F F F F F F F F F F F F F F F F F F F F F F F F F F F F F F F F F F F F F F F F F F F F F F F [ c.c. X` B B B B B B B B B $ m.m.m.m.m.m.m.m.m.m.m.m.m.m.m.m.m.m.> B B B B B B B B B B B B B B B B B B B B B B B B B B B B B B B B B B B B B B B B B B B B B B B B B B B B B B B B B B B B B B B B B B B B B B B B B B B B B B B B B n.m.m.m.m.m.m.m.m.m.m.m.m.m.m.m.m.m.V.B B B B B B B B B B B B B B B 1.E.E.E.E.E.E.E.E.E.E.E.E.E.E.E.E.E.E.E.E.E.E.E.E.E.E.E.E.E.E.E.E.E.E.E.E.E.E.E.E.E.E.E.E.E.E.E.E.E.E.E.E.E.E.E./.m B B B B B B B B B B B B B B B B B B B B B B B B B B B B B B B B B B B B B B B B B B B B B B B B B B B B B B B B B B B B B B B B B B B B B B B B B B B                                                                                                                                                   ",
"                                                                                                                                                                                                F F F F F F F F F F F F F F F F F F F F F F F F F F F F F F F F F F F F F F F F F F F F F F F F F [ c.c. X` B B B B B B B B B + m.m.m.m.m.m.m.m.m.m.m.m.m.m.m.m.m.m.h B B B B B B B B B B B B B B B B B B B B B B B B B B B B B B B B B B B B B B B B B B B B B B B B B B B B B B B B B B B B B B B B B B B B B B B B B B B B B B B B B V.m.m.m.m.m.m.m.m.m.m.m.m.m.m.m.m.m.n.B B B B B B B B B B B B B B B =.E.E.E.E.E.E.E.E.E.E.U.U.U.U.U.I.R.E.E.E.E.E.E.E.E.E.E.E.E.E.E.E.E.E.E.E.E.E.E.E.E.E.E.E.E.E.E.E.E.E.E.E.E.E.E.E.R.<.c B B B B B B B B B B B B B B B B B B B B B B B B B B B B B B B B B B B B B B B B B B B B B B B B B B B B B B B B B B B B B B B B B B B B B B B B B                                                                                                                                                   ",
"                                                                                                                                                                                                F F F F F F F F F F F F F F F F F F F F F F F F F F F F F F F F F F F F F F F F F F F F F F F F F [ c.c. X` B B B B B B B B B * m.m.m.m.m.m.m.m.m.m.m.m.m.m.m.m.m.m.c B B B B B B B B B B B B B B B B B B B B B B B B B B B B B B B B B B B B B B B B B B B B B B B B B B B B B B B B B B B B B B B B B B B B B B B B B B B B B B B B B . m.m.m.m.m.m.m.m.m.m.m.m.m.m.m.m.m.m.c B B B B B B B B B B B B B B R I.E.E.E.E.E.E.E.E.E.-.B B B B B B B v v m =.-.>.1.~.J.I.E.E.E.E.E.E.E.E.E.E.E.E.E.E.E.E.E.E.E.E.E.E.E.E.E.E.E.E.E.E.L.=.B B B B B B B B B B B B B B B B B B B B B B B B B B B B B B B B B B B B B B B B B B B B B B B B B B B B B B B B B B B B B B B B B B B B B B B B                                                                                                                                                   ",
"                                                                                                                                                                                                F F F F F F F F F F F F F F F F F F F F F F F F F F F F F F F F F F F F F F F F F F F F F F F F F [ c.c. X` B B B B B B B B B % m.m.m.m.m.m.m.m.m.m.m.m.m.m.m.m.m.n.B B B B B B B B B B B B B B B B B B B B B B B B B B B B B B B B B B B B B B B B B B B B B B B B B B B B B B B B B B B B B B B B B B B B B B B B B B B B B B B B B B = m.m.m.m.m.m.m.m.m.m.m.m.m.m.m.m.m.m.x B B B B B B B B B B B B B B B ~.E.E.E.E.E.E.E.E.E.^.B B B B B B B B B B B B B B B B B v N ..2.F.P.E.E.E.E.E.E.E.E.E.E.E.E.E.E.E.E.E.E.E.E.E.E.E.E.E.W.<.B B B B B B B B B B B B B B B B B B B B B B B B B B B B B B B B B B B B B B B B B B B B B B B B B B B B B B B B B B B B B B B B B B B B B B B                                                                                                                                                   ",
"                                                                                                                                                                                                F F F F F F F F F F F F F F F F F F F F F F F F F F F F F F F F F F F F F F F F F F F F F F F F F [ c.c. X` B B B B B B B B B o m.m.m.m.m.m.m.m.m.m.m.m.m.m.m.m.m.V.B B B B B B B B B B B B B B B B B B B B B B B B B B B B B B B B B B B B B B B B B B B B B B B B B B B B B B B B B B B B B B B B B B B B B B B B B B B B B B B B B B * m.m.m.m.m.m.m.m.m.m.m.m.m.m.m.m.m.m.h B B B B B B B B B B B B B B B -.E.E.E.E.E.E.E.E.E.I.B B B B B B B B B B B B B B B B B B B B B B B m >.~.I.E.E.E.E.E.E.E.E.E.E.E.E.E.E.E.E.E.E.E.E.E.E.E./.v B B B B B B B B B B B B B B B B B B B B B B B B B B B B B B B B B B B B B B B B B B B B B B B B B B B B B B B B B B B B B B B B B B B B B                                                                                                                                                   ",
"                                                                                                                                                                                                F F F F F F F F F F F F F F F F F F F F F F F F F F F F F F F F F F F F F F F F F F F F F F F F F [ c.c. X` B B B B B B B B B o m.m.m.m.m.m.m.m.m.m.m.m.m.m.m.m.m.V.B B B B B B B B B B B B B B B B B B B B B B B B B B B B B B B B B B B B B B B B B B B B B B B B B B B B B B B B B B B B B B B B B B B B B B B B B B B B B B B B B B ; m.m.m.m.m.m.m.m.m.m.m.m.m.m.m.m.m.m.9 B B B B B B B B B B B B B B B v E.E.E.E.E.E.E.E.E.E.N B B B B B B B B B B B B B B B B B B B B B B B B B B N <.J.E.E.E.E.E.E.E.E.E.E.E.E.E.E.E.E.E.E.E.E.E.I.=.B B B B B B B B B B B B B B B B B B B B B B B B B B B B B B B B B B B B B B B B B B B B B B B B B B B B B B B B B B B B B B B B B B B B                                                                                                                                                   ",
"                                                                                                                                                                                                F F F F F F F F F F F F F F F F F F F F F F F F F F F F F F F F F F F F F F F F F F F F F F F F F [ c.c. X` B B B B B B B B B . m.m.m.m.m.m.m.m.m.m.m.m.m.m.m.m.m.A.B B B B B B B B B B B B B B B B B B B B B B B B B B B B B B B B B B B B B B B B B B B B B B B B B B B B B B B B B B B B B B B B B B B B B B B B B B B B B B B B B B + m.m.m.m.m.m.m.m.m.m.m.m.m.m.m.m.m.m.> B B B B B B B B B B B B B B B B J.E.E.E.E.E.E.E.E.E.<.B B B B B B B B B B B B B B B B B B B B B B B B B B B B B v >.L.E.E.E.E.E.E.E.E.E.E.E.E.E.E.E.E.E.E.E.R.-.B B B B B B B B B B B B B B B B B B B B B B B B B B B B B B B B B B B B B B B B B B B B B B B B B B B B B B B B B B B B B B B B B B B                                                                                                                                                   ",
"                                                                                                                                                                                                F F F F F F F F F F F F F F F F F F F F F F F F F F F F F F F F F F F F F F F F F F F F F F F F F [ c.c. X` B B B B B B B B B X m.m.m.m.m.m.m.m.m.m.m.m.m.m.m.m.m.. B B B B B B B B B B B B B B B B B B B B B B B B B B B B B B B B B B B B B B B B B B B B B B B B B B B B B B B B B B B B B B B B B B B B B B B B B B B B B B B B B B + m.m.m.m.m.m.m.m.m.m.m.m.m.m.m.m.m.m.> B B B B B B B B B B B B B B B B 1.E.E.E.E.E.E.E.E.E.F.B B B B B B B B B B B B B B B B B B B B B B B B B B B B B B B B =.~.W.E.E.E.E.E.E.E.E.E.E.E.E.E.E.E.E.E.E.>.B B B B B B B B B B B B B B B B B B B B B B B B B B B B B B B B B B B B B B B B B B B B B B B B B B B B B B B B B B B B B B B B B B                                                                                                                                                   ",
"                                                                                                                                                                                                F F F F F F F F F F F F F F F F F F F F F F F F F F F F F F F F F F F F F F F F F F F F F F F F F [ c.c. X` B B B B B B B B B A.m.m.m.m.m.m.m.m.m.m.m.m.m.m.m.m.m.o B B B B B B B B B B B B B B B B B B B B B B B B B B B B B B B B B B B B B B B B B B B B B B B B B B B B B B B B B B B B B B B B B B B B B B B B B B B B B B B B B B @ m.m.m.m.m.m.m.m.m.m.m.m.m.m.m.m.m.m.> B B B B B B B B B B B B B B B B =.E.E.E.E.E.E.E.E.E.E.v B B B B B B B B B B B B B B B B B B B B B B B B B B B B B B B B B v 1.P.E.E.E.E.E.E.E.E.E.E.E.E.E.E.E.E.E.1.B B B B B B B B B B B B B B B B B B B B B B B B B B B B B B B B B B B B B B B B B B B B B B B B B B B B B B B B B B B B B B B B B                                                                                                                                                   ",
"                                                                                                                                                                                                F F F F F F F F F F F F F F F F F F F F F F F F F F F F F F F F F F F F F F F F F F F F F F F F F [ c.c. X` B B B B B B B B B C.m.m.m.m.m.m.m.m.m.m.m.m.m.m.m.m.m.o B B B B B B B B B B B B B B B B B B B B B B B B B B B B B B B B B B B B B B B B B B B B B B B B B B B B B B B B B B B B B B B B B B B B B B B B B B B B B B B B B B $ m.m.m.m.m.m.m.m.m.m.m.m.m.m.m.m.m.m.p B B B B B B B B B B B B B B B B R P.E.E.E.E.E.E.E.E.E.-.B B B B B B B B B B B B B B B B B B B B B B B B B B B B B B B B B B B v <.R.E.E.E.E.E.E.E.E.E.E.E.E.E.E.E.E.1.B B B B B B B B B B B B B B B B B B B B B B B B B B B B B B B B B B B B B B B B B B B B B B B B B B B B B B B B B B B B B B B B                                                                                                                                                   ",
"                                                                                                                                                                                                A A A A A A A A A A A A A A A A A A A A A A A A A A A A A A A A A A A A A A A A A A A A A A A A A [ c.c. X` B B B B B B B B B A.m.m.m.m.m.m.m.m.m.m.m.m.m.m.m.m.m.o B B B B B B B B B B B B B B B B B B B B B B B B B B B B B B B B B B B B B B B B B B B B B B B B B B B B B B B B B B B B B B B B B B B B B B B B B B B B B B B B B B @ m.m.m.m.m.m.m.m.m.m.m.m.m.m.m.m.m.m.> B B B B B B B B B B B B B B B B B /.E.E.E.E.E.E.E.E.E.^.B B B B B B B B B B B B B B B B B B B B B B B B B B B B B B B B B B B B B v ^.E.E.E.E.E.E.E.E.E.E.E.E.E.E.E.E.1.B B B B B B B B B B B B B B B B B B B B B B B B B B B B B B B B B B B B B B B B B B B B B B B B B B B B B B B B B B B B B B B                                                                                                                                                   ",
"                                                                                                                                                                                                A A A A A A A A A A A A A A A A A A A A A A A A A A A A A A A A A A A A A A A A A A A A A A A A A [ l.l. X` B B B B B B B B B A.m.m.m.m.m.m.m.m.m.m.m.m.m.m.m.m.m.. B B B B B B B B B B B B B B B B B B B B B B B B B B B B B B B B B B B B B B B B B B B B B B B B B B B B B B B B B B B B B B B B B B B B B B B B B B B B B B B B B B + m.m.m.m.m.m.m.m.m.m.m.m.m.m.m.m.m.m.> B B B B B B B B B B B B B B B B B >.E.E.E.E.E.E.E.E.E.U.B B B B B B B B B B B B B B B B B B B B B B B B B B B B B B B B B B B B B B B N J.E.E.E.E.E.E.E.E.E.E.E.E.E.E.E.>.B B B B B B B B B B B B B B B B B B B B B B B B B B B B B B B B B B B B B B B B B B B B B B B B B B B B B B B B B B B B B B                                                                                                                                                   ",
"                                                                                                                                                                                                A A A A A A A A A A A A A A A A A A A A A A A A A A A A A A A A A A A A A A A A A A A A A A A A A [ l.l. X` B B B B B B B B B . m.m.m.m.m.m.m.m.m.m.m.m.m.m.m.m.m.A.B B B B B B B B B B B B B B B B B B B B B B B B B B B B B B B B B B B B B B B B B B B B B B B B B B B B B B B B B B B B B B B B B B B B B B B B B B B B B B B B B B + m.m.m.m.m.m.m.m.m.m.m.m.m.m.m.m.m.m.> B B B B B B B B B B B B B B B B B m E.E.E.E.E.E.E.E.E.E.m B B B B B B B B B B B B B B B B B B B B B B B B B B B B B B B B B B B B B B B c <.E.E.E.E.E.E.E.E.E.E.E.E.E.E.E.-.B B B B B B B B B B B B B B B B B B B B B B B B B B B B B B B B B B B B B B B B B B B B B B B B B B B B B B B B B B B B B                                                                                                                                                   ",
"                                                                                                                                                                                                A A A A A A A A A A A A A A A A A A A A A A A A A A A A A A A A A A A A A A A A A A A A A A A A A [ l.l. X` B B B B B B B B B . m.m.m.m.m.m.m.m.m.m.m.m.m.m.m.m.m.C.B B B B B B B B B B B B B B B B B B B B B B B B B B B B B B B B B B B B B B B B B B B B B B B B B B B B B B B B B B B B B B B B B B B B B B B B B B B B B B B B B B ; m.m.m.m.m.m.m.m.m.m.m.m.m.m.m.m.m.m.> B B B B B B B B B B B B B B B B B B L.E.E.E.E.E.E.E.E.E.>.B B B B B B B B B B B B B B B B B B B B B B B B B B B B B B B B B B B B B B B B B =.U.E.E.E.E.E.E.E.E.E.E.E.E.E.R.=.B B B B B B B B B B B B B B B B B B B B B B B B B B B B B B B B B B B B B B B B B B B B B B B B B B B B B B B B B B B B                                                                                                                                                   ",
"                                                                                                                                                                                                A A A A A A A A A A A A A A A A A A A A A A A A A A A A A A A A A A A A A A A A A A A A A A A A A [ l.l. X` B B B B B B B B B o m.m.m.m.m.m.m.m.m.m.m.m.m.m.m.m.m.V.B B B B B B B B B B B B B B B B B B B B B B B B B B B B B B B B B B B B B B B B B B B B B B B B B B B B B B B B B B B B B B B B B B B B B B B B B B B B B B B B B B * m.m.m.m.m.m.m.m.m.m.m.m.m.m.m.m.m.m.b B B B B B B B B B B B B B B B B B B 1.E.E.E.E.E.E.E.E.E.F.B B B B B B B B B B B B B B B B B B B B B B B B B B B B B B B B B B B B B B B B B B v /.E.E.E.E.E.E.E.E.E.E.E.E.E.I.v B B B B B B B B B B B B B B B B B B B B B B B B B B B B B B B B B B B B B B B B B B B B B B B B B B B B B B B B B B B                                                                                                                                                   ",
"                                                                                                                                                                                                A A A A A A A A A A A A A A A A A A A A A A A A A A A A A A A A A A A A A A A A A A A A A A A A A [ c.l.oX` B B B B B B B B B % m.m.m.m.m.m.m.m.m.m.m.m.m.m.m.m.m.B.B B B B B B B B B B B B B B B B B B B B B B B B B B B B B B B B B B B B B B B B B B B B B B B B B B B B B B B B B B B B B B B B B B B B B B B B B B B B B B B B B B % m.m.m.m.m.m.m.m.m.m.m.m.m.m.m.m.m.m.x B B B B B B B B B B B B B B B B B B =.E.E.E.E.E.E.E.E.E.W.v B B B B B B B B B B B B B B B B B B B B B B B B B B B B B B B B B B B B B B B B B B R 2.E.E.E.E.E.E.E.E.E.E.E.E.E.F.R B B B B B B B B B B B B B B B B B B B B B B B B B B B B B B B B B B B B B B B B B B B B B B B B B B B B B B B B B B                                                                                                                                                   ",
"                                                                                                                                                                                                A A A A A A A A A A A A A A A A A A A A A A A A A A A A A A A A A A A A A A A A A A A A A A A A A [ c.c.oX` B B B B B B B B B * m.m.m.m.m.m.m.m.m.m.m.m.m.m.m.m.m.m.c B B B B B B B B B B B B B B B B B B B B B B B B B B B B B B B B B B B B B B B B B B B B B B B B B B B B B B B B B B B B B B B B B B B B B B B B B B B B B B B B B o m.m.m.m.m.m.m.m.m.m.m.m.m.m.m.m.m.m.c B B B B B B B B B B B B B B B B B B c R.E.E.E.E.E.E.E.E.E.=.B B B B B B B B B B B B B B B B B B B B B B B B B B B B B B B B B B B B B B B B B B B B >.E.E.E.E.E.E.E.E.E.E.E.E.E.1.B B B B B B B B B B B B B B B B B B B B B B B B B B B B B B B B B B B B B B B B B B B B B B B B B B B B B B B B B B                                                                                                                                                   ",
"                                                                                                                                                                                                A A A A A A A A A A A A A A A A A A A A A A A A A A A A A A A A A A A A A A A A A A A A A A A A A [ c.c. X` B B B B B B B B B + m.m.m.m.m.m.m.m.m.m.m.m.m.m.m.m.m.m.x B B B B B B B B B B B B B B B B B B B B B B B B B B B B B B B B B B B B B B B B B B B B B B B B B B B B B B B B B B B B B B B B B B B B B B B B B B B B B B B B B C.m.m.m.m.m.m.m.m.m.m.m.m.m.m.m.m.m.b.B B B B B B B B B B B B B B B B B B B B /.E.E.E.E.E.E.E.E.E.2.B B B B B B B B B B B B B B B B B B B B B B B B B B B B B B B B B B B B B B B B B B B B B >.E.E.E.E.E.E.E.E.E.E.E.E.E.=.B B B B B B B B B B B B B B B B B B B B B B B B B B B B B B B B B B B B B B B B B B B B B B B B B B B B B B B B B                                                                                                                                                   ",
"                                                                                                                                                                                                A A A A A A A A A A A A A A A A A A A A A A A A A A A A A A A A A A A A A A A A A A A A A A A A A [ c.c. X` B B B B B B B B B @ m.m.m.m.m.m.m.m.m.m.m.m.m.m.m.m.m.m.> B B B B B B B B B B B B B B B B B B B B B B B B B B B B B B B B B B B B B B B B B B B B B B B B B B B B B B B B B B B B B B B B B B B B B B B B B B B B B B B B B n.m.m.m.m.m.m.m.m.m.m.m.m.m.m.m.m.m.V.B B B B B B B B B B B B B B B B B B B B >.E.E.E.E.E.E.E.E.E.K.B B B B B B B B B B B B B B B B B B B B B B B B B B B B B B B B B B B B B B B B B B B B B B ..E.E.E.E.E.E.E.E.E.E.E.E.U.c B B B B B B B B B B B B B B B B B B B B B B B B B B B B B B B B B B B B B B B B B B B B B B B B B B B B B B B B                                                                                                                                                   ",
"                                                                                                                                                                                                A A A A A A A A A A A A A A A A A A A A A A A A A A A A A A A A A A A A A A A A A A A A A A A A A [ l.l. X` B B B B B B B B B u m.m.m.m.m.m.m.m.m.m.m.m.m.m.m.m.m.m.u B B B B B B B B B B B B B B B B B B B B B B B B B B B B B B B B B B B B B B B B B B B B B B B B B B B B B B B B B B B B B B B B B B B B B B B B B B B B B B B B c m.m.m.m.m.m.m.m.m.m.m.m.m.m.m.m.m.m.. B B B B B B B B B B B B B B B B B B B B m E.E.E.E.E.E.E.E.E.E.m B B B B B B B B B B B B B B B B B B B B B B B B B B B B B B B B B B B B B B B B B B B B B B >.E.E.E.E.E.E.E.E.E.E.E.E.^.B B B B B B B B B B B B B B B B B B B B B B B B B B B B B B B B B B B B B B B B B B B B B B B B B B B B B B B B                                                                                                                                                   ",
"                                                                                                                                                                                                A A A A A A A A A A A A A A A A A A A A A A A A A A A A A A A A A A A A A A A A A A A A A A A A A [ l.l. X` B B B B B B B B B > m.m.m.m.m.m.m.m.m.m.m.m.m.m.m.m.m.m.$ B B B B B B B B B B B B B B B B B B B B B B B B B B B B B B B B B B B B B B B B B B B B B B B B B B B B B B B B B B B B B B B B B B B B B B B B B B B B B B B B h m.m.m.m.m.m.m.m.m.m.m.m.m.m.m.m.m.m.= B B B B B B B B B B B B B B B B B B B B B U.E.E.E.E.E.E.E.E.E.>.B B B B B B B B B B B B B B B B B B B B B B B B B B B B B B B B B B B B B B B B B B B B B B B 2.E.E.E.E.E.E.E.E.E.E.E.E.=.B B B B B B B B B B B B B B B B B B B B B B B B B B B B B B B B B B B B B B B B B B B B B B B B B B B B B B B                                                                                                                                                   ",
"                                                                                                                                                                                                A A A A A A A A A A A A A A A A A A A A A A A A A A A A A A A A A A A A A A A A A A A A A A A A A [ l.l.oX` B B B B B B B B B h m.m.m.m.m.m.m.m.m.m.m.m.m.m.m.m.m.m.* B B B B B B B B B B B B B B B B B B B B B B B B B B B B B B B B B B B B B B B B B B B B B B B B B B B B B B B B B B B B B B B B B B B B B B B B B B B B B B B B p m.m.m.m.m.m.m.m.m.m.m.m.m.m.m.m.m.m.; B B B B B B B B B B B B B B B B B B B B B 2.E.E.E.E.E.E.E.E.E./.B B B B B B B B B B B B B B B B B B B B B B B B B B B B B B B B B B B B B B B B B B B B B B B R /.E.E.E.E.E.E.E.E.E.E.E.K.c B B B B B B B B B B B B B B B B B B B B B B B B B B B B B B B B B B B B B B B B B B B B B B B B B B B B B B                                                                                                                                                   ",
"                                                                                                                                                                                                A A A A A A A A A A A A A A A A A A A A A A A A A A A A A A A A A A A A A A A A A A A A A A A A A [ l.l. X` B B B B B B B B B g b.m.m.m.m.m.m.m.m.m.m.m.m.m.m.m.m.m.. B B B B B B B B B B B B B B B B B B B B B B B B B B B B B B B B B B B B B B B B B B B B B B B B B B B B B B B B B B B B B B B B B B B B B B B B B B B B B B B B + m.m.m.m.m.m.m.m.m.m.m.m.m.m.m.m.m.m.$ B B B B B B B B B B B B B B B B B B B B B =.E.E.E.E.E.E.E.E.E.R.c B B B B B B B B B B B B B B B B B B B B B B B B B B B B B B B B B B B B B B B B B B B B B B B c K.E.E.E.E.E.E.E.E.E.E.E.>.B B B B B B B B B B B B B B B B B B B B B B B B B B B B B B B B B B B B B B B B B B B B B B B B B B B B B B                                                                                                                                                   ",
"                                                                                                                                                                                                A A A A A A A A A A A A A A A A A A A A A A A A A A A A A A A A A A A A A A A A A A A A A A A A A [ l.l. X` B B B B B B B B B B V.m.m.m.m.m.m.m.m.m.m.m.m.m.m.m.m.m.n.B B B B B B B B B B B B B B B B B B B B B B B B B B B B B B B B B B B B B B B B B B B B B B B B B B B B B B B B B B B B B B B B B B B B B B B B B B B B B B B B = m.m.m.m.m.m.m.m.m.m.m.m.m.m.m.m.m.m.> B B B B B B B B B B B B B B B B B B B B B c R.E.E.E.E.E.E.E.E.E.=.B B B B B B B B B B B B B B B B B B B B B B B B B B B B B B B B B B B B B B B B B B B B B B B B M R.E.E.E.E.E.E.E.E.E.E.R.v B B B B B B B B B B B B B B B B B B B B B B B B B B B B B B B B B B B B B B B B B B B B B B B B B B B B B                                                                                                                                                   ",
"                                                                                                                                                                                                A A A A A A A A A A A A A A A A A A A A A A A A A A A A A A A A A A A A A A A A A A A A A A A A A [ l.l.oX` B B B B B B B B B B o m.m.m.m.m.m.m.m.m.m.m.m.m.m.m.m.m.m.h B B B B B B B B B B B B B B B B B B B B B B B B B B B B B B B B B B B B B B B B B B B B B B B B B B B B B B B B B B B B B B B B B B B B B B B B B B B B B B B V.m.m.m.m.m.m.m.m.m.m.m.m.m.m.m.m.m.m.h B B B B B B B B B B B B B B B B B B B B B B F.E.E.E.E.E.E.E.E.E.1.B B B B B B B B B B B B B B B B B B B B B B B B B B B B B B B B B B B B B B B B B B B B B B B B B >.E.E.E.E.E.E.E.E.E.E.E.^.B B B B B B B B B B B B B B B B B B B B B B B B B B B B B B B B B B B B B B B B B B B B B B B B B B B B B                                                                                                                                                   ",
"                                                                                                                                                                                                A A A A A A A A A A A A A A A A A A A A A A A A A A A A A A A A A A A A A A A A A A A A A A A A A [ XXXXoX` B B B B B B B B B B # m.m.m.m.m.m.m.m.m.m.m.m.m.m.m.m.m.m.p B B B B B B B B B B B B B B B B B B B B B B B B B B B B B B B B B B B B B B B B B B B B B B B B B B B B B B B B B B B B B B B B B B B B B B B B B B B B B B c M.m.m.m.m.m.m.m.m.m.m.m.m.m.m.m.m.m.n.T B B B B B B B B B B B B B B B B B B B B B B >.E.E.E.E.E.E.E.E.E.L.B B B B B B B B B B B B B B B B B B B B B B B B B B B B B B B B B B B B B B B B B B B B B B B B B B /.E.E.E.E.E.E.E.E.E.E.W.m B B B B B B B B B B B B B B B B B B B B B B B B B B B B B B B B B B B B B B B B B B B B B B B B B B B B                                                                                                                                                   ",
"                                                                                                                                                                                                A A A A A A A A A A A A A A A A A A A A A A A A A A A A A A A A A A A A A A A A A A A A A A A A A [ XXXXoX` B B B B B B B B B B u m.m.m.m.m.m.m.m.m.m.m.m.m.m.m.m.m.m.; B B B B B B B B B B B B B B B B B B B B B B B B B B B B B B B B B B B B B B B B B B B B B B B B B B B B B B B B B B B B B B B B B B B B B B B B B B B B B B > m.m.m.m.m.m.m.m.m.m.m.m.m.m.m.m.m.m.o B B B B B B B B B B B B B B B B B B B B B B B m E.E.E.E.E.E.E.E.E.E.m B B B B B B B B B B B B B B B B B B B B B B B B B B B B B B B B B B B B B B B B B B B B B B B B B m P.E.E.E.E.E.E.E.E.E.E.^.B B B B B B B B B B B B B B B B B B B B B B B B B B B B B B B B B B B B B B B B B B B B B B B B B B B B                                                                                                                                                   ",
"                                                                                                                                                                                                A A A A A A A A A A A A A A A A A A A A A A A A A A A A A A A A A A A A A A A A A A A A A A A A A U XXXX X` B B B B B B B B B B h m.m.m.m.m.m.m.m.m.m.m.m.m.m.m.m.m.m.C.B B B B B B B B B B B B B B B B B B B B B B B B B B B B B B B B B B B B B B B B B B B B B B B B B B B B B B B B B B B B B B B B B B B B B B B B B B B B B B # m.m.m.m.m.m.m.m.m.m.m.m.m.m.m.m.m.m.; B B B B B B B B B B B B B B B B B B B B B B B B U.E.E.E.E.E.E.E.E.E.>.B B B B B B B B B B B B B B B B B B B B B B B B B B B B B B B B B B B B B B B B B B B B B B B B B B >.E.E.E.E.E.E.E.E.E.E.E.m B B B B B B B B B B B B B B B B B B B B B B B B B B B B B B B B B B B B B B B B B B B B B B B B B B B                                                                                                                                                   ",
"                                                                                                                                                                                                A A A A A A A A A A A A A A A A A A A A A A A A A A A A A A A A A A A A A A A A A A A A A A A A A U XXXXoX` B B B B B B B B B B c n.m.m.m.m.m.m.m.m.m.m.m.m.m.m.m.m.m.m.x B B B B B B B B B B B B B B B B B B B B B B B B B B B B B B B B B B B B B B B B B B B B B B B B B B B B B B B B B B B B B B B B B B B B B B B B B B B B B X m.m.m.m.m.m.m.m.m.m.m.m.m.m.m.m.m.m.u B B B B B B B B B B B B B B B B B B B B B B B B ^.E.E.E.E.E.E.E.E.E./.B B B B B B B B B B B B B B B B B B B B B B B B B B B B B B B B B B B B B B B B B B B B B B B B B B c J.E.E.E.E.E.E.E.E.E.E.^.B B B B B B B B B B B B B B B B B B B B B B B B B B B B B B B B B B B B B B B B B B B B B B B B B B B                                                                                                                                                   ",
"                                                                                                                                                                                                A A A A A A A A A A A A A A A A A A A A A A A A A A A A A A A A A A A A A A A A A A A A A A A A A [ c.XXoX` B B B B B B B B B B B o m.m.m.m.m.m.m.m.m.m.m.m.m.m.m.m.m.m.u B B B B B B B B B B B B B B B B B B B B B B B B B B B B B B B B B B B B B B B B B B B B B B B B B B B B B B B B B B B B B B B B B B B B B B B B B B B B x M.m.m.m.m.m.m.m.m.m.m.m.m.m.m.m.m.m.m.x B B B B B B B B B B B B B B B B B B B B B B B B -.E.E.E.E.E.E.E.E.E.R.c B B B B B B B B B B B B B B B B B B B B B B B B B B B B B B B B B B B B B B B B B B B B B B B B B B =.E.E.E.E.E.E.E.E.E.E.W.m B B B B B B B B B B B B B B B B B B B B B B B B B B B B B B B B B B B B B B B B B B B B B B B B B B                                                                                                                                                   ",
"                                                                                                                                                                                                A A A A A A A A A A A A A A A A A A A A A A A A A A A A A A A A A A A A A A A A A A A A A A A A A U XXXXoX` B B B B B B B B B B B + m.m.m.m.m.m.m.m.m.m.m.m.m.m.m.m.m.m.* B B B B B B B B B B B B B B B B B B B B B B B B B B B B B B B B B B B B B B B B B B B B B B B B B B B B B B B B B B B B B B B B B B B B B B B B B B B B u m.m.m.m.m.m.m.m.m.m.m.m.m.m.m.m.m.m.V.B B B B B B B B B B B B B B B B B B B B B B B B R v W.E.E.E.E.E.E.E.E.E.o.B B B B B B B B B B B B B B B B B B B B B B B B B B B B B B B B B B B B B B B B B B B B B B B B B B B /.E.E.E.E.E.E.E.E.E.E.<.B B B R B B B B B B B B B B B B B B B B B B B B B B B B B B B B B B B B B B B B B B B B B B B B B B                                                                                                                                                   ",
"                                                                                                                                                                                                A A A A A A A A A A A A A A A A A A A A A A A A A A A A A A A A A A A A A A A A A A A A A A A A A U XXXX X` B B B B B B B B B B B > m.m.m.m.m.m.m.m.m.m.m.m.m.m.m.m.m.m.n.c B B B B B B B B B B B B B B B B B B B B B B B B B B B B B B B B B B B B B B B B B B B B B B B B B B B B B B B B B B B B B B B B B B B B B B B B B B B = m.m.m.m.m.m.m.m.m.m.m.m.m.m.m.m.m.m.* B B B B B B B B B B B B B B B B B B B B B B B B B B F.E.E.E.E.E.E.E.E.E.<.B B B B B B B B B B B B B B B B B B B B B B B B B B B B B B B B B B B B B B B B B B B B B B B c B B B m E.E.E.E.E.E.E.E.E.E.P.c B B B B B B B B B B B B B B B B B B B B B B B B B B B B B B B B B B B B B B B B B B B B B B B B B                                                                                                                                                   ",
"                                                                                                                                                                                                A A A A A A A A A A A A A A A A A A A A A A A A A A A A A A A A A A A A A A A A A A A A A A A A A U XXXX X` B B B B B B B B B B B c n.m.m.m.m.m.m.m.m.m.m.m.m.m.m.m.m.m.m.u B B B B B B B B B B B B B B B B B B B B B B B B B B B B B B B B B B B B B B B B B B B B B B B B B B B B B B B B B B B B B B B B B B B B B B B B B B x b.m.m.m.m.m.m.m.m.m.m.m.m.m.m.m.m.m.m.p B B B B B B B B B B B B B B B B B B B B B B B B B T >.E.E.E.E.E.E.E.E.E.J.B B B B B B B B B B B B B B B B B B B B B B B B B B B B B B B B B B B B B B B B B B B B B B B c T B B B ~.E.E.E.E.E.E.E.E.E.E.>.B B B B B B B B B B B B B B B B B B B B B B B B B B B B B B B B B B B B B B B B B B B B B B B B B                                                                                                                                                   ",
"                                                                                                                                                                                                A A A A A A A A A A A A A A A A A A A A A A A A A A A A A A A A A A A A A A A A A A A A A A A A A U XXXX X` B B B B B B B B B B B B = m.m.m.m.m.m.m.m.m.m.m.m.m.m.m.m.m.m.= B B B B B B B B B B B B B B B B B B B B B B B B B B B B B B B B B B B B B B B B B B B B B B B B B B B B B B B B B B B B B B B B B B B B B B B B B B $ m.m.m.m.m.m.m.m.m.m.m.m.m.m.m.m.m.m.b.l B B B B B B B B B B B B B B B B B B B B B B B B B T o.E.E.E.E.E.E.E.E.E.E.v B B B B B B B B B B B B B B B B B B B B B B B B B B B B B B B B B B B B B B B B B B B B B B B B B B B m E.E.E.E.E.E.E.E.E.E.J.B B B B B B B B B B B B B B B B B B B B B B B B B B B B B B B B B B B B B B B B B B B B B B B B B                                                                                                                                                   ",
"                                                                                                                                                                                                A A A A A A A A A A A A A A A A A A A A A A A A A A A A A A A A A A A A A A A A A A A A A A A A A U XXXX X` B B B B B B B B B B B B y m.m.m.m.m.m.m.m.m.m.m.m.m.m.m.m.m.m.b.x B B B B B B B B B B B B B B B B B B B B B B B B B B B B B B B B B B B B B B B B B B B B B B B B B B B B B B B B B B B B B B B B B B B B B B B B B . m.m.m.m.m.m.m.m.m.m.m.m.m.m.m.m.m.m.o B B B B B B B B B B B B B B B B B B B B B B B B B B B c I.E.E.E.E.E.E.E.E.E.-.B B B B B B B B B B B B B B B B B B B B B B B B B B B B B B B B B B B B B B B B B B B B B B B B B B B B /.E.E.E.E.E.E.E.E.E.E.M B B B B B B B B B B B B B B B B B B B B B B B B B B B B B B B B B B B B B B B B B B B B B B B B                                                                                                                                                   ",
"                                                                                                                                                                                                A A A A A A A A A A A A A A A A A A A A A A A A A A A A A A A A A A A A A A A A A A A A A A A A A U l.l. X` B B B B B B B B B B B B x b.m.m.m.m.m.m.m.m.m.m.m.m.m.m.m.m.m.m.@ B B B B B B B B B B B B B B B B B B B B B B B B B B B B B B B B B B B B B B B B B B B B B B B B B B B B B B B B B B B B B B B B B B B B B B B B 9 m.m.m.m.m.m.m.m.m.m.m.m.m.m.m.m.m.m.m.y B B B B B B B B B B B B B B B B B B B B B B B B B B B T ^.E.E.E.E.E.E.E.E.E.~.B B B B B B B B B B B B B B B B B B B B B B B B B B B B B B B B B B B B B B B B B B B B B B B B B B B B o.E.E.E.E.E.E.E.E.E.E.2.B B B B B B B B B B B B B B B B B B B B B B B B B B B B B B B B B B B B B B B B B B B B B B B B                                                                                                                                                   ",
"                                                                                                                                                                                                A A A A A A A A A A A A A A A A A A A A A A A A A A A A A A A A A A A A A A A A A A A A A A A A A U XXl. X` B B B B B B B B B B B B B o m.m.m.m.m.m.m.m.m.m.m.m.m.m.m.m.m.m.B.l B B B B B B B B B B B B B B B B B B B B B B B B B B B B B B B B B B B B B B B B B B B B B B B B B B B B B B B B B B B B B B B B B B B g B B g % m.m.m.m.m.m.m.m.m.m.m.m.m.m.m.m.m.m.n.l B B B B B B B B B B B B B B B B B B B B B B B B B B B B -.E.E.E.E.E.E.E.E.E.I.c B B B B B B B B B B B B B B B B B B B B B B B B B B B B B B B B B B B B B B B B B B B B B B B B B B B B J.E.E.E.E.E.E.E.E.E.P.c B B B B B B B B B B B B B B B B B B B B B B B B B B B B B B B B B B B B B B B B B B B B B B g                                                                                                                                                   ",
"                                                                                                                                                                                                A A A A A A A A A A A A A A A A A A A A A A A A A A A A A A A A A A A A A A A A A A A A A A A A A U XXXX X` B B B B B B B B B B B B B u m.m.m.m.m.m.m.m.m.m.m.m.m.m.m.m.m.m.m.y B B B B B B B B B B B B B B B B B B B B B B B B B B B B B B B B B B B B B B B B B B B B B B B B B B B B B B B B B B B B B B B B B B B g B B h M.m.m.m.m.m.m.m.m.m.m.m.m.m.m.m.m.m.m.% B g g B B B B B B B B B B B B B B B B B B B B B B B B B B v E.E.E.E.E.E.E.E.E.E.o.B B B B B B B B B B B B B B B B B B B B B B B B B B B B B B B B B B B B B B B B B B B B B B B B B B B B ..E.E.E.E.E.E.E.E.E.E.-.B B B B B B B B B B B B B B B B B B B B B B B B B B B B B B B B B B B B B B B B B B B B B B g                                                                                                                                                   ",
"                                                                                                                                                                                                A A A A A A A A A A A A A A A A A A A A A A A A A A A A A A A A A A A A A A A A A A A A A A A A A U XXXX X` B B B B B B B B B B B B B l S.m.m.m.m.m.m.m.m.m.m.m.m.m.m.m.m.m.m.C.B B B B B B B B B B B B B B B B B B B B B B B B B B B B B B B B B B B B B B B B B B B B B B B B B B B B B B B B B B B B B B B B B B B g g g * m.m.m.m.m.m.m.m.m.m.m.m.m.m.m.m.m.m.m.> B B g g B B B B B B B B B B B B B B B B B B B B B B B B B B J.E.E.E.E.E.E.E.E.E.<.B B B B B B B B B B B B B B B B B B B B B B B B B B B B B B B B B B B B B B B B B B B B B B B B B B B B c P.E.E.E.E.E.E.E.E.E.~.T T B T B B B B B B B B B B B B B B B B B B B B B B B B B B B B B B B B B B B B B B B B B B g                                                                                                                                                   ",
"                                                                                                                                                                                                A A A A A A A A A A A A A A A A A A A A A A A A A A A A A A A A A A A A A A A A A A A A A A A A A U XXXXoX` B B B B B B B B B B B B B B + m.m.m.m.m.m.m.m.m.m.m.m.m.m.m.m.m.m.m.u g g B B B B B B B B B B B B B B B B B B B B B B B B B B B B B B B B B B B B B B B B B B B B B B B B B B B B B B B B B B B B B B B B B B h b.m.m.m.m.m.m.m.m.m.m.m.m.m.m.m.m.m.m.C.B B B B B B B B B B B B B B B B B B B B B B B B B B B B B B B <.E.E.E.E.E.E.E.E.E.H.B B B B B B B B B B B B B B B B B B B B B B B B B B B B B B B B B B B B B B B B B B B B B B B B B B B B B ^.E.E.E.E.E.E.E.E.E.R.c B B B B B B B B B B B B B B B B B B B B B B B B B B B B B B B B B B B B B B B B B B B B B g                                                                                                                                                   ",
"                                                                                                                                                                                                A A A A A A A A A A A A A A A A A A A A A A A A A A A A A A A A A A A A A A A A A A A A A A A A A U XXXXoX` B B B B B B B B B B B B B B x b.m.m.m.m.m.m.m.m.m.m.m.m.m.m.m.m.m.m.B.l B g B B B B B B B B B B B B B B B B B B B B B B B B B B B B B B B B B B B B B B B B B B B B B B B B B B B B B B B B B B B B B B B B B o m.m.m.m.m.m.m.m.m.m.m.m.m.m.m.m.m.m.m.y B B B B B B B B B B B B B B B B B B B B B B B B B B B B B B B o.E.E.E.E.E.E.E.E.E.E.v B B B B B B B B B B B B B B B B B B B B B B B B B B B B B B B B B B B B B B B B B B B B B B B B B B B B o.E.E.E.E.E.E.E.E.E.E.-.B B B B B B B B B B B B B B B B B B B B B B B B B B B B B B B B B B B B B B B B B B B B B B                                                                                                                                                   ",
"                                                                                                                                                                                                A A A A A A A A A A A A A A A A A A A A A A A A A A A A A A A A A A A A A A A A A A A A A A A A A U XXXXoX` B B B B B B B B B B B g g B B * m.m.m.m.m.m.m.m.m.m.m.m.m.m.m.m.m.m.m.+ B B B B B B B B B B B B B B B B B B B B B B B B B B B B B B B B B B B B B B B B B B B B B B B B B B B B B B B B B B B B B B B B B B p m.m.m.m.m.m.m.m.m.m.m.m.m.m.m.m.m.m.m.B.l B B B B B B B B B B B B B B B B B B B B B B B B B B B B B B B c I.E.E.E.E.E.E.E.E.E.-.B B B B B B B B B B B B B B B B B B B B B B B B B B B B B B B B B B B B B B B B B B B B B B B B B B B B B J.E.E.E.E.E.E.E.E.E.~.B B B B B B B B B B B B B B B B B B B B B B B B B B B B B B B B B B B B B B B B B B B B B B                                                                                                                                                   ",
"                                                                                                                                                                                                A A A A A A A A A A A A A A A A A A A A A A A A A A A A A A A A A A A A A A A A A A A A A A A A A U XXXX X` B B T T T T T T T T T T c T T 9 m.m.m.m.m.m.m.m.m.m.m.m.m.m.m.m.m.m.m.n.h T T T T T T T T T T T T T T T T T T T T T T T T T T T T T T T T T T T T T T T T T T T T T T T T T T T T T T T T T T T T T T T T l V.m.m.m.m.m.m.m.m.m.m.m.m.m.m.m.m.m.m.m.+ T T T T T T T T T T T T T T T T T T T T T T T T T T T T T T T T T ~.E.E.E.E.E.E.E.E.E.^.T T T T T T T T T T T T T T T T T T T T T T T T T T T T T T T T T T T T T T T T T T T T T T T T T T T T T <.E.E.E.E.E.E.E.E.E.P.c T T T T T T T T T T T T T T T T T T T T T T T T T T T T T T T T T T T T T T T T T T T T B                                                                                                                                                   ",
"                                                                                                                                                                                                A Z Z Z A A A Z Z Z Z Z Z Z Z Z A A A Z Z Z Z Z Z Z Z A A Z Z Z Z Z Z Z Z Z Z Z A A A A Z Z A A A U XXXX X! T T T T T T T T T T T T T T T T o m.m.m.m.m.m.m.m.m.m.m.m.m.m.m.m.m.m.m.o c c T T T T T T T T T T T T T T T T T T T T T T T T T T T T T T T T T T T T T T T T T T T T T T T T T T T T T T T T T T T T T T * m.m.m.m.m.m.m.m.m.m.m.m.m.m.m.m.m.m.m.M.x T c T T T T T T T T T T T T T T T T T T T T T T T T T T T T T T T ..E.E.E.E.E.E.E.E.E.I.c T T T T T T T T T T T T T T T T T T T T T T T T T T T T T T T T T T T T T T T T T T T T T T T T T T T T m E.E.E.E.E.E.E.E.E.E.=.T T T T T T T T T T T T T T T T T T T T T T T T T T T T T T T T T T T T T T T T T T T T B                                                                                                                                                   ",
"                                                                                                                                                                                                A Z Z Z A A A Z Z Z Z Z Z Z A A A A Z Z Z Z Z Z Z Z A A A A Z Z Z Z Z Z Z Z A A A A A A Z A A A A U XXXXoX! T T T T T T T T T T T T T T T T > m.m.m.m.m.m.m.m.m.m.m.m.m.m.m.m.m.m.m.m.@ c T T T T T T T T T T T T T T T T T T T T T T T T T T T T T T T T T T T T T T T T T T T T T T T T T T T T T T T T T T T T T u m.m.m.m.m.m.m.m.m.m.m.m.m.m.m.m.m.m.m.m.* T T c c T T T T T T T T T T T T T T T T T T T T T T T T T T T T T T v E.E.E.E.E.E.E.E.E.E.m T T T T T T T T T T T T T T T T T T T T T T T T T T T T T T T T T T T T T T T T T T T T T T T T T T T T T J.E.E.E.E.E.E.E.E.E.1.T T T T T T T T T T T T T T T T T T T T T T T T T T T T T T T T T T T T T T T T T T T T B                                                                                                                                                   ",
"                                                                                                                                                                                                A A A A A A A A Z Z A A A A A A A A A A Z Z A Z A A A A A A A A Z Z A A A A A A A A Z Z A A A A A U XXXXoX` T T T T T T T T T T T T T T T T T o m.m.m.m.m.m.m.m.m.m.m.m.m.m.m.m.m.m.m.M.> c T T T T T T T T T T T T T T T T T T T T T T T T T T T T T T T T T T T T T T T T T T T T T T T T T T T T T T T T B B T h n.m.m.m.m.m.m.m.m.m.m.m.m.m.m.m.m.m.m.m.b.h T T T T T T T T T T T T T T T T T T T T T T T T T T T T T T T T T T T J.E.E.E.E.E.E.E.E.E.-.T T T T T T T T T T T T T T T T T T T T T T T T T T T T T T T T T T T T T T T T T T T T T T T T T T T T T <.E.E.E.E.E.E.E.E.E.K.T T T T T T T T T T T T T T T T T T T T T T T T T T T T T T T T T T T T T T T T T T T T B                                                                                                                                                   ",
"                                                                                                                                                                                                A A A A A A A A A Z A A A A A A A A A A A A A A A A A A A A A A A Z A A A A A A A A Z Z Z A A A A U XXXXoX! T T T T T T T T T T T T T T T T T 9 m.m.m.m.m.m.m.m.m.m.m.m.m.m.m.m.m.m.m.m.V.x T T T T T T T T T T T T T T T T T T T T T T T T T T T T T T T T T T T T T T T T T T T T T T T T T T T T T T T T T B l C.m.m.m.m.m.m.m.m.m.m.m.m.m.m.m.m.m.m.m.m.; T T T T T T T T T T T T T T T T T T T T T T T T T T T T T T T T T T T T ,.E.E.E.E.E.E.E.E.E.o.T T T T T T T T T T T T T T T T T T T T T T T T T T T T T T T T T T T T T T T T T T T T T T T T T T T T T N E.E.E.E.E.E.E.E.E.E.m T T T T T T T T T T T T T T T T T T T T T T T T T T T T T T T T T T T T T T T T T T T B                                                                                                                                                   ",
"                                                                                                                                                                                                A A Z Z Z Z Z A A A A Z Z Z A A A A Z Z Z Z Z A A A A Z Z Z A A A A A A A A A Z Z Z A A A A A A A U XXXXoX! T T T T T T T T T T T T T T T T T T * m.m.m.m.m.m.m.m.m.m.m.m.m.m.m.m.m.m.m.m.C.x T T T T T T T T T T T T T T T T T T T T T T T T T T T T T T T T T T T T T T T T T T T T T T T T T T T T T T T T l o m.m.m.m.m.m.m.m.m.m.m.m.m.m.m.m.m.m.m.m.S.x T T T T T T T T T T T T T T T T T T T T T T T T T T T T T T T T T T T T o.E.E.E.E.E.E.E.E.E.v T T T T T T T T T T T T T T T T T T T T T T T T T T T T T T T T T T T T T T T T T T T T T T T T T T T T T T U.E.E.E.E.E.E.E.E.E.>.T T T T T T T T T T T T T T T T T T T T T T T T T T T T T T T T T T T T T T T T T T T B                                                                                                                                                   ",
"                                                                                                                                                                                                A A Z Z Z Z A A A A Z Z Z Z A A A A Z Z Z Z A A A A Z Z Z Z A A A A A A A A Z Z Z Z A A A A Z Z A U XXXXoX! T B T T T T T T T T T T T T T T T T x B.m.m.m.m.m.m.m.m.m.m.m.m.m.m.m.m.m.m.m.m.. l T T T T T T T T T T T T T T T T T T T T T T T T T T T T T T T T T T T T T T T T T T T T T T T T T T T T T T c % m.m.m.m.m.m.m.m.m.m.m.m.m.m.m.m.m.m.m.m.m.$ T T T T T T T T T T T T T T T T T T T T T T T T T T T T T T T T T T T T T c K.E.E.E.E.E.E.E./.T T T T T T T T T T T T T T T T T T T T T T T T T T T T T T T T T T T T T T T T T T T T T T T T T T T T T T T ^.E.E.E.E.E.E.E.E.E.~.T T T T T T T T T T T T T T T T T T T T T T T T T T T T T T T T T T T T T T T T T T T T                                                                                                                                                   ",
"                                                                                                                                                                                                A Z Z Z A A A A A A A A Z Z Z Z A Z Z Z A A A A A A A A Z Z Z Z Z Z A A A A A A Z Z Z Z Z Z Z Z A U XXXXoX! T T T T T T T T T T T T T T T T T T T y m.m.m.m.m.m.m.m.m.m.m.m.m.m.m.m.m.m.m.m.m.o l T T T T T T T T T T T T T T T T T T T T T T T T T T T T T T T T T T T T T T T T T T T T T T T T T T T T c * m.m.m.m.m.m.m.m.m.m.m.m.m.m.m.m.m.m.m.m.m.X c T T T T T T T T T T T T T T T T T T T T T T T T T T T T T T T T T T T T T T =.E.E.E.E.E.E.R.m T T T T T T T T T T T T T T T T T T T T T T T T T T T T T T T T T T T T T T T T T T T T T T T T T T T T T T T -.E.E.E.E.E.E.E.E.E.U.T T T T T T T T T T T T T T T T T T T T T T T T T T T T T T T T T T T T T T T T T T T T                                                                                                                                                   ",
"                                                                                                                                                                                                A Z Z Z Z A A A A A A A Z Z Z Z A Z Z Z Z A A A A A A A Z Z Z Z Z A A A A A A A Z Z Z Z Z Z Z Z A U XXXXoX! T T T T T T T T T T T T T T T T T T T T o m.m.m.m.m.m.m.m.m.m.m.m.m.m.m.m.m.m.m.m.m.C.h T T T T T T T T T T T T T T T T T T T T T T T T T T T T T T T T T T T T T T T T T T T T T T T T T T l = m.m.m.m.m.m.m.m.m.m.m.m.m.m.m.m.m.m.m.m.m.M.9 T T T T T T T T T T T T T T T T T T T T T T T T T T T T T T T T T T T T T T T T -.P.E.E.E.U.o.T T T T T T T T T T T T T T T T T T T T T T T T T T T T T T T T T T T T T T T T T T T T T T T T T T T T T T T T c W.E.E.E.E.E.E.E.E.E.m T T T T T T T T T T T T T T T T T T T T T T T T T T T T T T T T T T T T T T T T T T T                                                                                                                                                   ",
"                                                                                                                                                                                                Z Z Z Z Z Z Z Z Z Z Z Z Z Z Z Z Z Z Z Z Z Z Z Z Z Z Z Z Z Z Z Z Z Z Z Z Z Z Z Z Z Z Z Z Z Z Z Z Z U XXXXoX! c c c c c c c c c c c c c c c c c c c c h n.m.m.m.m.m.m.m.m.m.m.m.m.m.m.m.m.m.m.m.m.m.B.> c c c c c c c c c c c c c c c c c c c c c c c c c c c c c c c c c c c c c c c c c c c c c c c c x . m.m.m.m.m.m.m.m.m.m.m.m.m.m.m.m.m.m.m.m.m.m.+ c c c c c c c c c c c c c c c c c c c c c c c c c c c c c c c c c c c c c c c c c c v -.>.-.c c c c c c c c c c c c c c c c c c c c c c c c c c c c c c c c c c c c c c c c c c c c c c c c c c c c c c c c c c c J.E.E.E.E.E.E.E.E.E.>.c c c c c c c c c c c c c c c c c c c c c c c c c c c c c c c c c c c c c c c c c c c                                                                                                                                                   ",
"                                                                                                                                                                                                Z Z Z Z Z Z Z Z Z Z Z Z Z Z Z Z Z Z Z Z Z Z Z Z Z Z Z Z Z Z Z Z Z Z Z Z Z Z Z Z Z Z Z Z Z Z Z Z Z U XXXXoX! c c c c c c c c c c c c c c c c c c c c c y m.m.m.m.m.m.m.m.m.m.m.m.m.m.m.m.m.m.m.m.m.m.n.y c c c c c c c c c c c c c c c c c c c c c c c c c c c c c c c c c c c c c c c c c c c c c c > V.m.m.m.m.m.m.m.m.m.m.m.m.m.m.m.m.m.m.m.m.m.m.. l c c c c c c c c c c c c c c c c c c c c c c c c c c c c c c c c c c c c c c c c c c c c c c c c c c c c c c c c c c c c c c c c c c c c c c c c c c c c c c c c c c c c c c c c c c c c c c c c c c c c c c c c c ,.E.E.E.E.E.E.E.E.E.^.c c c c c c c c c c c c c c c c c c c c c c c c c c c c c c c c c c c c c c c c c c l                                                                                                                                                   ",
"                                                                                                                                                                                                Z Z Z Z Z Z Z Z Z Z Z Z Z Z Z Z Z Z Z Z Z Z Z Z Z Z Z Z Z Z Z Z Z Z Z Z Z Z Z Z Z Z Z Z Z Z Z Z Z U XXXXoX! c c c c c c c c c c c c c c c c c c c c c c * m.m.m.m.m.m.m.m.m.m.m.m.m.m.m.m.m.m.m.m.m.m.m.o x c c c c c c c c c c c c c c c c c c c c c c c c c c c c c c c c c c c c c c c c c c l + M.m.m.m.m.m.m.m.m.m.m.m.m.m.m.m.m.m.m.m.m.m.m.n.h c c c c c c c c c c c c c c c c c c c c c c c c c c c c c c c c c c c c c c c c c c c c c c c c c c c c c c c c c c c c c c c c c c c c c c c c c c c c c c c c c c c c c c c c c c c c c c c c c c c c c c c c c c =.E.E.E.E.E.E.E.E.E.J.c c c c c c c c c c c c c c c c c c c c c c c c c c c c c c c c c c c c c c c c c c l                                                                                                                                                   ",
"                                                                                                                                                                                                Z Z Z Z Z Z Z Z Z Z Z Z Z Z Z Z Z Z Z Z Z Z Z Z Z Z Z Z Z Z Z Z Z Z Z Z Z Z Z Z Z Z Z Z Z Z Z Z Z U XXXXoX! c l c c c c c c c c c c c c c c c c c c c c l C.m.m.m.m.m.m.m.m.m.m.m.m.m.m.m.m.m.m.m.m.m.m.m.B.y l c c c c c c c c c c c c c c c c c c c c c c c c c c c c c c c c c c c c c c c > X m.m.m.m.m.m.m.m.m.m.m.m.m.m.m.m.m.m.m.m.m.m.m.m.p c c c c c c c c c c c c c c c c c c c c c c c c c c c c c c c c c c c c c c c c c c c c c c c c c c c c c c c c c c c c c c c c c c c c c c c c c c c c c c c c c c c c c c c c c c c c c c c c c c c c c c c c c c c v E.E.E.E.E.E.E.E.E.E.v c c c c c c c c c c c c c c c c c c c c c c c c c c c c c c c c c c c c c c c c c l                                                                                                                                                   ",
"                                                                                                                                                                                                Z Z Z Z Z Z Z Z Z Z Z Z Z Z Z Z Z Z Z Z Z Z Z Z Z Z Z Z Z Z Z Z Z Z Z Z Z Z Z Z Z Z Z Z Z Z Z Z Z U XXXXoX! c c c c c c c c c c c c c c c c c c c c c c c h B.m.m.m.m.m.m.m.m.m.m.m.m.m.m.m.m.m.m.m.m.m.m.m.m.C.p c c c c c c c c c c c c c c c c c c c c c l l c c c c c c c c g c g g c h % m.m.m.m.m.m.m.m.m.m.m.m.m.m.m.m.m.m.m.m.m.m.m.m.m.+ c c c c c c c c c c c c c c c c c c c c c c c c c c c c c c c c c c c c c c c c c c c c c c c c c c c c c c c c c c c c c c c c c c c c c c c c c c c c c c c c c c c c c c c c c c c c c c c c c c c c c c c c c c c c c J.E.E.E.E.E.E.E.E.E.=.c c c c c l c c c c c c c c c c c c c c c c c c c c c c c c c c c c c c c c c c c c                                                                                                                                                   ",
"                                                                                                                                                                                                Z Z Z Z Z Z Z Z Z Z Z Z Z Z Z Z Z Z Z Z Z Z Z Z Z Z Z Z Z Z Z Z Z Z Z Z Z Z Z Z Z Z Z Z Z Z Z Z Z U XXXXoX! c c c c c c c c c c c c c c c c c c c c c c c c > b.m.m.m.m.m.m.m.m.m.m.m.m.m.m.m.m.m.m.m.m.m.m.m.m.m.o p l c c c c c c c c c c c c c c c c c c l l c c c c c c c c g g c 9 * b.m.m.m.m.m.m.m.m.m.m.m.m.m.m.m.m.m.m.m.m.m.m.m.m.m.% c c c c c c c c c c c c c c c c c c c c c c c c c c c c c c c c c c c c c c c c c c c c c c c c c c c c c c c c c c c c c c c c c c c c c c c c c c c c c c c c c c c c c c c c c c c c c c c c c c c c c c c c c c c c c c ^.E.E.E.E.E.E.E.E.E.<.c c c c c c c c c c c c c c c c c c c c c c c c c c c c c c c c c c c c c c c c c c                                                                                                                                                   ",
"                                                                                                                                                                                                Z Z Z Z Z Z Z Z Z Z Z Z Z Z Z Z Z Z Z Z Z Z Z Z Z Z Z Z Z Z Z Z Z Z Z Z Z Z Z Z Z Z Z Z Z Z Z Z Z U XXXXoX! c c c c c c c c c c c c c c c c c c c c c c c c c p b.m.m.m.m.m.m.m.m.m.m.m.m.m.m.m.m.m.m.m.m.m.m.m.m.m.m.B.* 9 c c c c c c c c c c c c c c c c c g c c c c c c c c x $ . m.m.m.m.m.m.m.m.m.m.m.m.m.m.m.m.m.m.m.m.m.m.m.m.m.m.m.o l c c c c c c c c c c c c c c c c c c c c c c c c c c c c c c c c c c c c c c c c c c c c c c c c c c c c c c c c c c c c c c c c c c c c c c c c c c c c c c c c c c c c c c c c c c c c c c c c c c c c c c c c c c c c c c ..E.E.E.E.E.E.E.E.E./.c c c c c c c c c c c c c c c c c c c c c c c c c c c c c c c c c c c c c c c c c c                                                                                                                                                   ",
"                                                                                                                                                                                                Z Z Z Z Z Z Z Z Z Z Z Z Z Z Z Z Z Z Z Z Z Z Z Z Z Z Z Z Z Z Z Z Z Z Z Z Z Z Z Z Z Z Z Z Z Z Z Z Z U XXXXoX! c c c c c c c c c c c c c c c c c c c c c c c c c c y M.m.m.m.m.m.m.m.m.m.m.m.m.m.m.m.m.m.m.m.m.m.m.m.m.m.m.m.m.V.% y h c c c c c c c c c c c c c g c c c c l > # . M.m.m.m.m.m.m.m.m.m.m.m.m.m.m.m.m.m.m.m.m.m.m.m.m.m.m.m.m.. x c c c c c c c c c c c c c c c c c c c c c c c c c c c c c c c c c c c c c c c c c c c c c c c c c c c c c c c c c c c c c c c c c c c c c c c c c c c c c c c c c c c c c c c c c c c c c c c c c c c c c c c c c c c c c c c m E.E.E.E.E.E.E.E.E.K.c c c c c c c c c c c c c c c c c c c c c c c c c c c c c c c c c c c c c c c c c c                                                                                                                                                   ",
"                                                                                                                                                                                                Z Z Z Z Z Z Z Z Z Z Z Z Z Z Z Z Z Z Z Z Z Z Z Z Z Z Z Z Z Z Z Z Z Z Z Z Z Z Z Z Z Z Z Z Z Z Z Z Z Y XXXXoX! c c l l l l l l l l l l l l c c c c l c c c l l l l l u b.m.m.m.m.m.m.m.m.m.m.m.m.m.m.m.m.m.m.m.m.m.m.m.m.m.m.m.m.m.m.m.B.. % @ u p > 9 h h 9 > > p @ ; o V.b.m.m.m.m.m.m.m.m.m.m.m.m.m.m.m.m.m.m.m.m.m.m.m.m.m.m.m.m.m.m.m.. x c c l l l l c c c c l c c c l l l l c c c c c c c c l l c c g g l l l l c c g g l l l l c c g g l l l l c c g g l l l l l l c c c c l c c c l l l l c c c c l c c c l l l l l l l l l l l l c c c c l c c c l l l l c c c l l l l P.E.E.E.E.E.E.E.E.E.c l l l l g c l l c c g g l l l l c c g g l l l l c c g g l l l c c c l l l l l l c                                                                                                                                                   ",
"                                                                                                                                                                                                Z Z Z Z Z Z Z Z Z Z Z Z Z Z Z Z Z Z Z Z Z Z Z Z Z Z Z Z Z Z Z Z Z Z Z Z Z Z Z Z Z Z Z Z Z Z Z Z Z Y XXXXoX! c c l l l l c c l l l l l l c c c c l c c g l l l l l l > n.m.m.m.m.m.m.m.m.m.m.m.m.m.m.m.m.m.m.m.m.m.m.m.m.m.m.m.m.m.m.m.m.m.m.m.m.m.m.m.m.m.m.m.m.m.m.m.m.m.m.m.m.m.m.m.m.m.m.m.m.m.m.m.m.m.m.m.m.m.m.m.m.m.m.m.m.m.m.m.o x c c g l l l l c c c c l c c c l l l l c c c c c c c c l l c c c c l l l l c c c c l l l l c c c c l l l l c c c c l l l l l l c c c c l c c c l l l l c c c c l c c c l l l l c c l l l l l l c c c c l c c c l l l l c c c l l l l H.E.E.E.E.E.E.E.E.E.o.l l l c g g l l c c c c l l l l c c c c l l l l c c c c l l l c c c l l l l l l c                                                                                                                                                   ",
"                                                                                                                                                                                                Z Z Z Z Z Z Z Z Z Z Z Z Z Z Z Z Z Z Z Z Z Z Z Z Z Z Z Z Z Z Z Z Z Z Z Z Z Z Z Z Z Z Z Z Z Z Z Z Z Y XXXXoX! c c c c l l c c c c c c l l l c l l l l c c c c l l l l l 9 V.m.m.m.m.m.m.m.m.m.m.m.m.m.m.m.m.m.m.m.m.m.m.m.m.m.m.m.m.m.m.m.m.m.m.m.m.m.m.m.m.m.m.m.m.m.m.m.m.m.m.m.m.m.m.m.m.m.m.m.m.m.m.m.m.m.m.m.m.m.m.m.m.m.m.m.m.m.% l l l c c c c l l c c l l l l c c c c l l l l l l l l c c l l l l c c c l l l l l c c c l l l l l c c c l l l l l c c c l c c l l c c l l l l c c c c l l c c l l l l c c c c l l c c c c c c l l c c l l l l c c c c l l c c c c l l l ^.E.E.E.E.E.E.E.E.E...l l l c c c l l l l c c c l l l l l c c c l l l l l c c c l l l c c c c l l l l c                                                                                                                                                   ",
"                                                                                                                                                                                                Z Z Z Z Z Z Z Z Z Z Z Z Z Z Z Z Z Z Z Z Z Z Z Z Z Z Z Z Z Z Z Z Z Z Z Z Z Z Z Z Z Z Z Z Z Z Z Z Z Y XXXXoX! c c c c l l c c c c c c l l l l l l l l c c c c l l l l l l x X m.m.m.m.m.m.m.m.m.m.m.m.m.m.m.m.m.m.m.m.m.m.m.m.m.m.m.m.m.m.m.m.m.m.m.m.m.m.m.m.m.m.m.m.m.m.m.m.m.m.m.m.m.m.m.m.m.m.m.m.m.m.m.m.m.m.m.m.m.m.m.m.m.m.m.@ l l l l c c c c l l l l l l l l c c c c l l l l l l l l c c l l l l c c l l l l l l c c l l l l l l c c l l l l l l c c l l c c l l l l l l l l c c c c l l l l l l l l c c c c l l c c c c c c l l l l l l l l c c c c l l c c l c l l l >.E.E.E.E.E.E.E.E.E.2.l l l c c c l l l l c c l l l l l l c c l l l l l l c c l l l l c c c c l l l l c                                                                                                                                                   ",
"                                                                                                                                                                                                Z Z Z Z Z Z Z Z Z Z Z Z Z Z Z Z Z Z Z Z Z Z Z Z Z Z Z Z Z Z Z Z Z Z Z Z Z Z Z Z Z Z Z Z Z Z Z Z Z Y XXXXoX! c l l l c c c c c c c l l l l c c c l c c c c c c c c c l l c l # M.m.m.m.m.m.m.m.m.m.m.m.m.m.m.m.m.m.m.m.m.m.m.m.m.m.m.m.m.m.m.m.m.m.m.m.m.m.m.m.m.m.m.m.m.m.m.m.m.m.m.m.m.m.m.m.m.m.m.m.m.m.m.m.m.m.m.m.m.m.m.m.n.p l l l l c c c l c c c c c c c c c l l c c c c c c c c c l c c c c l l c c c c c c c l l l c c c c l l c c c c c c c l l l c c c c l l l c c c c c c c c l c c c c c c c c c c l l c c c c c c c l l l l c c c l c c c c c c c c c l l c c c o.E.E.E.E.E.E.E.E.E.F.l l c c c c c c c l l l c c c c l l c c c c c c c l l l c c l l c c c c c c c c T                                                                                                                                                   ",
"                                                                                                                                                                                                Z Z Z Z Z Z Z Z Z Z Z Z Z Z Z Z Z Z Z Z Z Z Z Z Z Z Z Z Z Z Z Z Z Z Z Z Z Z Z Z Z Z Z Z Z Z Z Z Z Y XXXXoX! c l l l c c c c c c c c l l c c c c l l c c T T c c l c l l c c c > B.m.m.m.m.m.m.m.m.m.m.m.m.m.m.m.m.m.m.m.m.m.m.m.m.m.m.m.m.m.m.m.m.m.m.m.m.m.m.m.m.m.m.m.m.m.m.m.m.m.m.m.m.m.m.m.m.m.m.m.m.m.m.m.m.m.m.m.m.m.o h c c l l c c c c l l c c c T c c l c l l c c c c c c c c l l l l c c l l l c c c c c c l l c c c c c l l l c c c c c c l l c c c c c l l l l c c c c c c l l l l c c c c c c c c l l c l c c c c c c l l c c c c l l c c T T c c l c l l c c c v E.E.E.E.E.E.E.E.E.I.l l l c c c c c c l l c c c c c l l l c c c c c c l l c c c l l c c c c l l c c T                                                                                                                                                   ",
"                                                                                                                                                                                                Z Z Z Z Z Z Z Z Z Z Z Z Z Z Z Z Z Z Z Z Z Z Z Z Z Z Z Z Z Z Z Z Z Z Z Z Z Z Z Z Z Z Z Z Z Z Z Z Z Y XXXXoX! l l l l l c l l l l c c c c c l l c l l c l c c l l l l l l c c c c x = m.m.m.m.m.m.m.m.m.m.m.m.m.m.m.m.m.m.m.m.m.m.m.m.m.m.m.m.m.m.m.m.m.m.m.m.m.m.m.m.m.m.m.m.m.m.m.m.m.m.m.m.m.m.m.m.m.m.m.m.m.m.m.m.m.m.b.@ l l c c c c c l l c l l c l c T l l l l l l l c c c T T c l l l l l c c l l l l T T c c l l l c c c c c l l l l T T c c l l l c c c c c c l c c c c T T c l l l l l l l c c c c c c l l l l l l c c c c c c c l l c l l c l c c l l l l l l l c c c U.E.E.E.E.E.E.E.E.E.v l l l T T c c l l l c c c c c l l l l T T c c l l l c c c l c c c l l l l c c T                                                                                                                                                   ",
"                                                                                                                                                                                                Z Z Z Z Z Z Z Z Z Z Z Z Z Z Z Z Z Z Z Z Z Z Z Z Z Z Z Z Z Z Z Z Z Z Z Z Z Z Z Z Z Z Z Z Z Z Z Z Z Y XXXXoX! l l l l l l l l l l l l l T l l l l l l l l l l l l l l l l l l l l l l p V.m.m.m.m.m.m.m.m.m.m.m.m.m.m.m.m.m.m.m.m.m.m.m.m.m.m.m.m.m.m.m.m.m.m.m.m.m.m.m.m.m.m.m.m.m.m.m.m.m.m.m.m.m.m.m.m.m.m.m.m.m.m.m.o 9 l l l l l l T l l l l l l l l l l l l l l l l l l l l l l l l l l l l l l l l l l T T l l l l l l l l l l l l l l T T l l l l l l l l l l l l l l l l l l l l l l l l l l l l l l l l l l l l l l l l l l l T l l l l l l l l l l l l l l l l l l l l F.E.E.E.E.E.E.E.E.E.o.l l l T T l l l l l l l l l l l l l l T T l l l l l l l l l l l l l l l l l l l                                                                                                                                                   ",
"                                                                                                                                                                                                Z Z Z Z Z Z Z Z Z Z Z Z Z Z Z Z Z Z Z Z Z Z Z Z Z Z Z Z Z Z Z Z Z Z Z Z Z Z Z Z Z Z Z Z Z Z Z Z Z Y XXXXoX! l l l l T T l l l l l l l T l l l l l l l l l l l l l l l l l l l l l l l l @ n.m.m.m.m.m.m.m.m.m.m.m.m.m.m.m.m.m.m.m.m.m.m.m.m.m.m.m.m.m.m.m.m.m.m.m.m.m.m.m.m.m.m.m.m.m.m.m.m.m.m.m.m.m.m.m.m.m.m.m.C.> l l l l l l l l T l l l l l l l l l l l l l l l T l l l l l l l l l l l l l l l l l l l T l l l l l T T l l l l l l l l T l l l l l T T l l l T T l l l l l l l l l l l l l l l l l l l l l l T T l l l l l l l T l l l l l l l l l l l l l T T l l l l l 1.E.E.E.E.E.E.E.E.E.>.l l l l T l l l l l T T l l l l l l l l T l l l l l T T l l l l l l l l l l l l                                                                                                                                                   ",
"                                                                                                                                                                                                Z Z Z Z Z Z Z Z Z Z Z Z Z Z Z Z Z Z Z Z Z Z Z Z Z Z Z Z Z Z Z Z Z Z Z Z Z Z Z Z Z Z Z Z Z Z Z Z Z Y XXXXoX! l l l l l T l l l l l l l T T l l l l l l l l T l l l l l l l l l l l l l l l x % M.m.m.m.m.m.m.m.m.m.m.m.m.m.m.m.m.m.m.m.m.m.m.m.m.m.m.m.m.m.m.m.m.m.m.m.m.m.m.m.m.m.m.m.m.m.m.m.m.m.m.m.m.m.m.m.B.$ l l l l l l l l l l T T l l l l l l l l T l l l l T T l l l l l l l l l l l l l l l l l l l l l l l l l l T l l l l l l l l l l l l l l l T l l l T l l l l l l l l l l l l l l l l l l l l l l l l T l l l l l l l T T l l l l l l l l T l l l T T l l l l l ..E.E.E.E.E.E.E.E.E.2.l l l l l l l l l l l T l l l l l l l l l l l l l l l T l l l l T l l l l l l l                                                                                                                                                   ",
"                                                                                                                                                                                                Z Z Z Z Z Z Z Z Z Z Z Z Z Z Z Z Z Z Z Z Z Z Z Z Z Z Z Z Z Z Z Z Z Z Z Z Z Z Z Z Z Z Z Z Z Z Z Z Z Y XXXXoX! l l l l l T l l l l l l l l T T l l l l l l T T l l l T l l l l l l l l l l l l l h # n.m.m.m.m.m.m.m.m.m.m.m.m.m.m.m.m.m.m.m.m.m.m.m.m.m.m.m.m.m.m.m.m.m.m.m.m.m.m.m.m.m.m.m.m.m.m.m.m.m.m.m.B.@ x l l l l l l l l l l l l T T l l l l l l T l l l l l l l l l l l l l l T l l l l T l l l l l l l T l l l l l l l T l l l l l l l T l l l l l l l l l l l l l l l l l l T l l l l l l l l T l T l l l l l l l l l l l l l T T l l l l l l T T l l l l l l l l l l o.E.E.E.E.E.E.E.E.E./.l l l l l T l l l l l l l T l l l l l l l T l l l l l l l l l T l l l l l l l l                                                                                                                                                   ",
"                                                                                                                                                                                                Z Z Z Z Z Z Z Z Z Z Z Z Z Z Z Z Z Z Z Z Z Z Z Z Z Z Z Z Z Z Z Z Z Z Z Z Z Z Z Z Z Z Z Z Z Z Z Z Z Y XXXXoX! l l l l l l l l l l l l l l l l l l l l l l T l l l l T l l l l l l l l l l l l l l l x @ V.m.m.m.m.m.m.m.m.m.m.m.m.m.m.m.m.m.m.m.m.m.m.m.m.m.m.m.m.m.m.m.m.m.m.m.m.m.m.m.m.m.m.m.m.m.m.m.. u l l l l l l l l l l l l l l l l l l l l l l l T T l l l l l l l l l l T T T l l l l l T l l l l l l l l l l l l l l l T l l l l l l l l l l l l l l l l l l l l l l l T T T l l l l l l l l l T T l l l l l l l l l l l l l l l l l l l l l l T l l l l l l l l l l l v E.E.E.E.E.E.E.E.E.J.l l l l l l l l l l l l l T l l l l l l l l l l l l l l l l l T T l l l l l l l                                                                                                                                                   ",
"                                                                                                                                                                                                Z Z Z Z Z Z Z Z Z Z Z Z Z Z Z Z Z Z Z Z Z Z Z Z Z Z Z Z Z Z Z Z Z Z Z Z Z Z Z Z Z Z Z Z Z Z Z Z Z Y XXXXoX! l l l l l l l l l l l l l l l l l l l l l l l l l l l l l l l l l l l l l l l l l l l l l l : * B.m.m.m.m.m.m.m.m.m.m.m.m.m.m.m.m.m.m.m.m.m.m.m.m.m.m.m.m.m.m.m.m.m.m.m.m.m.m.m.m.m.C.+ 9 l l l l l l l l l l l l l l l l l l l l l l l l l l l l l l l l l l l l l l l l l l l l l l l l l l l l l l l l l l l l l l l l l l l l l l l l l l l l l l l l l l l l l l l l l l l l l l l l l l l l l l l l l l l l l l l l l l l l l l l l l l l l l l l l l l l l l l P.E.E.E.E.E.E.E.E.P.l l l l l l l l l l l l l l l l l l l l l l l l l l l l l l l l T l l l l l l l                                                                                                                                                   ",
"                                                                                                                                                                                                Z Z Z Z Z Z Z Z Z Z Z Z Z Z Z Z Z Z Z Z Z Z Z Z Z Z Z Z Z Z Z Z Z Z Z Z Z Z Z Z Z Z Z Z Z Z Z Z Z Y XXXXoX! l l l l l l l l l l l l l l l l l l l l l l l l l l l l l l l l l l l l l l l l l l l l l l l l l > # V.m.m.m.m.m.m.m.m.m.m.m.m.m.m.m.m.m.m.m.m.m.m.m.m.m.m.m.m.m.m.m.m.m.m.m.V.# 9 l l l l l l l l l l l l l l l l l l l l l l l l l l l l l l l l l l l l l l l l l l l l l l l l l l l l l l l l l l l l l l l l l l l l l l l l l l l l l l l l l l l l l l l l l l l l l l l l l l l l l l l l l l l l l l l l l l l l l l l l l l l l l l l l l l l l l l l l l H.E.E.E.E.E.E.E.E.E.v l l l l l l l l l l l l l l l l l l l l l l l l l l l l l l T T l l l l l l l                                                                                                                                                   ",
"                                                                                                                                                                                                Z Z Z Z Z Z Z Z Z Z Z Z Z Z Z Z Z Z Z Z Z Z Z Z Z Z Z Z Z Z Z Z Z Z Z Z Z Z Z Z Z Z Z Z Z Z Z Z Z Y XXXXoX! l l l T T l l l l l l l l l l l l l l l l l l l l l l l l l l l l l l l l l l l l l l l l l l l l l l l h y * C.m.m.m.m.m.m.m.m.m.m.m.m.m.m.m.m.m.m.m.m.m.m.m.m.m.m.m.V.% $ 9 l l l l l l l l l l l l l l l l T l l l l l l l l l l l l l l l l l l l l T T l l l l l l l l l l l l l l l l T l l l l l l l l l l l l l l l T l l l l l l l l l l l l l T T l l l l l l l l l l l l l l l l l l l l l T T l l l l l l l l l l l l l l l l l l l l l l T l l l l l l l /.E.E.E.E.E.E.E.E.E.o.l l l l l l l l l l l l l l l l T l l l l l l l l l l l l l l l l l l l l l l                                                                                                                                                   ",
"                                                                                                                                                                                                S S S S S S S S Z Z Z Z S S S S S S S S S S S S S S S S S S S S S S S S Z Z Z S S S S S Z Z Z S Z Y XXXXoX! l l l l l l l l l l l l l l l l l l l l l l l l l l l l l l l l l l l l l l l l l l l l l l l l l l l l l l l l x p @ * o C.n.m.m.m.m.m.m.m.m.m.m.m.m.m.n.C.o * @ : x l l l l l l l l l l l l l l l l l l l l l l l l l l l l l l l l l l l l l l l l l l l l l l l l l l l l l l l l l l l l l l l l l l l l l l l l l l l l l l l l l l l l l l l l l l l l l l l l l l l l l l l l l l l l l l l l l l l l l l l l l l l l l l l l l l l l l l l l l l l l l l l l 2.E.E.E.E.E.E.E.E.E.-.l l l l l l l l l l l l l l l l l l l l l l l l l l l l l l l l l l l l l l l                                                                                                                                                   ",
"                                                                                                                                                                                                S S Z Z S S S S S S S Z Z Z Z Z S S Z Z S S S S Z S S S S S S S S S Z Z Z Z S S S S Z Z Z Z S S Z I XXXXoX! l l l l l l l l l l l l l l l l l l l l l l l l l l l l l l l l l l l l l l l l l l l l l l l l l l l l l l l l l l l l l l l x 9 9 > p p y u p > 9 9 x l l l l l l l l l l l l l l l l l l l l l l l l l l l l l l l l l l l l l l l l l l l l l l l l l l l l l l l l l l l l l l l l l l l l l l l l l l l l l l l l l l l l l l l l l l l l l l l l l l l l l l l l l l l l l l l l l l l l l l l l l l l l l l l l l l l l l l l l l l l l l l l l l l l l l l l >.E.E.E.E.E.E.E.E.E.>.l l l l l l l l l l l l l l l l l l l l l l l l l l l l l l l l l l l l l l l                                                                                                                                                   ",
"                                                                                                                                                                                                S S S Z S S S S S S Z Z Z Z Z S S S S Z S S S S Z Z S S S S S S S S Z Z Z Z S S S S Z Z Z Z S S Z I XXXXoX! l l l l l l l l l l l l l l l l l l l l l l l l l l l l l l l l l l l l l l l l l l l l l l l l l l l l l l l l l l l l l l l l l l l l l l l l l l l l l l l l l l l l l l l l l l l l l l l l l l l l l l l l l l l l l l l l l l l l l l l l l l l l l l l l l l l l l l l l l l l l l l l l l l l l l l l l l l l l l l l l l l l l l l l l l l l l l l l l l l l l l l l l l l l l l l l l l l l l l l l l l l l l l l l l l l l l l l l l l l l l l l l l l l l $.E.E.E.E.E.E.E.E.E.^.l l l l l l l l l l l l l l l l l l l l l l l l l l l l l l l l l l l l l l l                                                                                                                                                   ",
"                                                                                                                                                                                                S S Z Z Z S S Z S S S S Z Z S S S S Z Z Z S S Z Z Z Z Z S S S S S S S Z S S S S S S S Z S S S S Z I XXXXoX! l l l l l l l l l l l l l l l l l l l l l l l l l l l l l l l l l l l l l l l l l l l l l l l l l l l l l l l l l l l l l l l l l l l l l l l l l l l l l l l l l l l l l l l l l l l l l l l l l l l l l l l l l l l l l l l l l l l l l l l l l l l l l l l l l l l l l l l l l l l l l l l l l l l l l l l l l l l l l l l l l l l l l l l l l l l l l l l l l l l l l l l l l l l l l l l l l l l l l l l l l l l l l l l l l l l l l l l l l l l l l l l l l l l M E.E.E.E.E.E.E.E.E.F.l l l l l l l l l l l l l l l l l l l l l l l l l l l l l l l l l l l l l l l                                                                                                                                                   ",
"                                                                                                                                                                                                S S Z Z Z Z Z Z S S S S Z Z S S S S Z Z Z Z Z Z Z Z Z Z Z Z S S S S S Z S S S S S S Z Z S S S S Z I XXXXoX! l l l l l l l l l l l l l l l l l l l l l l l l l l l l l l l l l l l l l l l l l l l l l l l l l l l l l l l l l l l l l l l l l l l l l l l l l l l l l l l l l l l l l l l l l l l l l l l l l l l l l l l l l l l l l l l l l l l l l l l l l l l l l l l l l l l l l l l l l l l l l l l l l l l l l l l l l l l l l l l l l l l l l l l l l l l l l l l l l l l l l l l l l l l l l l l l l l l l l l l l l l l l l l l l l l l l l l l l l l l l l l l l l l l l E.E.E.E.E.E.E.E.E.K.l l l l l l l l l l l l l l l l l l l l l l l l l l l l l l l l l l l l l l l                                                                                                                                                   ",
"                                                                                                                                                                                                S S S Z Z Z Z S S S Z Z Z Z Z Z Z Z Z S S S Z Z Z Z Z Z Z Z Z S S S S S Z Z Z Z S S S S Z Z Z Z Z I XXXXoXQ l l l l l l l l l l l l l l l l l l l l l l l l l l l l l l l l l l l l l l l l l l l l l l l l l l l l l l l l l l l l l l l l l l l l l l l l l l l l l l l l l l l l l l l l l l l l l l l l l l l l l l l l l l l l l l l l l l l l l l l l l l l l l l l l l l l l l l l l l l l l l l l l l l l l l l l l l l l l l l l l l l l l l l l l l l l l l l l l l l l l l l l l l l l l l l l l l l l l l l l l l l l l l l l l l l l l l l l l l l l l l l l l l l l l I.E.E.E.E.E.E.E.E.R.l l l l l l l l l l l l l l l l l l l l l l l l l l l l l l l l l l l l l l l                                                                                                                                                   ",
"                                                                                                                                                                                                S S Z Z Z Z Z Z S S S S Z Z S Z Z Z Z Z S S S S Z Z S Z Z Z Z Z S S S S Z Z Z Z S S S S Z Z Z Z Z I XXXXoXQ l l l l l l l l l l l l l l l l l l l l l l l l l l l l l l l l l l l l l l l l l l l l l l l l l l l l l l l l l l l l l l l l l l l l l l l l l l l l l l l l l l l l l l l l l l l l l l l l l l l l l l l l l l l l l l l l l l l l l l l l l l l l l l l l l l l l l l l l l l l l l l l l l l l l l l l l l l l l l l l l l l l l l l l l l l l l l l l l l l l l l l l l l l l l l l l l l l l l l l l l l l l l l l l l l l l l l l l l l l l l l l l l l l l l H.E.E.E.E.E.E.E.E.E.v l l l l l l l l l l l l l l l l l l l l l l l l l l l l l l l l l l l l l l                                                                                                                                                   ",
"                                                                                                                                                                                                S Z Z Z Z Z Z Z S S S S S S S S Z Z Z Z S S S S S S S S Z Z Z Z S Z S S Z Z Z Z S Z S S Z Z Z Z S I XXXXoXQ l l l l l l l l l l l l l l l l l l l l l l l l l l l l l l l l l l l l l l l l l l l l l l l l l l l l l l l l l l l l l l l l l l l l l l l l l l l l l l l l l l l l l l l l l l l l l l l l l l l l l l l l l l l l l l l l l l l l l l l l l l l l l l l l l l l l l l l l l l l l l l l l l l l l l l l l l l l l l l l l l l l l l l l l l l l l l l l l l l l l l l l l l l l l l l l l l l l l l l l l l l l l l l l l l l l l l l l l l l l l l l l l l l l l /.E.E.E.E.E.E.E.E.E.M l l l l l l l l l l l l l l l l l l l l l l l l l l l l l l l l l l l l l l                                                                                                                                                   ",
"                                                                                                                                                                                                S S S S S S S S S S S S S S S S S S S S S S S S S S S S S S S S S S S S S S S S S S S S S S S S S I XXXXoXQ l l l l l l l l l l l l l l l l l l l l l l l l l l l l l l l l l l l l l l l l l l l l l l l l l l l l l l l l l l l l l l l l l l l l l l l l l l l l l l l l l l l l l l l l l l l l l l l l l l l l l l l l l l l l l l l l l l l l l l l l l l l l l l l l l l l l l l l l l l l l l l l l l l l l l l l l l l l l l l l l l l l l l l l l l l l l l l l l l l l l l l l l l l l l l l l l l l l l l l l l l l l l l l l l l l l l l l l l l l l l l l l l l l l l ^.E.E.E.E.E.E.E.E.E.o.l l l l l l l l l l l l l l l l l l l l l l l l l l l l l l l l l l l l l l                                                                                                                                                   ",
"                                                                                                                                                                                                S S S S S S S S S S S S S S S S S S S S S S S S S S S S S S S S S S S S S S S S S S S S S S S S S I XXXXoXQ l l l l l l l l l l l l l l l l l l l l l l l l l l l l l l l l l l l l l l l l l l l l l l l l l l l l l l l l l l l l l l l l l l l l l l l l l l l l l l l l l l l l l l l l l l l l l l l l l l l l l l l l l l l l l l l l l l l l l l l l l l l l l l l l l l l l l l l l l l l l l l l l l l l l l l l l l l l l l l l l l l l l l l l l l l l l l l l l l l l l l l l l l l l l l l l l l l l l l l l l l l l l l l l l l l l l l l l l l l l l l l l l l l l l <.E.E.E.E.E.E.E.E.E.-.l l l l l l l l l l l l l l l l l l l l l l l l l l l l l l l l l l l l l l                                                                                                                                                   ",
"                                                                                                                                                                                                S S S S S S S S S S S S S S S S S S S S S S S S S S S S S S S S S S S S S S S S S S S S S S S S S I XXXXoXQ l l l l l l l l l l l l l l l l l l l l l l l l l l l l l l l l l l l l l l l l l l l l l l l l l l l l l l l l l l l l l l l l l l l l l l l l l l l l l l l l l l l l l l l l l l l l l l l l l l l l l l l l l l l l l l l l l l l l l l l l l l l l l l l l l l l l l l l l l l l l l l l l l l l l l l l l l l l l l l l l l l l l l l l l l l l l l l l l l l l l l l l l l l l l l l l l l l l l l l l l l l l l l l l l l l l l l l l l l l l l l l l l l l l l >.E.E.E.E.E.E.E.E.E.>.l l l l l l l l l l l l l l l l l l l l l l l l l l l l l l l l l l l l l l                                                                                                                                                   ",
"                                                                                                                                                                                                S S S S S S S S S S S S S S S S S S S S S S S S S S S S S S S S S S S S S S S S S S S S S S S S S I XXXXoXQ l l l l l l l l l l l l l l l l l l l l l l l l l l l l l l l l l l l l l l l l l l l l l l l l l l l l l l l l l l l l l l l l l l l l l l l l l l l l l l l l l l l l l l l l l l l l l l l l l l l l l l l l l l l l l l l l l l l l l l l l l l l l l l l l l l l l l l l l l l l l l l l l l l l l l l l l l l l l l l l l l l l l l l l l l l l l l l l l l l l l l l l l l l l l l l l l l l l l l l l l l l l l l l l l l l l l l l l l l l l l l l l l l l l l $.E.E.E.E.E.E.E.E.E.,.l l l l l l l l l l l l l l l l l l l l l l l l l l l l l l l l l l l l l l                                                                                                                                                   ",
"                                                                                                                                                                                                S S S S S S S S S S S S S S S S S S S S S S S S S S S S S S S S S S S S S S S S S S S S S S S S S I XXXXoXQ l l l l l l l l l l l l l l l l l l l l l l l l l l l l l l l l l l l l l l l l l l l l l l l l l l l l l l l l l l l l l l l l l l l l l l l l l l l l l l l l l l l l l l l l l l l l l l l l l l l l l l l l l l l l l l l l l l l l l l l l l l l l l l l l l l l l l l l l l l l l l l l l l l l l l l l l l l l l l l l l l l l l l l l l l l l l l l l l l l l l l l l l l l l l l l l l l l l l l l l l l l l l l l l l l l l l l l l l l l l l l l l l l l l l o.E.E.E.E.E.E.E.E.E.^.l l l l l l l l l l l l l l l l l l l l l l l l l l l l l l l l l l l l l l                                                                                                                                                   ",
"                                                                                                                                                                                                S S S S S S S S S S S S S S S S S S S S S S S S S S S S S S S S S S S S S S S S S S S S S S S S S I XXXXoXQ l l l l l l l l l l l l l l l l l l l l l l l l l l l l l l l l l l l l l l l l l l l l l l l l l l l l l l l l l l l l l l l l l l l l l l l l l l l l l l l l l l l l l l l l l l l l l l l l l l l l l l l l l l l l l l l l l l l l l l l l l l l l l l l l l l l l l l l l l l l l l l l l l l l l l l l l l l l l l l l l l l l l l l l l l l l l l l l l l l l l l l l l l l l l l l l l l l l l l l l l l l l l l l l l l l l l l l l l l l l l l l l l l l l l m E.E.E.E.E.E.E.E.E./.l l l l l l l l l l l l l l l l l l l l l l l l l l l l l l l l l l l l l l                                                                                                                                                   ",
"                                                                                                                                                                                                S S S S S S S S S S S S S S S S S S S S S S S S S S S S S S S S S S S S S S S S S S S S S S S S S I XXXXoXQ l l l l l l l l l l l l l l l l l l l l l l l l l l l l l l l l l l l l l l l l l l l l l l l l l l l l l l l l l l l l l l l l l l l l l l l l l l l l l l l l l l l l l l l l l l l l l l l l l l l l l l l l l l l l l l l l l l l l l l l l l l l l l l l l l l l l l l l l l l l l l l l l l l l l l l l l l l l l l l l l l l l l l l l l l l l l l l l l l l l l l l l l l l l l l l l l l l l l l l l l l l l l l l l l l l l l l l l l l l l l l l l l l l l l l E.E.E.E.E.E.E.E.E.J.l l l l l l l l l l l l l l l l l l l l l l l l l l l l l l l l l l l l l l                                                                                                                                                   ",
"                                                                                                                                                                                                S S S S S S S S S S S S S S S S S S S S S S S S S S S S S S S S S S S S S S S S S S S S S S S S S I XXXXoXQ l l l l l l l l l l l l l l l l l l l l l l l l l l l l l l l l l l l l l l l l l l l l l l l l l l l l l l l l l l l l l l l l l l l l l l l l l l l l l l l l l l l l l l l l l l l l l l l l l l l l l l l l l l l l l l l l l l l l l l l l l l l l l l l l l l l l l l l l l l l l l l l l l l l l l l l l l l l l l l l l l l l l l l l l l l l l l l l l l l l l l l l l l l l l l l l l l l l l l l l l l l l l l l l l l l l l l l l l l l l l l l l l l l l l l P.E.E.E.E.E.E.E.E.U.l l l l l l l l l l l l l l l l l l l l l l l l l l l l l l l l l l l l l l                                                                                                                                                   ",
"                                                                                                                                                                                                S S S S S S S S S S S S S S S S S S S S S S S S S S S S S S S S S S S S S S S S S S S S S S S S S I XXXXoXQ l l l l l l l l l l l l l l l l l l l l l l l l l l l l l l l l l l l l l l l l l l l l l l l l l l l l l l l l l l l l l l l l l l l l l l l l l l l l l l l l l l l l l l l l l l l l l l l l l l l l l l l l l l l l l l l l l l l l l l l l l l l l l l l l l l l l l l l l l l l l l l l l l l l l l l l l l l l l l l l l l l l l l l l l l l l l l l l l l l l l l l l l l l l l l l l l l l l l l l l l l l l l l l l l l l l l l l l l l l l l l l l l l l l l l J.E.E.E.E.E.E.E.E.W.l l l l l l l l l l l l l l l l l l l l l l l l l l l l l l l l l l l l l l                                                                                                                                                   ",
"                                                                                                                                                                                                S S S S S S S S S S S S S S S S S S S S S S S S S S S S S S S S S S S S S S S S S S S S S S S S S I XXXXoXQ l l l l l l l l l l l l l l l l l l l l l l l l l l l l l l l l l l l l l l l l l l l l l l l l l l l l l l l l l l l l l l l l l l l l l l l l l l l l l l l l l l l l l l l l l l l l l l l l l l l l l l l l l l l l l l l l l l l l l l l l l l l l l l l l l l l l l l l l l l l l l l l l l l l l l l l l l l l l l l l l l l l l l l l l l l l l l l l l l l l l l l l l l l l l l l l l l l l l l l l l l l l l l l l l l l l l l l l l l l l l l l l l l l l l l F.E.E.E.E.E.E.E.E.E.x l l l l l l l l l l l l l l l l l l l l l l l l l l l l l l l l l l l l l                                                                                                                                                   ",
"                                                                                                                                                                                                S S S S S S S S S S S S S S S S S S S S S S S S S S S S S S S S S S S S S S S S S S S S S S S S S P XXXXoXQ l l l l l l l l l l l l l l l l l l l l l l l l l l l l l l l l l l l l l l l l l l l l l l l l l l l l l l l l l l l l l l l l l l l l l l l l l l l l l l l l l l l l l l l l l l l l l l l l l l l l l l l l l l l l l l l l l l l l l l l l l l l l l l l l l l l l l l l l l l l l l l l l l l l l l l l l l l l l l l l l l l l l l l l l l l l l l l l l l l l l l l l l l l l l l l l l l l l l l l l l l l l l l l l l l l l l l l l l l l l l l l l l l l l l l ~.E.E.E.E.E.E.E.E.E.m l l l l l l l l l l l l l l l l l l l l l l l l l l l l l l l l l l l l l                                                                                                                                                   ",
"                                                                                                                                                                                                S S S S S S S S S S S S S S S S S S S S S S S S S S S S S S S S S S S S S S S S S S S S S S S S S P XXXXoXQ l l l l l l l l l l l l l l l l l l l l l l l l l l l l l l l l l l l l l l l l l l l l l l l l l l l l l l l l l l l l l l l l l l l l l l l l l l l l l l l l l l l l l l l l l l l l l l l l l l l l l l l l l l l l l l l l l l l l l l l l l l l l l l l l l l l l l l l l l l l l l l l l l l l l l l l l l l l l l l l l l l l l l l l l l l l l l l l l l l l l l l l l l l l l l l l l l l l l l l l l l l l l l l l l l l l l l l l l l l l l l l l l l l l l l 2.E.E.E.E.E.E.E.E.E.x l l l l l l l l l l l l l l l l l l l l l l l l l l l l l l l l l l l l l                                                                                                                                                   ",
"                                                                                                                                                                                                S S S S S S S S S S S S S S S S S S S S S S S S S S S S S S S S S S S S S S S S S S S S S S S S S P XXXXoXQ l l l l l l l l l l l l l l l l l l l l l l l l l l l l l l l l l l l l l l l l l l l l l l l l l l l l l l l l l l l l l l l l l l l l l l l l l l l l l l l l l l l l l l l l l l l l l l l l l l l l l l l l l l l l l l l l l l l l l l l l l l l l l l l l l l l l l l l l l l l l l l l l l l l l l l l l l l l l l l l l l l l l l l l l l l l l l l l l l l l l l l l l l l l l l l l l l l l l l l l l l l l l l l l l l l l l l l l l l l l l l l l l l l l l l $.E.E.E.E.E.E.E.E.J.l l l l l l l l l l l l l l l l l l l l l l l l l l l l l l l l l l l l l l                                                                                                                                                   ",
"                                                                                                                                                                                                S S S S S S S S S S S S S S S S S S S S S S S S S S S S S S S S S S S S S S S S S S S S S S S S S P XXXXoXQ l l l l l l l l l l l l l l l l l l l l l l l l l l l l l l l l l l l l l l l l l l l l l l l l l l l l l l l l l l l l l l l l l l l l l l l l l l l l l l l l l l l l l l l l l l l l l l l l l l l l l l l l l l l l l l l l l l l l l l l l l l l l l l l l l l l l l l l l l l l l l l l l l l l l l l l l l l l l l l l l l l l l l l l l l l l l l l l l l l l l l l l l l l l l l l l l l l l l l l l l l l l l l l l l l l l l l l l l l l l l l l l l l l l l l l J.E.E.E.E.E.E.E.>.l l l l l l l l l l l l l l l l l l l l l l l l l l l l l l l l l l l l l l                                                                                                                                                   ",
"                                                                                                                                                                                                S S S S S S S S S S S S S S S S S S S S S S S S S S S S S S S S S S S S S S S S S S S S S S S S S P XXXXoXQ l l l l l l l l l l l l l l l l l l l l l l l l l l l l l l l l l l l l l l l l l l l l l l l l l l l l l l l l l l l l l l l l l l l l l l l l l l l l l l l l l l l l l l l l l l l l l l l l l l l l l l l l l l l l l l l l l l l l l l l l l l l l l l l l l l l l l l l l l l l l l l l l l l l l l l l l l l l l l l l l l l l l l l l l l l l l l l l l l l l l l l l l l l l l l l l l l l l l l l l l l l l l l l l l l l l l l l l l l l l l l l l l l l l l l l o.R.E.E.E.E.E./.l l l l l l l l l l l l l l l l l l l l l l l l l l l l l l l l l l l l l l l                                                                                                                                                   ",
"                                                                                                                                                                                                S S S S S S S S S S S S S S S S S S S S S S S S S S S S S S S S S S S S S S S S S S S S S S S S S P XXXXoXQ l l l l l l l l l l l l l l l l l l l l l l l l l l l l l l l l l l l l l l l l l l l l l l l l l l l l M o.x l l l l l l l l l l l l l l l l l l l l l l l l l l l l l l l l l l l l l l l l l l l l l l l l l l l l l l l l l l l l l l l l l l l l l l l l l l l l l l l l l l l l l l l l l l l l l l l l l l l l l l l l l l l l l l l l l l l l l l l l l l l l l l l l l l l l l l l l l l l l l l l l l l l l l l l l l l l l l l l l l l l l l l l l l l l l l l l l o.H.E.E.P.,.x l l l l l l l l l l l l l l l l l l l l l l l l l l l l l l l l l l l l l l l                                                                                                                                                   ",
"                                                                                                                                                                                                S S S S S S S S S S S S S S S S S S S S S S S S S S S S S S S S S S S S S S S S S S S S S S S S S P XXXXoXQ l l l l l l l l l l l l l l l l l l l l l l l l l l l l l l l l l l l l l l l l l l l l l l l l l l $.I.Y.Y.Q.^.x l l l l l l l l l l l l l l l l l l l l l l l l l l l l l l l l l l l l l l l l l l l l l l l l l l l l l l l l l l l l l l l l l l l l l l l l l l l l l l l l l l l l l l l l l l l l l l l l l l l l l l l l l l l l l l l l l l l l l l l l l l l l l l l l l l l l l l l l l l l l l l l l l l l l l l l l l l l l l l l l l l l l l l l l l l l l l l l l n M x l l l l l l l l l l l l l l l l l l l l l l l l l l l l l l l l l l l l l l l l l                                                                                                                                                   ",
"                                                                                                                                                                                                S S S S S S S S S S S S S S S S S S S S S S S S S S S S S S S S S S S S S S S S S S S S S S S S S P XXXXoXQ l l l l l l l l l l l l l l l l l l l l l l l l l l l l l l l l l l l l l l l l l l l l l l l l l ..Y.Y.Y.Y.Y.Y.F.l l l l l l l l l l l l l l l l l l l l l l l l l l l l l l l l l l l l l l l l l l l l l l l l l l l l l l l l l l l l l l l l l l l l l l l l l l l l l l l l l l l l l l l l l l l l l l l l l l l l l l l l l l l l l l l l l l l l l l l l l l l l l l l l l l l l l l l l l l l l l l l l l l l l l l l l l l l l l l l l l l l l l l l l l l l l l l l l l l l l l l l l l l l l l l l l l l l l l l l l l l l l l l l l l l l l l l l l l l l l                                                                                                                                                   ",
"                                                                                                                                                                                                S S S S S S S S S S S S S S S S S S S S S S S S S S S S S S S S S S S S S S S S S S S S S S S S S P XXXXoXW l l l l l l l l l l l l l l l l l l l l l l l l l l l l l l l l l l l l l l l l l l l l l l l l x T.Y.Y.Y.Y.Y.Y.Y...l l l l l l l l l l l l l l l l l l l l l l l l l l l l l l l l l l l l l l l l l l l l l l l l l l l l l l l l l l l l l l l l l l l l l l l l l l l l l l l l l l l l l l l l l l l l l l l l l l l l l l l l l l l l l l l l l l l l l l l l l l l l l l l l l l l l l l l l l l l l l l l l l l l l l l l l l l l l l l l l l l l l l l l l l l l l l l l l l l l l l l l l l l l l l l l l l l l l l l l l l l l l l l l l l l l l l l l l l l l                                                                                                                                                   ",
"                                                                                                                                                                                                S S S S S S S S S S S S S S S S S S S S S S S S S S S S S S S S S S S S S S S S S S S S S S S S S P XXXXoXQ l l l l l l l l l l l l l l l l l l l l l l l l l l l l l l l l l l l l l l l l l l l l l l l l >.Y.Y.Y.Y.Y.Y.Y.Y.L.l l l l l l l l l l l l l l l l l l l l l l l l l l l l l l l l l l l l l l l l l l l l l l l l l l l l l l l l l l l l l l l l l l l l l l l l l l l l l l l l l l l l l l l l l l l l l l l l l l l l l l l l l l l l l l l l l l l l l l l l l l l l l l l l l l l l l l l l l l l l l l l l l l l l l l l l l l l l l l l l l l l l l l l l l l l l l l l l l l l l l l l l l l l l l l l l l l l l l l l l l l l l l l l l l l l l l l l l l l l                                                                                                                                                   ",
"                                                                                                                                                                                                S S S S S S S S S S S S S S S S S S S S S S S S S S S S S S S S S S S S S S S S S S S S S S S S S P XXXXoXW l l l l l l l l l l l l l l l l l l l l l l l l l l l l l l l l l l l l l l l l l l l l l l l l G.Y.Y.Y.Y.Y.Y.Y.Y.Q.l l l l l l l l l l l l l l l l l l l l l l l l l l l l l l l l l l l l l l l l l l l l l l l l l l l l l l l l l l l l l l l l l l l l l l l l l l l l l l l l l l l l l l l l l l l l l l l l l l l l l l l l l l l l l l l l l l l l l l l l l l l l l l l l l l l l l l l l l l l l l l l l l l l l l l l l l l l l l l l l l l l l l l l l l l l l l l l l l l l l l l l l l l l l l l l l l l l l l l l l l l l l l l l l l l l l l l l l l l l                                                                                                                                                   ",
"                                                                                                                                                                                                S S S S S S S S S S S S S S S S S S S S S S S S S S S S S S S S S S S S S S S S S S S S S S S S S P XXXXoXW l l l l l l l l l l l l l l l l l l l l l l l l l l l l l l l l l l l l l l l l l l l l l l l l L.Y.Y.Y.Y.Y.Y.Y.Y.Y.x l l l l l l l l l l l l l l l l l l l l l l l l l l l l l l l l l l l l l l l l l l l l l l l l l l l l l l l l l l l l l l l l l l l l l l l l l l l l l l l l l l l l l l l l l l l l l l l l l l l l l l l l l l l l l l l l l l l l l l l l l l l l l l l l l l l l l l l l l l l l l l l l l l l l l l l l l l l l l l l l l l l l l l l l l l l l l l l l l l l l l l l l l l l l l l l l l l l l l l l l l l l l l l l l l l l l l l l l l k                                                                                                                                                   ",
"                                                                                                                                                                                                S S S S S S S S S S S S S S S S S S S S S S S S S S S S S S S S S S S S S S S S S S S S S S S S S P XXXXoXW l l l l l l l l l l l l l l l l l l l l l l l l l l l l l l l l l l l l l l l l l l l l l l l l H.Y.Y.Y.Y.Y.Y.Y.Y.Y.n l l l l l l l l l l l l l l l l l l l l l l l l l l l l l l l l l l l l l l l l l l l l l l l l l l l l l l l l l l l l l l l l l l l l l l l l l l l l l l l l l l l l l l l l l l l l l l l l l l l l l l l l l l l l l l l l l l l l l l l l l l l l l l l l l l l l l l l l l l l l l l l l l l l l l l l l l l l l l l l l l l l l l l l l l l l l l l l l l l l l l l l l l l l l l l l l l l l l l l l l l l l l l l l l l l l l l l l l l l                                                                                                                                                   ",
"                                                                                                                                                                                                S S S S S S S S S S S S S S S S S S S S S S S S S S S S S S S S S S S S S S S S S S S S S S S S S P XXXXoXW l l l l l l l l l l l l l l l l l l l l l l l l l l l l l l l l l l l l l l l l l l l l l l l l F.Y.Y.Y.Y.Y.Y.Y.Y.Y.M l l l l l l l l l l l l l l l l l l l l l l l l l l l l l l l l l l l l l l l l l l l l l l l l l l l l l l l l l l l l l l l l l l l l l l l l l l l l l l l l l l l l l l l l l l l l l l l l l l l l l l l l l l l l l l l l l l l l l l l l l l l l l l l l l l l l l l l l l l l l l l l l l l l l l l l l l l l l l l l l l l l l l l l l l l l l l l l l l l l l l l l l l l l l l l l l l l l l l l l l l l l l l l l l l l l l l l l l l l                                                                                                                                                   ",
"                                                                                                                                                                                                V V V V S S S S V V V V S S S S V V V V S S V V V V V V V V V V V V V S V V V V V S V V V V S S V P XXXXoXQ l l l l l l l l l l l l l l l l l l l l l l l l l l l l l l l l l l l l l l l l l l l l l l l l /.Y.Y.Y.Y.Y.Y.Y.Y.Y.o.l l l l l l l l l l l l l l l l l l l l l l l l l l l l l l l l l l l l l l l l l l l l l l l l l l l l l l l l l l l l l l l l l l l l l l l l l l l l l l l l l l l l l l l l l l l l l l l l l l l l l l l l l l l l l l l l l l l l l l l l l l l l l l l l l l l l l l l l l l l l l l l l l l l l l l l l l l l l l l l l l l l l l l l l l l l l l l l l l l l l l l l l l l l l l l l l l l l l l l l l l l l l l l l l l l l l l l l l l l                                                                                                                                                   ",
"                                                                                                                                                                                                H H S S S S H H H H S S S S H V H H H H S S S H H H V S H H H H S S S S H H S S H H H H H H H S H P XXXXoXW l l k k l l l l k k k k k k l l l l k l l l k k k k l l l l k k l l k k k k l l k k k k l l l l ~.Y.Y.Y.Y.Y.Y.Y.Y.Y.o.k k k l l l l k l l l k k k k l l l l k k l l k k k k k k k l k k l l l l k k k k l l l l k k k k l l l l k k k k l l l l k k k k k k l l l l k l l l k k k k l l l l k k l l k k k k k k k l k k l l l l k k k k l l l l k k k k k k l l l l k l l l k k k k l l l l k k l l k k k k l l k k k k l l l l k k k k l l l l k k k k k k l l l l k l l l k k k k l l l l k k l l k k k k k k l l k k l l l l k k k k l l l l k k k k k k k k l l l l k                                                                                                                                                   ",
"                                                                                                                                                                                                H H S S S S H H H H S S S S H H H H H H S S S V H H H S H H V H S S S S H H S S H H H H H H V S S P XXXXoXW l l k k l l l l k k k k k k l l l l k l l l k k k k l l l l k l l l k k k k l l k k k k l l l l ^.Y.Y.Y.Y.Y.Y.Y.Y.Y.$.k l l l l l l k l l l k k k k l l l l k l l l k k k k k k l l k k l l l l k k k k l l l l k k k k l l l l k k k k l l l l k k k k k k l l l l k l l l k k k k l l l l k l l l k k k k k k l l k k l l l l k k k k l l l l k k k k k k l l l l k l l l k k k k l l l l k l l l k k k k l l k k k k l l l l k k k k l l l l k k k k k k l l l l k l l l k k k k l l l l k l l l k k k k k k l l k k l l l l k k k k l l l l k k k k k k k k l l l l l                                                                                                                                                   ",
"                                                                                                                                                                                                H H S S S H H H H S S S S H H H S S H V S S S S H H S S S S S S S S S V H H S S S S H S H H S S H P XXXXoXW l l k k k l l l l k l l k k l l k k k k l l l l k k l l l k k k l l l l k k l l l l k k k l l l 1.Y.Y.Y.Y.Y.Y.Y.Y.Y...l l l l l k k k k l l l l k k l l l k k k l l l l k k k k l l k k k l l l l k k k k l l l l k k k k l l l l k k k k l l l l k l l k k l l k k k k l l l l k k l l l k k k l l l l k k k k l l k k k l l l l k k k k l l l l k l l k k l l k k k k l l l l k k l l l k k k l l l l k k l l l l k k k l l l l k k k k l l l l k l l k k l l k k k k l l l l k k l l l k k k l l l l k k k k l l k k k l l l l k k k k l l l l k l l k k k k l k l l l                                                                                                                                                   ",
"                                                                                                                                                                                                H H S S S S H H H H S S S H H H S S S S S S S V V H S S S S S S S S S H H H S S S S S S H H S S H P XXXXoXW l l k k k l l l k k l l l k l l l k k k l l l l l k l l l k k k l l l l l l l l l l k k k l l l <.Y.Y.Y.Y.Y.Y.Y.Y.Y.>.l l l l l l k k k l l l l l k l l l k k k l l l l l l k k l l k k k k l l l k k k k l l l k k k k k k l l l k k k k l l l k k l l l k l l l k k k l l l l l k l l l k k k l l l l l l k k l l k k k k l l l k k k k l l l k k l l l k l l l k k k l l l l l k l l l k k k l l l l l l l l l l k k k k l l l k k k k l l l k k l l l k l l l k k k l l l l l k l l l k k k l l l l l l k k k l k k k k l l l k k k k l l l k k l l l l k l l k l l l                                                                                                                                                   ",
"                                                                                                                                                                                                H H H S S S H H S S H H S S S S S S S S S S S H H H S S S S S S S S S S S S H H H S S S S S S S S P XXXXoXW l l l l k k l l l l l l k l l l l l l l l l l l l l l l k k k l l l l l l l l l l l l l l l l l >.Y.Y.Y.Y.Y.Y.Y.Y.Y.>.l l k k k k l l l l k k l l l k k k l l l k k k l l l l l l l k k k l l l k k l l k k l l l l k k k l l l k k l l k k l l l l l l l l l l l k k k l l l l l l k k k l l l k k k l l l l l l l k k k l l l k k l l k k l l l l l l k l l l l l l l l l l l l l l l k l l l l l l l l l l l l l l l l k l l l l l l l l l l l l l l l l l l l k k k l l l l l l k k k l l l k k k l l l l l l l k k k l l l k k l l k k l l l l l l l l l l l l l l l                                                                                                                                                   ",
"                                                                                                                                                                                                H H H S S S S H S V H H S S S S S S S S S S S S H H S S S S S S H H S S S S H H V S S S S S S S S P XXXXoXW l l l k k l l l l k l l k k l l l l k k l l l l l k l l k k l l l l k k l l l l l k l l l l l l >.Y.Y.Y.Y.Y.Y.Y.Y.Y.<.l k k k l k k l l l l k k l l k k l l l l k k k l l l l l l l k k k l l l l k l k k l l l l k k k k l l l l k l k k l l l l k l l l l l l l l k k l l l l l l k k l l l l k k k l l l l l l l k k k l l l l k l k k l l l l k l l k k l l l l l l l l k k l l l l k k l l l l l l l l l l l k l l l k l l l l l l l k l l l l l l l l l l l k k k l l l l l l k k l l l l k k l l l l l l l l k k k l l l l k l k k l l l l k l l k k l l l l l l k                                                                                                                                                   ",
"                                                                                                                                                                                                H H S S S S H H S S H H S S S S H H V H S S S S H H V S H H H H H H S S S S S H S S S S S S H H S P XXXXoXW k k k k k k l l k k l k k k k k l k k k k k k k k k l k k k k k l l k k k k k k k k l l k k k k -.Y.Y.Y.Y.Y.Y.Y.Y.Y.2.k k k k k l l l k k k k k k k k k l l l l k k k k l l l l k k k k k k l l k k k k k k l l k k k k k k l l k k k k k k l l k k k k k k l l l l k k k k k k k k k k l l l l k k k k l l l l k k k k k k l l k k k k k k l l k k l k k k k k l k l l k k k k k k l k k k k k l l k k k k k k k k k k k k l l k l l l k k k k l l k k k k l l l l k k k k k k k k k k k l l l k k k k l l l l k k k k k k l l k k k k k k l l k k l k k k k k k k l l l                                                                                                                                                   ",
"                                                                                                                                                                                                S V S V S S H V S S H H V V V V H H H H S S S S H H V V H H H H H H H V V V H H V V S S V V H H V P XXXXoXW k k l l k k k l k k l k k k k k k k k k k k k k k k l l k k k k l l k k k k k k k k k l k k k k $.Y.Y.Y.Y.Y.Y.Y.Y.Y.^.k k k k k l l l l l k l k k k k k k l l l k k k l l l l k k k k k k l l l k k l l k k k l k k k k k l l l k k l l k k k l k k k k k k l l l l k k k k k k k k k k k l l l k k k l l l l k k k k k k l l l k k l l k k k l k k l k k k k k k k l l l k k k k k k k k k k k k k k k k k k k k k l l k k k k k k k k k k k k l l k k k k l l l l k k k k k k k k k k k l l l k k k k l l l l k k k k k l l l k k l l k k k l k k k k k k k k k k l l l                                                                                                                                                   ",
"                                                                                                                                                                                                S H H S S S H H S H H H H H H H H H S S S H H H H H H H H H H H S S S H H H H H H H H S S S H H H P XXXXoXW l k l k k k k k k k k k k k k k k k l l l k k k k l k k k k k k k k l l l k k k k l k k k k k k o.Y.Y.Y.Y.Y.Y.Y.Y.Y.~.k k k l k l l k k k k k k k k l l l l k l l l k k l l l l k k k l k l l l k k l k k k k k k k k l k l l l k k l k k k k k k k k k l l l k k k k k k k k k k k l l l l k l l l k k l l l l k k k l k l l l k k l k k k k k k k k k k k k k k k k k k k l l k k k k k k k k k k l k k k k k k k l k k k k k k k k k k k k k k l k k l l k k k l k k k k k k k k l l l l k k l l k k l l l l k k k l k l l l k k l k k k k k k k k k k k k k k k k k k                                                                                                                                                   ",
"                                                                                                                                                                                                S H S S S S H H S S H H H H H H H H S S H H H H H H H H H H S H S S S H H H H S H H H H S S H H H P XXXXoXW l k l k k k l l k k k k k k k k k k l l l l k k k l k k k l k k k k l l l l k k k l k k k k k k M Y.Y.Y.Y.Y.Y.Y.Y.Y.F.k k k k k l l k k k k k k l k l k l l k l l l k k l l l l k k l l l l l l k k l k k k l l k k l l l l l l k k l k k k l l k k k k l l k k k k k k k k k k l k l k l l k l l l k k l l l l k k l l l l l l k k l k k k l l k k k k k k k k k k k k k k l k k k k k k k k k k k l l k k k k k k k k k k k k k k k k k k k k k k k k l l k k k k k k k k k k l k l l l l k l l l k k l l l l k k l l l l l l k k l k k k l l k k k k k k k k l k k k k                                                                                                                                                   ",
"                                                                                                                                                                                                S H S S S S S H H H H H H H S S H S S S H H H H H H H H S S S S S S H H H H S S H H H H S S S H H P XXXXoXW l l k k k k l l l l k k k k l l l l l l k k k k l l k k l l l l k k l l k k k k l l l k k k k k n Y.Y.Y.Y.Y.Y.Y.Y.Y.K.l l k k k k l k k k k l l l l k k k k k k l l k k k k l k k k k k l l l l l l k k k k l l l l k k l l l l l l k k k k l l l l k l l l k k k k k k k k l l l l k k k k k k l l k k k k l k k k k k l l l l l l k k k k l l l l k k k k l l l l k k l l l l k k k k l k l l k l l l l l k k k k k k k k k k l l l l k k k k k k k l l l k k k k k k k k l l l l k k k k k k l l k k k l l k k k k k l l l l l l k k k k l l l l k k k k l l l l k k k                                                                                                                                                   ",
"                                                                                                                                                                                                S H H H S S S H H H H H H S S S H H S S H H H H H H H S S S S S S S H H H H S S H H H H S S H H H P XXXXoXW l k k k k k l l l k k k l l l l l l l k k k k k l l k k l l l l l k l k k k k k l l l k k k k k k Y.Y.Y.Y.Y.Y.Y.Y.Y.I.l l l k k k l l k l l k l l l k k k k k k l k k k k k l k k k k k l l l l l k k k k k l l l k k k l l l l l k k k k k l l l k k k l l k k k k k k k l l l l l k k k k k k l k k k k k l k k k k k l l l l l k k k k k l l l k k k l l l l l l k k l l l l k k k k l l l l l l l l l x 0 5 i i i y y y @ @ @ @ @ @ y y y i : 9 z k l l k k k k k k k l l l l l k k k k k k l l k k k k k k k k k k l l l l l k k k k k l l l k k k k l l l l l k k                                                                                                                                                     ",
"                                                                                                                                                                                                S H H H H H S S S S S H H H S S H H H H S S S S S S H H H H H S S S S H H H S S H H H H S S S S H P XXXXoXW k k l l l l l l k k k l l l l l l l l l l l l l l l k k l l l l l l l l l l l l l l l l k k k l l T.Y.Y.Y.Y.Y.Y.Y.Y.Q.k k k l l l l k l l k l l l l l l l l l l k k l k k k l l l l k k l l l l l l l l l l l l k k k k l l l l l l l l l l l l k k l k k k l l l l l l l l k l l l l l l l l l k k l k k k l l l l k k l l l l l l l l l l l l k k k l l l k k k k k k k l k k k 0 : y @ ; * o . C.V.n.M.m.m.m.m.m.m.m.m.m.m.m.m.m.m.m.m.m.m.m.m.m.m.M.B.C.o - @ i 9 k l k k k k k k k k k k k l l l k k k l l l l k k l l l l l l l l l l l l k k l l l l l l l l l l                                                                                                                                                     ",
"                                                                                                                                                                                                S H H H S H S S S S S H H H S H H H H H S S S S S S H H H H H H S S S H H H S H S H H H S S S S H _ XXXXoXW k k k k k k k k k k k k k k k k k k k k k k k k k k k k k k k k k k k k k k k k k k k k k k k k k I.Y.Y.Y.Y.Y.Y.Y.Y.Y.l k k k k k k k k k k k k k k k k k k k k k k k k k k k k k k k k k k k k k k k k k k k k k k k k k k k k k k k k k k k k k k k k k k k k k k k k k k k k k k k k k k k k k k k k k k k k k k k k k k k k k k k k k k k k k k k k k k k k k k k > q ; o V.M.m.m.m.m.m.m.m.m.m.m.m.m.m.m.m.m.m.m.m.m.m.m.m.m.m.m.m.m.m.m.m.m.m.m.m.m.m.m.m.m.m.m.n.. ; y 0 k k k k k k k k k k k k k k k k k k k k k k k k k k k k k k k k k k k k k k k k k k k k                                                                                                                                                     ",
"                                                                                                                                                                                                S H H H H S S S S S S S H H H H S S H H S H S S S S S H S S S S S S S S H H H H S S H H H H S S H _ XXXXoXW k k k k k k k k k k k k k k k k k k k k k k k k k k k k k k k k k k k k k k k k k k k k k k k k k L.Y.Y.Y.Y.Y.Y.Y.Y.Y.n k k k k k k k k k k k k k k k k k k k k k k k k k k k k k k k k k k k k k k k k k k k k k k k k k k k k k k k k k k k k k k k k k k k k k k k k k k k k k k k k k k k k k k k k k k k k k k k k k k k k k k k k k k k k k k k k k k k 9 - . M.m.m.m.m.m.m.m.m.m.m.m.m.m.m.m.m.m.m.m.m.m.m.m.m.m.m.m.m.m.m.m.m.m.m.m.m.m.m.m.m.m.m.m.m.m.m.m.m.m.m.m.m.m.B.% t z k k k k k k k k k k k k k k k k k k k k k k k k k k k k k k k k k k k k k k k k                                                                                                                                                     ",
"                                                                                                                                                                                                H H H H H H H H H H H H H H H H H H H H H H H H H H H H H H H H H H H H H H H H H H H H H H H H H _ XXXXoXW k k k k k k k k k k k k k k k k k k k k k k k k k k k k k k k k k k k k k k k k k k k k k k k k k F.Y.Y.Y.Y.Y.Y.Y.Y.Y.o.k k k k k k k k k k k k k k k k k k k k k k k k k k k k k k k k k k k k k k k k k k k k k k k k k k k k k k k k k k k k k k k k k k k k k k k k k k k k k k k k k k k k k k k k k k k k k k k k k k k k k k k k k k k k k k k k k k k y m.m.m.m.m.m.m.m.m.m.m.m.m.m.m.m.m.m.m.m.m.m.m.m.m.m.m.m.m.m.m.m.m.m.m.m.m.m.m.m.m.m.m.m.m.m.m.m.m.m.m.m.m.m.m.m.m.m.m.M.o @ 1 k k k k k k k k k k k k k k k k k k k k k k k k k k k k k k k k k k k k k                                                                                                                                                     ",
"                                                                                                                                                                                                H H H H H H H H H H H H H H H H H H H H H H H H H H H H H H H H H H H H H H H H H H H H H H H H H _ XXXXOXW k k k k k k k k k k k k k k k k k k k k k k k k k k k k k k k k k k k k k k k k k k k k k k k k k ~.Y.Y.Y.Y.Y.Y.Y.Y.Y.$.k k k k k k k k k k k k k k k k k k k k k k k k k k k k k k k k k k k k k k k k k k k k k k k k k k k k k k k k k k k k k k k k k k k k k k k k k k k k k k k k k k k k k k k k k k k k k k k k k k k k k k k k k k k k k k k k k k k y m.m.m.m.m.m.m.m.m.m.m.m.m.m.m.m.m.m.m.m.m.m.m.m.m.m.m.m.m.m.m.m.m.m.m.m.m.m.m.m.m.m.m.m.m.m.m.m.m.m.m.m.m.m.m.m.m.m.m.m.m.m.M.o i k k k k k k k k k k k k k k k k k k k k k k k k k k k k k k k k k k k                                                                                                                                                     ",
"                                                                                                                                                                                                H H H H H H H H H H H H H H H H H H H H H H H H H H H H H H H H H H H H H H H H H H H H H H H H H _ XXXXoXW k k k k k k k k k k k k k k k k k k k k k k k k k k k k k k k k k k k k k k k k k k k k k k k k k 2.Y.Y.Y.Y.Y.Y.Y.Y.Y...k k k k k k k k k k k k k k k k k k k k k k k k k k k k k k k k k k k k k k k k k k k k k k k k k k k k k k k k k k k k k k k k k k k k k k k k k k k k k k k k k k k k k k k k k k k k k k k k k k k k k k k k k k k k k k k k k k k y m.m.m.m.m.m.m.m.m.m.m.m.m.m.m.m.m.m.m.m.m.m.m.m.m.m.m.m.m.m.m.m.m.m.m.m.m.m.m.m.m.m.m.m.m.m.m.m.m.m.m.m.m.m.m.m.m.m.m.m.m.m.m.m.m.V.@ k k k k k k k k k k k k k k k k k k k k k k k k k k k k k k k k k                                                                                                                                                     ",
"                                                                                                                                                                                                H H H H H H H H H H H H H H H H H H H H H H H H H H H H H H H H H H H H H H H H H H H H H H H H H _ XXXXOXW k k k k k k k k k k k k k k k k k k k k k k k k k k k k k k k k k k k k k k k k k k k k k k k k k >.Y.Y.Y.Y.Y.Y.Y.Y.Y.>.k k k k k k k k k k k k k k k k k k k k k k k k k k k k k k k k k k k k k k k k k k k k k k k k k k k k k k k k k k k k k k k k k k k k k k k k k k k k k k k k k k k k k k k k k k k k k k k k k k k k k k k k k k k k k k k k k k k y m.m.m.m.m.m.m.m.m.m.m.m.m.m.m.m.m.m.m.m.m.m.m.m.m.m.m.m.m.m.m.m.m.m.m.m.m.m.m.m.m.m.m.m.m.m.m.m.m.m.m.m.m.m.m.m.m.m.m.m.m.m.m.m.m.m.m.B.@ x k k k k k k k k k k k k k k k k k k k k k k k k k k k k k k                                                                                                                                                     ",
"                                                                                                                                                                                                H H H H H H H H H H H H H H H H H H H H H H H H H H H H H H H H H H H H H H H H H H H H H H H H H _ XXXXOXW k k k k k k k k k k k k k k k k k k k k k k k k k k k k k k k k k k k k k k k k k k k k k k k k k ..Y.Y.Y.Y.Y.Y.Y.Y.Y.2.k k k k k k k k k k k k k k k k k k k k k k k k k k k k k k k k k k k k k k k k k k k k k k k k k k k k k k k k k k k k k k k k k k k k k k k k k k k k k k k k k k k k k k k k k k k k k k k k k k k k k k k k k k k k k k k k k k k y m.m.m.m.m.m.m.m.m.m.m.m.m.m.m.m.m.m.m.m.m.m.m.m.m.m.m.m.m.m.m.m.m.m.m.m.m.m.m.m.m.m.m.m.m.m.m.m.m.m.m.m.m.m.m.m.m.m.m.m.m.m.m.m.m.m.m.m.m.B.y k k k k k k k k k k k k k k k k k k k k k k k k k k k k k                                                                                                                                                     ",
"                                                                                                                                                                                                H H H H H H H H H H H H H H H H H H H H H H H H H H H H H H H H H H H H H H H H H H H H H H H H H P XXXXoXW k k k k k k k k k k k k k k k k k k k k k k k k k k k k k k k k k k k k k k k k k k k k k k k k k $.Y.Y.Y.Y.Y.Y.Y.Y.Y./.k k k k k k k k k k k k k k k k k k k k k k k k k k k k k k k k k k k k k k k k k k k k k k k k k k k k k k k k k k k k k k k k k k k k k k k k k k k k k k k k k k k k k k k k k k k k k k k k k k k k k k k k k k k k k k k k k k k y m.m.m.m.m.m.m.m.m.m.m.m.m.m.m.m.m.m.m.m.m.m.m.m.m.m.m.m.m.m.m.m.m.m.m.m.m.m.m.m.m.m.m.m.m.m.m.m.m.m.m.m.m.m.m.m.m.m.m.m.m.m.m.m.m.m.m.m.m.m.m.o 9 k k k k k k k k k k k k k k k k k k k k k k k k k k k                                                                                                                                                     ",
"                                                                                                                                                                                                H H H H H H H H H H H H H H H H H H H H H H H H H H H H H H H H H H H H H H H H H H H H H H H H H P XXXXOXW k k k k k k k k k k k k k k k k k k k k k k k k k k k k k k k k k k k k k k k k k k k k k k k k k M Y.Y.Y.Y.Y.Y.Y.Y.Y.L.k k k k k k k k k k k k k k k k k k k k k k k k k k k k k k k k k k k k k k k k k k k k k k k k k k k k k k k k k k k k k k k k k k k k k k k k k k k k k k k k k k k k k k k k k k k k k k k k k k k k k k k k k k k k k k k k k k k y m.m.m.m.m.m.m.m.m.m.m.m.m.m.m.m.m.m.m.m.m.m.m.m.m.m.m.m.m.m.m.m.m.m.m.m.m.m.m.m.m.m.m.m.m.m.m.m.m.m.m.m.m.m.m.m.m.m.m.m.m.m.m.m.m.m.m.m.m.m.m.m.n.@ k k k k k k k k k k k k k k k k k k k k k k k k k k                                                                                                                                                     ",
"                                                                                                                                                                                                H H H H H H H H H H H H H H H H H H H H H H H H H H H H H H H H H H H H H H H H H H H H H H H H H P XXXXoXW k k k k k k k k k k k k k k k k k k k k k k k k k k k k k k k k k k k k k k k k k k k k k k k k k x Y.Y.Y.Y.Y.Y.Y.Y.Y.P.k k k k k k k k k k k k k k k k k k k k k k k k k k k k k k k k k k k k k k k k k k k k k k k k k k k k k k k k k k k k k k k k k k k k k k k k k k k k k k k k k k k k k k k k k k k k k k k k k k k k k k k k k k k k k k k k k k k y m.m.m.m.m.m.m.m.m.m.m.m.m.m.m.m.m.m.m.m.m.m.m.m.m.m.m.m.m.m.m.m.m.m.m.m.m.m.m.m.m.m.m.m.m.m.m.m.m.m.m.m.m.m.m.m.m.m.m.m.m.m.m.m.m.m.m.m.m.m.m.m.m.m.O z k k k k k k k k k k k k k k k k k k k k k k k k                                                                                                                                                     ",
"                                                                                                                                                                                                H H H H H H H H H H H H H H H H H H H H H H H H H H H H H H H H H H H H H H H H H H H H H H H H H _ XXXXoXW k k k k k k k k k k k k k k k k k k k k k k k k k k k k k k k k k k k k k k k k k k k k k k k k k k T.Y.Y.Y.Y.Y.Y.Y.Y.Y.k k k k k k k k k k k k k k k k k k k k k k k k k k k k k k k k k k k k k k k k k k k k k k k k k k k k k k k k k k k k k k k k k k k k k k k k k k k k k k k k k k k k k k k k k k k k k k k k k k k k k k k k k k k k k k k k k k k y m.m.m.m.m.m.m.m.m.m.m.m.m.m.m.m.m.m.m.m.m.m.m.m.m.m.m.m.m.m.m.m.m.m.m.m.m.m.m.m.m.m.m.m.m.m.m.m.m.m.m.m.m.m.m.m.m.m.m.m.m.m.m.m.m.m.m.m.m.m.m.m.m.m.m.C.7 k k k k k k k k k k k k k k k k k k k k k k k                                                                                                                                                     ",
"                                                                                                                                                                                                H H H H H H H H H H H H H H H H H H H H H H H H H H H H H H H H H H H H H H H H H H H H H H H H H _ XXXXoXW k k k k k k k k k k k k k k k k k k k k k k k k k k k k k k k k k k k k k k k k k k k k k k k k k k K.Y.Y.Y.Y.Y.Y.Y.Y.Y.M k k k k k k k k k k k k k k k k k k k k k k k k k k k k k k k k k k k k k k k k k k k k k k k k k k k k k k k k k k k k k k k k k k k k k k k k k k k k k k k k k k k k k k k k k k k k k k k k k k k k k k k k k k k k k k k k k k y m.m.m.m.m.m.m.m.m.m.m.m.m.m.m.m.m.m.m.m.m.m.m.m.m.m.m.m.m.m.m.m.m.m.m.m.m.m.m.m.m.m.m.m.m.m.m.m.m.m.m.m.m.m.m.m.m.m.m.m.m.m.m.m.m.m.m.m.m.m.m.m.m.m.m.m.n.: k k k k k k k k k k k k k k k k k k k k k k                                                                                                                                                     ",
"                                                                                                                                                                                                H H H H H H H H H H H H H H H H H H H H H H H H H H H H H H H H H H H H H H H H H H H H H H H H H _ XXXXoXW k k k k k k k k k k k k k k k k k k k k k k k k k k k k k k k k k k k k k k k k k k k k k k k k k k G.Y.Y.Y.Y.Y.Y.Y.Y.Y.$.k k k k k k k k k k k k k k k k k k k k k k k k k k k k k k k k k k k k k k k k k k k k k k k k k k k k k k k k k k k k k k k k k k k k k k k k k k k k k k k k k k k k k k k k k k k k k k k k k k k k k k k k k k k k k k k k k k y m.m.m.m.m.m.m.m.m.m.m.m.m.m.m.m.m.m.m.m.m.m.m.m.m.m.m.m.m.m.m.m.m.m.m.m.m.m.m.m.m.m.m.m.m.m.m.m.m.m.m.m.m.m.m.m.m.m.m.m.m.m.m.m.m.m.m.m.m.m.m.m.m.m.m.m.m.n.: k k k k k k k k k k k k k k k k k k k k k                                                                                                                                                     ",
"                                                                                                                                                                                                H H H H H H H H H H H H H H H H H H H H H H H H H H H H H H H H H H H H H H H H H H H H H H H H H _ XXXXOXW k k k k k k k k k k k k k k k k k k k k k k k k k k k k k k k k k k k k k k k k k k k k k k k k k k 2.Y.Y.Y.Y.Y.Y.Y.Y.Y.>.k k k k k k k k k k k k k k k k k k k k k k k k k k k k k k k k k k k k k k k k k k k k k k k k k k k k k k k k k k k k k k k k k k k k k k k k k k k k k k k k k k k k k k k k k k k k k k k k k k k k k k k k k k k k k k k k k k y m.m.m.m.m.m.m.m.m.m.m.m.m.m.m.m.m.m.m.m.m.m.m.m.m.m.m.m.m.m.m.m.m.m.m.m.m.m.m.m.m.m.m.m.m.m.m.m.m.m.m.m.m.m.m.m.m.m.m.m.m.m.m.m.m.m.m.m.m.m.m.m.m.m.m.m.m.m.n.: k k k k k k k k k k k k k k k k k k k k                                                                                                                                                     ",
"                                                                                                                                                                                                H H H H H H H H H H H H H H H H H H H H H H H H H H H H H H H H H H H H H H H H H H H H H H H H H _ XXXXOXW k k k k k k k k k k k k k k k k k k k k k k k k k k k k k k k k k k k k k k k k k k k k k k k k k k >.Y.Y.Y.Y.Y.Y.Y.Y.Y.2.k k k k k k k k k k k k k k k k k k k k k k k k k k k k k k k k k k k k k k k k k k k k k k k k k k k k k k k k k k k k k k k k k k k k k k k k k k k k k k k k k k k k k k k k k k k k k k k k k k k k k k k k k k k k k k k k k k y m.m.m.m.m.m.m.m.m.m.m.m.m.m.m.m.m.O # @ q t i > 7 9 1 1 1 1 z k k k k k 1 0 7 > : t @ - O Z.S.m.m.m.m.m.m.m.m.m.m.m.m.m.m.m.m.m.m.m.m.m.m.m.m.m.m.m.m.m.m.m.m.n.6 k k k k k k k k k k k k k k k k k k k                                                                                                                                                     ",
"                                                                                                                                                                                                H H H H H H H H H H H H H H H H H H H H H H H H H H H H H H H H H H H H H H H H H H H H H H H H H _ XXXXoXW k k k k k k k k k k k k k k k k k k k k k k k k k k k k k k k k k k k k k k k k k k k k k k k k k k $.Y.Y.Y.Y.Y.Y.Y.Y.Y.G.k k k k k k k k k k k k k k k k k k k k k k k k k k k k k k k k k k k k k k k k k k k k k k k k k k k k k k k k k k k k k k k k k k k k k k k k k k k k k k k k k k k k k k k k k k k k k k k k k k k k k k k k k k k k k k k k k k y m.m.m.m.m.m.m.m.m.m.m.m.m.m.m.m.m.t k k k k k k k k k k k k k k k k k k k k k k k k k k k k k z : @ = B.m.m.m.m.m.m.m.m.m.m.m.m.m.m.m.m.m.m.m.m.m.m.m.m.m.m.m.m.C.z k k k k k k k k k k k k k k k k k k                                                                                                                                                     ",
"                                                                                                                                                                                                H H H H H H H H H H H H H H H H H H H H H H H H H H H H H H H H H H H H H H H H H H H H H H H H H _ XXXXoXW k k k k k k k k k k k k k k k k k k k k k k k k k k k k k k k k k k k k k k k k k k k k k k k k k k M Y.Y.Y.Y.Y.Y.Y.Y.Y.K.k k k k k k k k k k k k k k k k k k k k k k k k k k k k k k k k k k k k k k k k k k k k k k k k k k k k k k k k k k k k k k k k k k k k k k k k k k k k k k k k k k k k k k k k k k k k k k k k k k k k k k k k k k k k k k k k k k y m.m.m.m.m.m.m.m.m.m.m.m.m.m.m.m.m.t k k k k k k k k k k k k k k k k k k k k k k k k k k k k k k k k k k : ; V.m.m.m.m.m.m.m.m.m.m.m.m.m.m.m.m.m.m.m.m.m.m.m.m.m.m.% k k k k k k k k k k k k k k k k k k                                                                                                                                                     ",
"                                                                                                                                                                                                H H H H H H H H H H H H H H H H H H H H H H H H H H H H H H H H H H H H H H H H H H H H H H H H H _ XXXXoXW k k k k k k k k k k k k k k k k k k k k k k k k k k k k k k k k k k k k k k k k k k k k k k k k k k k Y.Y.Y.Y.Y.Y.Y.Y.Y.T.k k k k k k k k k k k k k k k k k k k k k k k k k k k k k k k k k k k k k k k k k k k k k k k k k k k k k k k k k k k k k k k k k k k k k k k k k k k k k k k k k k k k k k k k k k k k k k k k k k k k k k k k k k k k k k k k k k y m.m.m.m.m.m.m.m.m.m.m.m.m.m.m.m.m.t k k k k k k k k k k k k k k k k k k k k k k k k k k k k k k k k k k k k k t o m.m.m.m.m.m.m.m.m.m.m.m.m.m.m.m.m.m.m.m.m.m.m.m.m.y k k k k k k k k k k k k k k k k k                                                                                                                                                     ",
"                                                                                                                                                                                                H H H H H H H H H H H H H H H H H H H H H H H H H H H H H H H H H H H H H H H H H H H H H H H H H _ XXXXoXW k k k k k k k k k k k k k k k k k k k k k k k k k k k k k k k k k k k k k k k k k k k k k k k k k k k P.Y.Y.Y.Y.Y.Y.Y.Y.Y.n k k k k k k k k k k k k k k k k k k k k k k k k k k k k k k k k k k k k k k k k k k k k k k k k k k k k k k k k k k k k k k k k k k k k k k k k k k k k k k k k k k k k k k k k k k k k k k k k k k k k k k k k k k k k k k k k k y m.m.m.m.m.m.m.m.m.m.m.m.m.m.m.m.m.t k k k k k k k k k k k k k k k k k k k k k k k k k k k k k k k k k k k k k k k i Z.m.m.m.m.m.m.m.m.m.m.m.m.m.m.m.m.m.m.m.m.m.m.m.S.z k k k k k k k k k k k k k k k k                                                                                                                                                     ",
"                                                                                                                                                                                                H H H H H H H H H H H H H H H H H H H H H H H H H H H H H H H H H H H H H H H H H H H H H H H H H _ XXXXoXW k k k k k k k k k k k k k k k k k k k k k k k k k k k k k k k k k k k k k k k k k k k k k k k k k k k H.Y.Y.Y.Y.Y.Y.Y.Y.Y.$.k k k k k k k k k k k k k k k k k k k k k k k k k k k k k k k k k k k k k k k k k k k k k k k k k k k k k k k k k k k k k k k k k k k k k k k k k k k k k k k k k k k k k k k k k k k k k k k k k k k k k k k k k k k k k k k k k y m.m.m.m.m.m.m.m.m.m.m.m.m.m.m.m.m.t k k k k k k k k k k k k k k k k k k k k k k k k k k k k k k k k k k k k k k k k k @ n.m.m.m.m.m.m.m.m.m.m.m.m.m.m.m.m.m.m.m.m.m.m.# k k k k k k k k k k k k k k k k                                                                                                                                                     ",
"                                                                                                                                                                                                H H H H H H H H H H H H H H H H H H H H H H H H H H H H H H H H H H H H H H H H H H H H H H H H H _ XXXXoXW k k k k k k k k k k k k k k k k k k k k k k k k k k k k k k k k k k k k k k k k k k k k k k k k k k k ^.Y.Y.Y.Y.Y.Y.Y.Y.Y.<.k k k k k k k k k k k k k k k k k k k k k k k k k k k k k k k k k k k k k k k k k k k k k k k k k k k k k k k k k k k k k k k k k k k k k k k k k k k k k k k k k k k k k k k k k k k k k k k k k k k k k k k k k k k k k k k k k q m.m.m.m.m.m.m.m.m.m.m.m.m.m.m.m.m.t k k k k k k k k k k k k k k k k k k k k k k k k k k k k k k k k k k k k k k k k k k 0 o m.m.m.m.m.m.m.m.m.m.m.m.m.m.m.m.m.m.m.m.m.N.0 k k k k k k k k k k k k k k k                                                                                                                                                     ",
"                                                                                                                                                                                                H H H H H H H H H H H H H H H H H H H H H H H H H H H H H H H H H H H H H H H H H H H H H H H H H _ oXXXoXW k k k k k k k k k k k k k k k k k k k k k k k k k k k k k k k k k k k k k k k k k k k k k k k k k k k >.Y.Y.Y.Y.Y.Y.Y.Y.Y./.k k k k k k k k k k k k k k k k k k k k k k k k k k k k k k k k k k k k k k k k k k k k k k k k k k k k k k k k k k k k k k k k k k k k k k k k k k k k k k k k k k k k k k k k k k k k k k k k k k k k k k k k k k k k k k k k k q m.m.m.m.m.m.m.m.m.m.m.m.m.m.m.m.m.t k k k k k k k k k k k k k k k k k k k k k k k k k k k k k k k k k k k k k k k k k k k z & m.m.m.m.m.m.m.m.m.m.m.m.m.m.m.m.m.m.m.m.m.& k k k k k k k k k k k k k k k                                                                                                                                                     ",
"                                                                                                                                                                                                H H H H H H H H H H H H H H H H H H H H H H H H H H H H H H H H H H H H H H H H H H H H H H H H H _ XXXXoXW k k k k k k k k k k k k k k k k k k k k k k k k k k k k k k k k k k k k k k k k k k k k k k k k k k k o.Y.Y.Y.Y.Y.Y.Y.Y.Y.U.k k k k k k k k k k k k k k k k k k k k k k k k k k k k k k k k k k k k k k k k k k k k k k k k k k k k k k k k k k k k k k k k k k k k k k k k k k k k k k k k k k k k k k k k k k k k k k k k k k k k k k k k k k k k k k k k k q m.m.m.m.m.m.m.m.m.m.m.m.m.m.m.m.m.t k k k k k k k k k k k k k k k k k k k k k k k k k k k k k k k k k k k k k k k k k k k k k + m.m.m.m.m.m.m.m.m.m.m.m.m.m.m.m.m.m.m.m.n.z k k k k k k k k k k k k k k                                                                                                                                                     ",
"                                                                                                                                                                                                H H H H H H H H H H H H H H H H H H H H H H H H H H H H H H H H H H H H H H H H H H H H H H H H H _ XXXXoXW k k k k k k k k k k k k k k k k k k k k k k k k k k k k k k k k k k k k k k k k k k k k k k k k k k k z Y.Y.Y.Y.Y.Y.Y.Y.Y.Y.k k k k k k k k k k k k k k k k k k k k k k k k k k k k k k k k k k k k k k k k k k k k k k k k k k k k k k k k k k k k k k k k k k k k k k k k k k k k k k k k k k k k k k k k k k k k k k k k k k k k k k k k k k k k k k k k k q m.m.m.m.m.m.m.m.m.m.m.m.m.m.m.m.m.t k k k k k k k k k k k k k k k k k k k k k k k k k k k k k k k k k k k k k k k k k k k k k k & m.m.m.m.m.m.m.m.m.m.m.m.m.m.m.m.m.m.m.m.@ k k k k k k k k k k k k k k                                                                                                                                                     ",
"                                                                                                                                                                                                H H H H H H H H H H H H H H H H H H H H H H H H H H H H H H H H H H H H H H H H H H H H H H H H H _ XXXXoXW k k k k k k k k k k k k k k k k k k k k k k k k k k k k k k k k k k k k k k k k k k k k k k k k k k k k P.Y.Y.Y.Y.Y.Y.Y.Y.Y.o.k k k k k k k k k k k k k k k k k k k k k k k k k k k k k k k k k k k k k k k k k k k k k k k k k k k k k k k k k k k k k k k k k k k k k k k k k k k k k k k k k k k k k k k k k k k k k k k k k k k k k k k k k k k k k k k k q m.m.m.m.m.m.m.m.m.m.m.m.m.m.m.m.m.t k k k k k k k k k k k k k k k k k k k k k k k k k k k k k k k k k k k k k k k k k k k k k k k o m.m.m.m.m.m.m.m.m.m.m.m.m.m.m.m.m.m.m.Z.k k k k k k k k k k k k k k                                                                                                                                                     ",
"                                                                                                                                                                                                H H H H H H H H H H H H H H H H H H H H H H H H H H H H H H H H H H H H H H H H H H H H H H H H H _ XXXXoXW k k k k k k k k k k k k k k k k k k k k k k k k k k k k k k k k k k k k k k k k k k k k k k k k k k k k F.Y.Y.Y.Y.Y.Y.Y.Y.Y.<.k k k k k k k k k k k k k k k k k k k k k k k k k k k k k k k k k k k k k k k k k k k k k k k k k k k k k k k k k k k k k k k k k k k k k k k k k k k k k k k k k k k k k k k k k k k k k k k k k k k k k k k k k k k k k k k k q m.m.m.m.m.m.m.m.m.m.m.m.m.m.m.m.m.t k k k k k k k k k k k k k k k k k k k k k k k k k k k k k k k k k k k k k k k k k k k k k k k 7 n.m.m.m.m.m.m.m.m.m.m.m.m.m.m.m.m.m.m.m.7 k k k k k k k k k k k k k                                                                                                                                                     ",
"                                                                                                                                                                                                H H H H H H H H H H H H H H H H H H H H H H H H H H H H H H H H H H H H H H H H H H H H H H H H H _ OXOXoXW k k k k k k k k k k k k k k k k k k k k k k k k k k k k k k k k k k k k k k k k k k k k k k k k k k k k <.Y.Y.Y.Y.Y.Y.Y.Y.Y.G.k k k k k k k k k k k k k k k k k k k k k k k k k k k k k k k k k k k k k k k k k k k k k k k k k k k k k k k k k k k k k k k k k k k k k k k k k k k k k k k k k k k k k k k k k k k k k k k k k k k k k k k k k k k k k k k k q m.m.m.m.m.m.m.m.m.m.m.m.m.m.m.m.m.t k k k k k k k k k k k k k k k k k k k k k k k k k k k k k k k k k k k k k k k k k k k k k k k k @ m.m.m.m.m.m.m.m.m.m.m.m.m.m.m.m.m.m.m.@ k k k k k k k k k k k k k                                                                                                                                                     ",
"                                                                                                                                                                                                H H H H H H H H H H H H H H H H H H H H H H H H H H H H H H H H H H H H H H H H H H H H H H H H H _ oXOXoXW k k k k k k k k k k k k k k k k k k k k k k k k k k k k k k k k k k k k k k k k k k k k k k k k k k k k $.Y.Y.Y.Y.Y.Y.Y.Y.Y.P.k k k k k k k k k k k k k k k k k k k k k k k k k k k k k k k k k k k k k k k k k k k k k k k k k k k k k k k k k k n $.o.k k k k k k k k k k k k k k k k k k k k k k k k k k k k k k k k k k k k k k k k k k k k k k k k k k k q m.m.m.m.m.m.m.m.m.m.m.m.m.m.m.m.m.t k k k k k k k k k k k k k k k k k k k k k k k k k k k k k k k k k k k k k k k k k k k k k k k k k V.m.m.m.m.m.m.m.m.m.m.m.m.m.m.m.m.m.m.O k k k k k k k k k k k k k                                                                                                                                                     ",
"                                                                                                                                                                                                H H H H H H H H H H H H H H H H H H H H H H H H H H H H H H H H H H H H H H H H H H H H H H H H H _ OXOXoXW k k k k k k k k k k k k k k k k k k k k k k k k k k k k k k k k k k k k k k k k k k k k k k k k k k k k z Y.Y.Y.Y.Y.Y.Y.Y.Y.Y.n k k k k k k k k k k k k k k k k k k k k k k k k k k k k k k k k k k k k k k k k k k k k k k k k k k k k k k k k ~.Y.Y.Y.T.;.k k k k k k k k k k k k k k k k k k k k k k k k k k k k k k k k k k k k k k k k k k k k k k k k k q m.m.m.m.m.m.m.m.m.m.m.m.m.m.m.m.m.t k k k k k k k k k k k k k k k k k k k k k k k k k k k k k k k k k k k k k k k k k k k k k k k k k @ m.m.m.m.m.m.m.m.m.m.m.m.m.m.m.m.m.m.D.k k k k k k k k k k k k k                                                                                                                                                     ",
"                                                                                                                                                                                                H H H H H H H H H H H H H H H H H H H H H H H H H H H H H H H H H H H H H H H H H H H H H H H H H _ OXOXoXW k k k k k k k k k k k k k k k k k k k k k k k k k k k k k k k k k k k k k k k k k k k k k k k k k k k k k I.Y.Y.Y.Y.Y.Y.Y.Y.Y.;.k k k k k k k k k k k k k k k k k k k k k k k k k k k k k k k k k k k k k k k k k k k k k k k k k k k k k k z H.Y.Y.Y.Y.Y.Y.;.k k k k k k k k k k k k k k k k k k k k k k k k k k k k k k k k k k k k k k k k k k k k k k k k q m.m.m.m.m.m.m.m.m.m.m.m.m.m.m.m.m.t k k k k k k k k k k k k k k k k k k k k k k k k k k k k k k k k k k k k k k k k k k k k k k k k k 1 n.m.m.m.m.m.m.m.m.m.m.m.m.m.m.m.m.m.m.6 k k k k k k k k k k k k                                                                                                                                                     ",
"                                                                                                                                                                                                H H H H H H H H H H H H H H H H H H H H H H H H H H H H H H H H H H H H H H H H H H H H H H H H H _ OXOXoXW k k k k k k k k k k k k k k k k k k k k k k k k k k k k k k k k k k k k k k k k k k k k k k k k k k k k k ~.Y.Y.Y.Y.Y.Y.Y.Y.Y.~.k k k k k k k k k k k k k k k k k k k k k k k k k k k k k k k k k k k k k k k k k k k k k k k k k k k k k k >.Y.Y.Y.Y.Y.Y.Y.Q.n k k k k k k k k k k k k k k k k k k k k k k k k k k k k k k k k k k k k k k k k k k k k k k k q m.m.m.m.m.m.m.m.m.m.m.m.m.m.m.m.m.t k k k k k k k k k k k k k k k k k k k k k k k k k k k k k k k k k k k k k k k k k k k k k k k k k k O m.m.m.m.m.m.m.m.m.m.m.m.m.m.m.m.m.m.t k k k k k k k k k k k k                                                                                                                                                     ",
"                                                                                                                                                                                                H H H H H H H H H H H H H H H H H H H H H H H H H H H H H H H H H H H H H H H H H H H H H H H H H _ OXOXOXW k k k k k k k k k k k k k k k k k k k k k k k k k k k k k k k k k k k k k k k k k k k k k k k k k k k k k ;.Y.Y.Y.Y.Y.Y.Y.Y.Y.P.k k k k k k k k k k k k k k k k k k k k k k k k k k k k k k k k k k k k k k k k k k k k k k k k k k k k k k U.Y.Y.Y.Y.Y.Y.Y.Y.>.k k k k k k k k k k k k k k k k k k k k k k k k k k k k k k k k k k k k k k k k k k k k k k k q m.m.m.m.m.m.m.m.m.m.m.m.m.m.m.m.m.t k k k k k k k k k k k k k k k k k k k k k k k k k k k k k k k k k k k k k k k k k k k k k k k k k k q m.m.m.m.m.m.m.m.m.m.m.m.m.m.m.m.m.m.# k k k k k k k k k k k k                                                                                                                                                     ",
"                                                                                                                                                                                                H H H H H H H H H H H H H H H H H H H H H H H H H H H H H H H H H H H H H H H H H H H H H H H H H _ oXoXoXW k k k k k k k k k k k k k k k k k k k k k k k k k k k k k k k k k k k k k k k k k k k k k k k k k k k k k n Y.Y.Y.Y.Y.Y.Y.Y.Y.Y.M k k k k k k k k k k k k k k k k k k k k k k k k k k k k k k k k k k k k k k k k k k k k k k k k k k k k z Y.Y.Y.Y.Y.Y.Y.Y.Y.G.k k k k k k k k k k k k k k k k k k k k k k k k k k k k k k k k k k k k k k k k k k k k k k k q m.m.m.m.m.m.m.m.m.m.m.m.m.m.m.m.m.t k k k k k k k k k k k k k k k k k k k k k k k k k k k k k k k k k k k k k k k k k k k k k k k k k k 7 m.m.m.m.m.m.m.m.m.m.m.m.m.m.m.m.m.m.% k k k k k k k k k k k k                                                                                                                                                     ",
"                                                                                                                                                                                                H H H H H H H H H H H H H H H H H H H H H H H H H H H H H H H H H H H H H H H H H H H H H H H H H _ oXoXoXW k k k k k k k k k k k k k k k k k k k k k k k k k k k k k k k k k k k k k k k k k k k k k k k k k k k k k k P.Y.Y.Y.Y.Y.Y.Y.Y.Y.<.k k k k k k k k k k k k k k k k k k k k k k k k k k k k k k k k k k k k k k k k k k k k k k k k k k k k n Y.Y.Y.Y.Y.Y.Y.Y.Y.T.k k k k k k k k k k k k k k k k k k k k k k k k k k k k k k k k k k k k k k k k k k k k k k k q m.m.m.m.m.m.m.m.m.m.m.m.m.m.m.m.m.t k k k k k k k k k k k k k k k k k k k k k k k k k k k k k k k k k k k k k k k k k k k k k k k k k k k n.m.m.m.m.m.m.m.m.m.m.m.m.m.m.m.m.m.Z.k k k k k k k k k k k k                                                                                                                                                     ",
"                                                                                                                                                                                                H H H H H H H H H H H H H H H H H H H H H H H H H H H H H H H H H H H H H H H H H H H H H H H H H _ oXoXoXW k k k k k k k k k k k k k k k k k k k k k k k k k k k k k k k k k k k k k k k k k k k k k k k k k k k k k k /.Y.Y.Y.Y.Y.Y.Y.Y.Y.H.k k k k k k k k k k k k k k k k k k k k k k k k k k k k k k k k k k k k k k k k k k k k k k k k k k k k z Y.Y.Y.Y.Y.Y.Y.Y.Y.Y.n k k k k k k k k k k k k k k k k k k k k k k k k k k k k k k k k k k k k k k k k k k k k k k q m.m.m.m.m.m.m.m.m.m.m.m.m.m.m.m.m.t k k k k k k k k k k k k k k k k k k k k k k k k k k k k k k k k k k k k k k k k k k k k k k k k k k k Z.m.m.m.m.m.m.m.m.m.m.m.m.m.m.m.m.m.V.k k k k k k k k k k k k                                                                                                                                                     ",
"                                                                                                                                                                                                H H H H H H H H H H H H H H H H H H H H H H H H H H H H H H H H H H H H H H H H H H H H H H H H H _ oXoXoXW k k k k k k k k k k k k k k k k k k k k k k k k k k k k k k k k k k k k k k k k k k k k k k k k k k k k k k ;.Y.Y.Y.Y.Y.Y.Y.Y.Y.Q.z k k k k k k k k k k k k k k k k k k k k k k k k k k k k k k k k k k k k k k k k k k k k k k k k k k k k I.Y.Y.Y.Y.Y.Y.Y.Y.Y.;.k k k k k k k k k k k k k k k k k k k k k k k k k k k k k k k k k k k k k k k k k k k k k k q m.m.m.m.m.m.m.m.m.m.m.m.m.m.m.m.m.t k k k k k k k k k k k k k k k k k k k k k k k k k k k k k k k k k k k k k k k k k k k k k k k k k k k O m.m.m.m.m.m.m.m.m.m.m.m.m.m.m.m.m.B.k k k k k k k k k k k k                                                                                                                                                     ",
"                                                                                                                                                                                                H H H H H H H H H H H H H H H H H H H H H H H H H H H H H H H H H H H H H H H H H H H H H H H H H _ oXoXoXW k k k k k k k k k k k k k k k k k k k k k k k k k k k k k k k k k k k k k k k k k k k k k k k k k k k k k k n Y.Y.Y.Y.Y.Y.Y.Y.Y.Y.;.k k k k k k k k k k k k k k k k k k k k k k k k k k k k k k k k k k k k k k k k k k k k k k k k k k k k ~.Y.Y.Y.Y.Y.Y.Y.Y.Y.~.k k k k k k k k k k k k k k k k k k k k k k k k k k k k k k k k k k k k k k k k k k k k k k q m.m.m.m.m.m.m.m.m.m.m.m.m.m.m.m.m.t k k k k k k k k k k k k k k k k k k k k k k k k k k k k k k k k k k k k k k k k k k k k k k k k k k k % m.m.m.m.m.m.m.m.m.m.m.m.m.m.m.m.m.n.k k k k k k k k k k k k                                                                                                                                                     ",
"                                                                                                                                                                                                H H H H H H H H H H H H H H H H H H H H H H H H H H H H H H H H H H H H H H H H H H H H H H H H H _ oXoXoXW k k k k k k k k k k k k k k k k k k k k k k k k k k k k k k k k k k k k k k k k k k k k k k k k k k k k k k k K.Y.Y.Y.Y.Y.Y.Y.Y.Y.F.k k k k k k k k k k k k k k k k k k k k k k k k k k k k k k k k k k k k k k k k k k k k k k k k k k k k ;.Y.Y.Y.Y.Y.Y.Y.Y.Y.I.k k k k k k k k k k k k k k k k k k k k k k k k k k k k k k k k k k k k k k k k k k k k k k q m.m.m.m.m.m.m.m.m.m.m.m.m.m.m.m.m.t k k k k k k k k k k k k k k k k k k k k k k k k k k k k k k k k k k k k k k k k k k k k k k k k k k k - m.m.m.m.m.m.m.m.m.m.m.m.m.m.m.m.m.M.k k k k k k k k k k k k                                                                                                                                                     ",
"                                                                                                                                                                                                H H H H H H H H H H H H H H H H H H H H H H H H H H H H H H H H H H H H H H H H H H H H H H H H H _ oXoXoXW k k k k k k k k k k k k k k k k k k k k k k k k k k k k k k k k k k k k k k k k k k k k k k k k k k k k k k k ,.Y.Y.Y.Y.Y.Y.Y.Y.Y.Y.z k k k k k k k k k k k k k k k k k k k k k k k k k k k k k k k k k k k k k k k k k k k k k k k k k k k n Y.Y.Y.Y.Y.Y.Y.Y.Y.Y.n k k k k k k k k k k k k k k k k k k k k k k k k k k k k k k k k k k k k k k k k k k k k k q m.m.m.m.m.m.m.m.m.m.m.m.m.m.m.m.m.t k k k k k k k k k k k k k k k k k k k k k k k k k k k k k k k k k k k k k k k k k k k k k k k k k k k - m.m.m.m.m.m.m.m.m.m.m.m.m.m.m.m.m.m.3 k k k k k k k k k k k                                                                                                                                                     ",
"                                                                                                                                                                                                H H H H H H H H H H H H H H H H H H H H H H H H H H H H H H H H H H H H H H H H H H H H H H H H H ) oXoXoXW k k k k k k k k k k k k k k k k k k k k k k k k k k k k k k k k k k k k k k k k k k k k k k k k k k k k k k k X.Y.Y.Y.Y.Y.Y.Y.Y.Y.Y.;.k k k k k k k k k k k k k k k k k k k k k k k k k k k k k k k k k k k k k k k k k k k k k k k k k k k k P.Y.Y.Y.Y.Y.Y.Y.Y.Y.$.k k k k k k k k k k k k k k k k k k k k k k k k k k k k k k k k k k k k k k k k k k k k k q m.m.m.m.m.m.m.m.m.m.m.m.m.m.m.m.m.t k k k k k k k k k k k k k k k k k k k k k k k k k k k k k k k k k k k k k k k k k k k k k k k k k k k - m.m.m.m.m.m.m.m.m.m.m.m.m.m.m.m.m.m.k k k k k k k k k k k k                                                                                                                                                     ",
"                                                                                                                                                                                                H H H H H H H H H H H H H H H H H H H H H H H H H H H H H H H H H H H H H H H H H H H H H H H H H ) oXoXoXW k k k k k k k k k k k k k k k k k k k k k k k k k k k k k k k k k k k k k k k k k k k k k k k k k k k k k k k k I.Y.Y.Y.Y.Y.Y.Y.Y.Y.K.k k k k k k k k k k k k k k k k k k k k k k k k k k k k k k k k k k k k k k k k k k k k k k k k k k k k G.Y.Y.Y.Y.Y.Y.Y.Y.Y.!.k k k k k k k k k k k k k k k k k k k k k k k k k k k k k k k k k k k k k k k k k k k k k q m.m.m.m.m.m.m.m.m.m.m.m.m.m.m.m.m.t k k k k k k k k k k k k k k k k k k k k k k k k k k k k k k k k k k k k k k k k k k k k k k k k k k k & m.m.m.m.m.m.m.m.m.m.m.m.m.m.m.m.m.n.k k k k k k k k k k k k                                                                                                                                                     ",
"                                                                                                                                                                                                H H H H H H H H H H H H H H H H H H H H H H H H H H H H H H H H H H H H H H H H H H H H H H H H H ) oXoXoXW k k , , k k k , , , , , k k k k k k , , , , , , k k , , k k , , , , , , k k k k k k , , k , k k , , , , k k k k ,.Y.Y.Y.Y.Y.Y.Y.Y.Y.Y.X., , k k , , , , k , k k , , , , , , k k , , , , k , k k , , , , , , k k , , , , , , k k k k , , k k k >.Y.Y.Y.Y.Y.Y.Y.Y.Y.L., , , , k k , , , , k , k k , , , , , , k k , , , , k , k k , , , , , , k k , , , , , , k q m.m.m.m.m.m.m.m.m.m.m.m.m.m.m.m.m.t , , k k k k , , , , , , , , k k , , k k k , , , , , k k k k k k , , , , , , k k , , k k , , , , , , k O m.m.m.m.m.m.m.m.m.m.m.m.m.m.m.m.m.B.k k , , , , k k k k , ,                                                                                                                                                     ",
"                                                                                                                                                                                                H H H H H H H H L L L H H H H H H H H H H H H H H H H H H H H H L L H H H H H H H H H H H H H H H ) oXoXoXW k k , , k k , , , , , , , , k k k , , , , , , , , , k k k k , , , , , , , , k k k , , , k k k k , , , , k k k k X.Y.Y.Y.Y.Y.Y.Y.Y.Y.Y.!.k k k k , , , , k k k k , , , , k k k k , , , , k k k k , , , , k k k k , , k , , , k k , , , , k k k X.Y.Y.Y.Y.Y.Y.Y.Y.Y.Q.z , k k k k , , , , k k k k , , , , k k k k , , , , k k k k , , , , k k k k , , , , , , k q m.m.m.m.m.m.m.m.m.m.m.m.m.m.m.m.m.t , k k k k , , , , , , , , , , , , , k k , , , , , , , , k k k , , , , , , , , , k k k k , , , , , , , o m.m.m.m.m.m.m.m.m.m.m.m.m.m.m.m.m.V.k k , , , , k k k k , ,                                                                                                                                                     ",
"                                                                                                                                                                                                H H L L H H H H H H H H H H H H H H H L L L H H H H L L H H H H H H H H H H H H H H H L L L H H H ) oXoXoXW , , k k k k , , k k , , k k k k , , , , , , , , , , k k k k k k k k , , k k k k , , , , , , , , , , , , , , k , , I.Y.Y.Y.Y.Y.Y.Y.Y.Y.E.z , k , , , , , , , , , , , , , , , k , , , , , , , , , , , , , , , k , , , k , , , , , , , , , , , k k Q.Y.Y.Y.Y.Y.Y.Y.Y.Y.$., , , k , , , , , , , , , , , , , , , k , , , , , , , , , , , , , , , k , , , , , k k k q m.m.m.m.m.m.m.m.m.m.m.m.m.m.m.m.m.t , , k k k k , , , , , , , , , , k k k k , , k k , , k k k k , , , , , , , , , , k k k k k k k k , , k B.m.m.m.m.m.m.m.m.m.m.m.m.m.m.m.m.m.C.k k , , k k k k , k k k                                                                                                                                                     ",
"                                                                                                                                                                                                H H L L H H H H H H H H H H H H H H H H L L H H H H L L H H H H H H H H H H H H H H H H L L H H H ) oXoXoXW k , k k k k , k k k , , k k k k , , , , , , , , k k k k k k , k k k , , k k k k , , , , , , , , , , , , , , k k , <.Y.Y.Y.Y.Y.Y.Y.Y.Y.Y.<., k k , , , , , , , , , , , , , , k k , , , , , , , , , , , , , , k k , , k , , , , , , , , , , , k k H.Y.Y.Y.Y.Y.Y.Y.Y.Y.<., , , k k , , , , , , , , , , , , , , k k , , , , , , , , , , , , , , k k , , , , k k , q m.m.m.m.m.m.m.m.m.m.m.m.m.m.m.m.m.t , , k k k k , , , , , , , , k k k k k k , k k k , , k k k k , , , , , , , , k k k k k k , k k k , , 1 m.m.m.m.m.m.m.m.m.m.m.m.m.m.m.m.m.m.o k k , , k k , , , , k k                                                                                                                                                     ",
"                                                                                                                                                                                                H H L L H H H H H H L H H H H H H H H H L L H H H H L L H H H H H H L L H H H H H H H H L L H H H ) oXoXOXW k k k k , , , , k k , k k k , , , , , , k k k k k k , , , , , , k k , k k k , , , , k k , k k , k k k k , k k k k n Y.Y.Y.Y.Y.Y.Y.Y.Y.Y.P.z k k k k k k , k k , k k k k , k k k k k k k , k k , k k k k , k k k k k k k , , , , k k k k k k k k ,.Y.Y.Y.Y.Y.Y.Y.Y.Y.F.k , , k k k k k k , k k , k k k k , k k k k k k k , k k , k k k k , k k k k k , k k k , q m.m.m.m.m.m.m.m.m.m.m.m.m.m.m.m.m.t , , , k k k , , , , k k k k k k k k , , , , k k , k k k , , , , , , k k k k k k , , , , , , k k , , : m.m.m.m.m.m.m.m.m.m.m.m.m.m.m.m.m.m.- k k k k k k , , , , k k                                                                                                                                                     ",
"                                                                                                                                                                                                H H L L L H H H H H H L L L H H H H H H L L H H H H L L L H H H H L L L H H H H H H H H L L H H H _ oXoXOXW k k , , , , , , k k , k k k , , , , , , k k k k k k , , , , , , k k , k k k , , , , k k k k k k k k k k k k k k k k F.Y.Y.Y.Y.Y.Y.Y.Y.Y.Y.;.k k k k k k k k k k k k k k k k k k k k k k k k k k k k k k k k k k k k , k k k , k k k k k k k k k $.Y.Y.Y.Y.Y.Y.Y.Y.Y.T.k k k k k k k k k k k k k k k k k k k k k k k k k k k k k k k k k k k k k k k k k k k , q m.m.m.m.m.m.m.m.m.m.m.m.m.m.m.m.m.t , , , k k k , , , , k k k k k k , , , , , , k k , k k k , , , , , , k k k k k k , , , , , , k k k k # m.m.m.m.m.m.m.m.m.m.m.m.m.m.m.m.m.m.@ k k k k k k , , , , k k                                                                                                                                                     ",
"                                                                                                                                                                                                L H H H H H L L L L L L L L L H H H H H L L L L H H L L L H H H H H H H H H L L L L L H H L L L H _ OXoXoXW , k k k k k k k k k k k k k k k k k , k k k k k k k k k k k k k k k k k k k k k k k k k , k k k k k k k k k k k k k $.Y.Y.Y.Y.Y.Y.Y.Y.Y.Y.I.z k k k k k , k k k k k k k k k k k k k k k , k k k k k k k k k k k k k k k k k k k k k k k k k k k z Y.Y.Y.Y.Y.Y.Y.Y.Y.Y.X.k k k k k k k k , k k k k k k k k k k k k k k k , k k k k k k k k k k k k k k k k k k q m.m.m.m.m.m.m.m.m.m.m.m.m.m.m.m.m.t k k k k k k k k , k k k k k k k k k k k k k k k k k k k k k k k , k k k k k k k k k k k k k k k k k Z.m.m.m.m.m.m.m.m.m.m.m.m.m.m.m.m.m.m.i k , k k k k k k k k k k                                                                                                                                                     ",
"                                                                                                                                                                                                L H L L H H L L L L L L L L L H H H H H L L L L H H L L L L H H H H H H H H L L L L L H H L L L H _ oXoXoX5., , , , , , , , , , , , , , , , , , , , , , , , , , , , , , , , , , , , , , , , , , , , , , , , , , , , , , , , , , , I.Y.Y.Y.Y.Y.Y.Y.Y.Y.Y.>., , , , , , , , , , , , , , , , , , , , , , , , , , , , , , , , , , , , , , , , , , , , , , , , , , K.Y.Y.Y.Y.Y.Y.Y.Y.Y.>., , , , , , , , , , , , , , , , , , , , , , , , , , , , , , , , , , , , , , , , , , , q m.m.m.m.m.m.m.m.m.m.m.m.m.m.m.m.m.t , , , , , , , , , , , , , , , , , , , , , , , , , , , , , , , , , , , , , , , , , , , , , , , , , 7 m.m.m.m.m.m.m.m.m.m.m.m.m.m.m.m.m.m.m.1 , , , , , , , , , , , ,                                                                                                                                                     ",
"                                                                                                                                                                                                L L L L H H H H H H L L L L L L H H H H L L H H H L L L H H H H L H L L L L L L L L H H H H L L H ) oXoXoXW , , , , , , , , , , , , , , , , , , , , , , , , , , , , , , , , , , , , , , , , , , , , , , , , , , , , , , , , , , , >.Y.Y.Y.Y.Y.Y.Y.Y.Y.Y.W.z , , , , , , , , , , , , , , , , , , , , , , , , , , , , , , , , , , , , , , , , , , , , , , , , , !.Y.Y.Y.Y.Y.Y.Y.Y.Y./., , , , , , , , , , , , , , , , , , , , , , , , , , , , , , , , , , , , , , , , , , , q m.m.m.m.m.m.m.m.m.m.m.m.m.m.m.m.m.t , , , , , , , , , , , , , , , , , , , , , , , , , , , , , , , , , , , , , , , , , , , , , , , , , - m.m.m.m.m.m.m.m.m.m.m.m.m.m.m.m.m.m.V., k k , , , , , , , , , ,                                                                                                                                                     ",
"                                                                                                                                                                                                L K K K H H H H H H H H K K K L L H K K K K H H L K K K L H H H K K K K K K K K K K H H H H K K H ) oXoXoX5., , , , , , , , , , , , , , , , , , , , , , , , , , , , , , , , , , , , , , , , , , , , , , , , , , , , , , , , , , , z T.Y.Y.Y.Y.Y.Y.Y.Y.Y.Y.,., , , , , , , , , , , , , , , , , , , , , , , , , , , , , , , , , , , , , , , , , , , , , , , , ,  .Y.Y.Y.Y.Y.Y.Y.Y.Y.I., , , , , , , , , , , , , , , , , , , , , , , , , , , , , , , , , , , , , , , , , , , q m.m.m.m.m.m.m.m.m.m.m.m.m.m.m.m.m.t , , , , , , , , , , , , , , , , , , , , , , , , , , , , , , , , , , , , , , , , , , , , , , , , 1 n.m.m.m.m.m.m.m.m.m.m.m.m.m.m.m.m.m.m.& , , k , , , , , , , , , ,                                                                                                                                                     ",
"                                                                                                                                                                                                L L H H H L L H H H K K K K H H K K K K H H H H K L H H L K K K L K K K K K K K K L H H H H K K H ) oXoXoX5.k k , , , , , , , , , , , , , , , , , , , , , , , , , , , , , , , , , , , , , , , , , , , , , , , , , , , , , , , , , , ,.Y.Y.Y.Y.Y.Y.Y.Y.Y.Y.Y.M , , , , , , , , , , , , , , , , , , , , , , , , , , , , , , , , , , , , , , , , , , , , , , , , n Y.Y.Y.Y.Y.Y.Y.Y.Y.Y.n , , , , , , , , , , , , , , , , , , , , , , , , , , , , , , , , , , , , , , , , , 3 q m.m.m.m.m.m.m.m.m.m.m.m.m.m.m.m.m.t , , , , , , , , , , , , , , , , , , , , , , , , , , , , , , , , , , , , , , , , k , , , 3 3 , , - m.m.m.m.m.m.m.m.m.m.m.m.m.m.m.m.m.m.m.t 3 k k , , , , , , , , , ,                                                                                                                                                     ",
"                                                                                                                                                                                                L K H H K K K K H H K K K K H H K K K K H H H H K H H H K K K K H H K K K K K K K K H H H H K K H ) oXoXoX5.k k , , , , , , , , , , , , , , , , , , , , , , , , , , , , , , , , , , , , , , , , , , , , , , , , , , , , , , , , , , n Q.Y.Y.Y.Y.Y.Y.Y.Y.Y.Y.H., , , , , , , , , , , , , , , , , , , , , , , , , , , , , , , , , , , , , , , , , , , , , , , , , I.Y.Y.Y.Y.Y.Y.Y.Y.Y. ., , , , , , , , , , , , , , , , , , , , , , , , , , , , , , , , , , , , , , , , , 3 q m.m.m.m.m.m.m.m.m.m.m.m.m.m.m.m.m.t , , , , , , , , , , , , , , , , , , , , , , , , , , , , , , , , , , , , , , , , k k , , 3 3 , : M.m.m.m.m.m.m.m.m.m.m.m.m.m.m.m.m.m.m.M.1 3 , , , , , , , , , , , ,                                                                                                                                                     ",
"                                                                                                                                                                                                L H H H K K K K H K K K H H H H H H K K L H K K K K H H H H K K H H H H K L K K H H H H H H H H H ) oXoXoXW k k , , , , , , , , , , , , , , , , , , , , , , , , , , , , , , , , , , , , , , , , , , , , , , , , , , , , , , , , , , , ,.Y.Y.Y.Y.Y.Y.Y.Y.Y.Y.Y.>., , , , , , , , , , , , , , , , , , , , , , , , , , , , , , , , , , , , , , , , , , , , , , , , /.Y.Y.Y.Y.Y.Y.Y.Y.Y.!., , , , , , , , , , , , , , , , , , , , , , , , , , , , , , , , , , , , , , , , , 3 q m.m.m.m.m.m.m.m.m.m.m.m.m.m.m.m.m.t , , , , , , , , , , , , , , , , , , , , , , , , , , , , , , , , , , , , , , , , k k , , , , 1 V.m.m.m.m.m.m.m.m.m.m.m.m.m.m.m.m.m.m.m.o 3 , , , , , , , , , , , , ,                                                                                                                                                     ",
"                                                                                                                                                                                                L H H H K K K K H L K K H H H H H L K K K K K K K K H H H K K K H H H H H H K L H H H H H H H H H ) oXoXoXW , , , , , , , , , , , , , , , , , , , , , , , , , , , , , , , , , , , , , , , , , , , , , , , , , , , , , , , , , , , , , z T.Y.Y.Y.Y.Y.Y.Y.Y.Y.Y.Q.X., , , , , , , , , , , , , , , , , , , , , , , , , , , , , , , , , , , , , , , , , , , , , , , ;.Y.Y.Y.Y.Y.Y.Y.Y.Y.U., , , , , , , , , , , , , , , , , , , , , , , , , , , , , , , , , , , , , , , , , 3 q m.m.m.m.m.m.m.m.m.m.m.m.m.m.m.m.m.t , , , , , , , , , , , , , , , , , , , , , , , , , , , , , , , , , , , , , , , , , , , , , 1 . m.m.m.m.m.m.m.m.m.m.m.m.m.m.m.m.m.m.m.m.t , , , , , , , , , , , , , ,                                                                                                                                                     ",
"                                                                                                                                                                                                L L L L L L L L L L L L L L L L L L L L L L L L L L L L L L L L L L L L L L L L L L L L L L L L H ) oXoXoX5., , , , , , , , , , , , , , , , , , , , , , , , , , , , , , , , , , , , , , , , , , , , , , , , , , , , , , , , , , , , , , <.Y.Y.Y.Y.Y.Y.Y.Y.Y.Y.Y.K.z , , , , , , , , , , , , , , , , , , , , , , , , , , , , , , , , , , , , , , , , , , , , , , M Y.Y.Y.Y.Y.Y.Y.Y.Y.Y.z , , , , , , , , , , , , , , , , , , , , , , , , , , , , , , , , , , , , , , , , , q m.m.m.m.m.m.m.m.m.m.m.m.m.m.m.m.m.t , , , , , , , , , , , , , , , , , , , , , , , , , , , , , , , , , , , , , , , , , , , , 1 o m.m.m.m.m.m.m.m.m.m.m.m.m.m.m.m.m.m.m.m.B.3 , , , , , , , , , , , , , ,                                                                                                                                                     ",
"                                                                                                                                                                                                L L L L L L L L L L L L L L L L L L L L L L L L L L L L L L L L L L L L L L L L L L L L L L L L H ) oXoXoX5., , , , , , , , , , , , , , , , , , , , , , , , , , , , , , , , , , , , , , , , , , , , , , , , , , , , , , , , , , , , , , 3 I.Y.Y.Y.Y.Y.Y.Y.Y.Y.Y.Y.~., , , , , , , , , , , , , , , , , , , , , , , , , , , , , , , , , , , , , , , , , , , , , , , T.Y.Y.Y.Y.Y.Y.Y.Y.Y.$., , , , , , , , , , , , , , , , , , , , , , , , , , , , , , , , , , , , , , , , , q m.m.m.m.m.m.m.m.m.m.m.m.m.m.m.m.m.t , , , , , , , , , , , , , , , , , , , , , , , , , , , , , , , , , , , , , , , , , , , 1 o m.m.m.m.m.m.m.m.m.m.m.m.m.m.m.m.m.m.m.m.m.+ , , , , , , , , , , , , , , ,                                                                                                                                                     ",
"                                                                                                                                                                                                L L L L L L L L L L L L L L L L L K L L L L L L L L L L L L L L L L L L L L L L L L L L L L L L H ) oXoXoX5., , , , , , , , , , , , , , , , , , , , , , , , , , , , , , , , , , , , , , , , , , , , , , , , , , , , , , , , , , , , , , , $.Y.Y.Y.Y.Y.Y.Y.Y.Y.Y.Y.Y.>., , , , , , , , , , , , , , , , , , , , , , , , , , , , , , , , , , , , , , , , , , , , , , F.Y.Y.Y.Y.Y.Y.Y.Y.Y.,., , , , , , , , , , , , , , , , , , , , , , , , , , , , , , , , , , , , , , , , , q m.m.m.m.m.m.m.m.m.m.m.m.m.m.m.m.m.t , , , , , , , , , , , , , , , , , , , , , , , , , , , , , , , , , , , , , , , , 3 3 i V.m.m.m.m.m.m.m.m.m.m.m.m.m.m.m.m.m.m.m.m.m.S.1 , , , , , , , , , , , , , , ,                                                                                                                                                     ",
"                                                                                                                                                                                                L K K K K K K K K K K K K K K K K K K K K K K K K K K K K K K K K K K K K K K K K K K K K K K K H ) oXoXoX5., , , , , , , , , , , , , , , , , , , , , , , , , , , , , , , , , , , , , , , , , , , , , , , , , , , , , , , , , , , , , , , , G.Y.Y.Y.Y.Y.Y.Y.Y.Y.Y.Y.Y.$., , , , , , , , , , , , , , , , , , , , , , , , , , , , , , , , , , , , , , , , , , , , , <.Y.Y.Y.Y.Y.Y.Y.Y.Y.H., , , , , , , , , , , , , , , , , , , , , , , , , , , , , , , , , , , , , , , , , q m.m.m.m.m.m.m.m.m.m.m.m.m.m.m.m.m.t , , , , , , , , , , , , , , , , , , , , , , , , , , , , , , , , , , , , , , , , 1 & m.m.m.m.m.m.m.m.m.m.m.m.m.m.m.m.m.m.m.m.m.m.m.@ , , , , , , , , , , , , , , , ,                                                                                                                                                     ",
"                                                                                                                                                                                                L K K K K K K K K K K K K K K K K K K K K K K K K K K K K K K K K K K K K K K K K K K K K K K K H ) oXoXoX5., , , , , , , , , , , , , , , , , , , , , , , , , , , , , , , , , , , , , , , , , , , , , , , , , , , , , , , , , , , , , , , , n E.Y.Y.Y.Y.Y.Y.Y.Y.Y.Y.Y.Q.$., , , , , , , , , , , , , , , , , , , , , , , , , , , , , , , , , , , , , , , , , , , , o.Y.Y.Y.Y.Y.Y.Y.Y.Y.Q.z , , , , , , , , , , , , , , , , , , , , , , , , , , , , , , , , , , , , , , , , q m.m.m.m.m.m.m.m.m.m.m.m.m.m.m.m.m.t , , , , , , , , , , , , , , , , , , , , , , , , , , , , , , , , , , , , , , 1 + D.m.m.m.m.m.m.m.m.m.m.m.m.m.m.m.m.m.m.m.m.m.m.m.C.3 , , , , , , , , , , , , , , , ,                                                                                                                                                     ",
"                                                                                                                                                                                                L K K K K K K K K K K K K K K K K K K K K K K K K K K K K K K K K K K K K K K K K K K K K K K K H ) oXoXoX5., , , , , , , , , , , , , , , , , , , , , , , , , , , , , , , , , , , , , , , , , , , , , , , , , , , , , , , , , , , , , , , , , ;.Y.Y.Y.Y.Y.Y.Y.Y.Y.Y.Y.Y.Q.X., , , , , , , , , , , , , , , , , , , , , , , , , , , , , , , , , , , , , , , , , , , 3 Q.Y.Y.Y.Y.Y.Y.Y.Y.Y.X., , , , , , , , , , , , , , , , , , , , , , , , , , , , , , , , , , , , , , , , q m.m.m.m.m.m.m.m.m.m.m.m.m.m.m.m.m.t , , , , , , , , , , , , , , , , , , , , , , , , , , , , , , , , , , , , i O n.m.m.m.m.m.m.m.m.m.m.m.m.m.m.m.m.m.m.m.m.m.m.m.m.m.: , , , , , , , , , , , , , , , , ,                                                                                                                                                     ",
"                                                                                                                                                                                                L K K K K K K K K K K K K K K K K K K K K K K K K K K K K K K K K K K K K K K K K K K K K K K K K ) oXoXoX5., , , , , , , , , , , , , , , , , , , , , , , , , , , , , , , , , , , , , , , , , , , , , , , , , , , , , , , , , , , , , , , , , , G.Y.Y.Y.Y.Y.Y.Y.Y.Y.Y.Y.Y.Q.$., , , , , , , , , , , , , , , , , , , , , , , , , , , , , , , , , , , , , , , , , , , J.Y.Y.Y.Y.Y.Y.Y.Y.Y.<., , , , , , , , , , , , , , , , , , , , , , , , , , , , , , , , , , , , , , , , q m.m.m.m.m.m.m.m.m.m.m.m.m.m.m.m.m.t , , , , , , , , , , , , , , , , , , , , , , 3 , , , , , , , , , 2 t & V.m.m.m.m.m.m.m.m.m.m.m.m.m.m.m.m.m.m.m.m.m.m.m.m.m.m.m.- , , , , , , , , , , , , , , , , , ,                                                                                                                                                     ",
"                                                                                                                                                                                                L K K K K K K K K K K K K K K K K K K K K K K K K K K K K K K K K K K K K K K K K K K K K K K K K ) oXoXoX5., , , , , , , , , , , , , , , , , , , , , , , , , , , , , , , , , , , , , , , , , , , , , , , , , , , , , , , , , , , , , , , , , , n T.Y.Y.Y.Y.Y.Y.Y.Y.Y.Y.Y.Y.Q.$., , , , , , , , , , , , , , , , , , , , , , , , , , , , , , , , , , , , , , , , , , ,.Y.Y.Y.Y.Y.Y.Y.Y.Y.G., , , , , , , , , , , , , , , , , , , , , , , , , , , , , , , , , , , , , , , , q m.m.m.m.m.m.m.m.m.m.m.m.m.m.m.m.m.t , , , , , , , 3 , , , , , , , , , , , , 3 3 3 , , , , 1 : @ & C.M.m.m.m.m.m.m.m.m.m.m.m.m.m.m.m.m.m.m.m.m.m.m.m.m.m.m.m.m.m.o 3 , , , , , , , , , , , , , , , , , ,                                                                                                                                                     ",
"                                                                                                                                                                                                L K K K K K K K K K K K K K K K K K K K K K K K K K K K K K K K K K K K K K K K K K K K K K K K K ) oXoXoX5., , , , , , , , , , , , , , , , , , , , , , , , , , , , , , , , , , , , , , , , , , , , , , , , , , , , , , , , , , , , , , , , , , , X.Q.Y.Y.Y.Y.Y.Y.Y.Y.Y.Y.Y.Y.Y.,., , , , , , , , , , , , , , , , , , , , , , , , , , , , , , , , , , , , , , , , , $.Y.Y.Y.Y.Y.Y.Y.Y.Y.W., , , , , , , , , , , , , , , , , , , , , , , , , , , , , , , , , , , , , , , , q m.m.m.m.m.m.m.m.m.m.m.m.m.m.m.m.m.@ 5 5 5 5 5 5 5 5 5 5 5 5 5 5 : i t t q r @ + - O o C.n.m.m.m.m.m.m.m.m.m.m.m.m.m.m.m.m.m.m.m.m.m.m.m.m.m.m.m.m.m.m.m.m.m.m.V.0 , , , , , , , , , , , , , , , , , , ,                                                                                                                                                     ",
"                                                                                                                                                                                                L K K K K K K K K K K K K K K K K K K K K K K K K K K K K K K K K K K K K K K K K K K K K K K K L ) oXoXoX5., , , , , , , , , , , , , , , , , , , , , , , , , , , , , , , , , , , , , , , , , , , , , , , , , , , , , , , , , , , , , , , , , , , , ;.Y.Y.Y.Y.Y.Y.Y.Y.Y.Y.Y.Y.Y.Y.G.z , , , , , , , , , , , , , , , , , , , , , , , , , , , , , , , , , , , , , , , z Y.Y.Y.Y.Y.Y.Y.Y.Y.Y.n , , , , , , , , , , , , , , , , , , , , , , , , , , , , , , , , , , , , , , , q m.m.m.m.m.m.m.m.m.m.m.m.m.m.m.m.m.m.m.m.m.m.m.m.m.m.m.m.m.m.m.m.m.m.m.m.m.m.m.m.m.m.m.m.m.m.m.m.m.m.m.m.m.m.m.m.m.m.m.m.m.m.m.m.m.m.m.m.m.m.m.m.m.m.m.m.m.m.D.: , , , , , , , , , , , , , , , , , , , ,                                                                                                                                                     ",
"                                                                                                                                                                                                L K K K K K K K K K K K K K K K K K K K K K K K K K K K K K K K K K K K K K K K K K K K K K K K L ) oXoXoX5., , , , , , , , , , , , , , , , , , , , , , , , , , , , , , , , , , , , , , , , , , , , , , , , , , , , , , , , , , , , , , , , , , , , , ~.Y.Y.Y.Y.Y.Y.Y.Y.Y.Y.Y.Y.Y.Y.U.X., , , , , , , , , , , , , , , , , , , , , , , , , , , , , , , , , , , , , , , I.Y.Y.Y.Y.Y.Y.Y.Y.Y.;., , , , , , , , , , , , , , , , , , , , , , , , , , , , , , , , , , , , , , , q m.m.m.m.m.m.m.m.m.m.m.m.m.m.m.m.m.m.m.m.m.m.m.m.m.m.m.m.m.m.m.m.m.m.m.m.m.m.m.m.m.m.m.m.m.m.m.m.m.m.m.m.m.m.m.m.m.m.m.m.m.m.m.m.m.m.m.m.m.m.m.m.m.m.m.m.m.D.: , , , , , , , , , , , , , , , , , , , , ,                                                                                                                                                     ",
"                                                                                                                                                                                                K K K K K K K K K K K K K K K K K K K K K K K K K K K K K K K K K K K K K K K K K K K K K K K K K ) oXoXoX5., , , , , , , , , , , , , , , , , , , , , , , , , , , , , , , , , , , , , , , , , , , , , , , , , , , , , , , , , , , , , , , , , , , , , 3 H.Y.Y.Y.Y.Y.Y.Y.Y.Y.Y.Y.Y.Y.Y.Q.<.3 , , , , , , , , , , , , , , , , , , , , , , , , , , , , , , , , , , , , , ~.Y.Y.Y.Y.Y.Y.Y.Y.Y.~., , , , , , , , , , , , , , , , , , , , , , , , , , , , , , , , , , , , , , , q m.m.m.m.m.m.m.m.m.m.m.m.m.m.m.m.m.m.m.m.m.m.m.m.m.m.m.m.m.m.m.m.m.m.m.m.m.m.m.m.m.m.m.m.m.m.m.m.m.m.m.m.m.m.m.m.m.m.m.m.m.m.m.m.m.m.m.m.m.m.m.m.m.m.m.m.S.5 , , , , , , , , , , , , , , , , , , , , , ,                                                                                                                                                     ",
"                                                                                                                                                                                                K K K K K K K K K K K K K K K K K K K K K K K K K K K K K K K K K K K K K K K K K K K K K K K K K ) oXoXoX5., , , , , , , , , , , , , , , , , , , , , , , , , , , , , , , , , , , , , , , , , , , , , , , , , , , , , , , , , , , , , , , , , , , , , , z K.Y.Y.Y.Y.Y.Y.Y.Y.Y.Y.Y.Y.Y.Y.Y.K.X., , , , , , , , , , , , , , , , , , , , , , , , , , , , , , , , , , , , ;.Y.Y.Y.Y.Y.Y.Y.Y.Y.I., , , , , , , , , , , , , , , , , , , , , , , , , , , , , , , , , , , , , , , q m.m.m.m.m.m.m.m.m.m.m.m.m.m.m.m.m.m.m.m.m.m.m.m.m.m.m.m.m.m.m.m.m.m.m.m.m.m.m.m.m.m.m.m.m.m.m.m.m.m.m.m.m.m.m.m.m.m.m.m.m.m.m.m.m.m.m.m.m.m.m.m.m.m.m.C.6 , , , , , , , , , , , , , , , , , , , , , , ,                                                                                                                                                     ",
"                                                                                                                                                                                                K K K K K K K K K K K K K K K K K K K K K K K K K K K K K K K K K K K K K K K K K K K K K K K K K ) oXoXoX5.3 3 3 3 3 3 3 3 3 3 3 3 3 3 3 3 3 3 3 3 3 3 3 3 3 3 3 3 3 3 3 3 3 3 3 3 3 3 3 3 3 3 3 3 3 3 3 3 3 3 3 3 3 3 3 3 3 3 3 3 3 3 3 3 3 3 3 3 3 3 3 n I.Y.Y.Y.Y.Y.Y.Y.Y.Y.Y.Y.Y.Y.Y.Y.Y.~.n 3 3 3 3 3 3 3 3 3 3 3 3 3 3 3 3 3 3 3 3 3 3 3 3 3 3 3 3 3 3 3 3 3 3 n Y.Y.Y.Y.Y.Y.Y.Y.Y.Y.n 3 3 3 3 3 3 3 3 3 3 3 3 3 3 3 3 3 3 3 3 3 3 3 3 3 3 3 3 3 3 3 3 3 3 3 3 3 3 q m.m.m.m.m.m.m.m.m.m.m.m.m.m.m.m.m.m.m.m.m.m.m.m.m.m.m.m.m.m.m.m.m.m.m.m.m.m.m.m.m.m.m.m.m.m.m.m.m.m.m.m.m.m.m.m.m.m.m.m.m.m.m.m.m.m.m.m.m.m.m.m.m.m.% 1 3 3 3 3 3 3 3 3 3 3 3 3 3 3 3 3 3 3 3 3 3 3 3 3                                                                                                                                                     ",
"                                                                                                                                                                                                K K K K K K K K K K K K K K K K K K K K K K K K K K K K K K K K K K K K K K K K K K K K K K K K K ) oXoXoX5.3 3 3 3 3 3 3 3 3 3 3 3 3 3 3 3 3 3 3 3 3 3 3 3 3 3 3 3 3 3 3 3 3 3 3 3 3 3 3 3 3 3 3 3 3 3 3 3 3 3 3 3 3 3 3 3 3 3 3 3 3 3 3 3 3 3 3 3 3 3 3 3 n I.Y.Y.Y.Y.Y.Y.Y.Y.Y.Y.Y.Y.Y.Y.Y.Y.Q.!.n 3 3 3 3 3 3 3 3 3 3 3 3 3 3 3 3 3 3 3 3 3 3 3 3 3 3 3 3 3 3 3 3 3 P.Y.Y.Y.Y.Y.Y.Y.Y.Y.$.3 3 3 3 3 3 3 3 3 3 3 3 3 3 3 3 3 3 3 3 3 3 3 3 3 3 3 3 3 3 3 3 3 3 3 3 3 3 q m.m.m.m.m.m.m.m.m.m.m.m.m.m.m.m.m.m.m.m.m.m.m.m.m.m.m.m.m.m.m.m.m.m.m.m.m.m.m.m.m.m.m.m.m.m.m.m.m.m.m.m.m.m.m.m.m.m.m.m.m.m.m.m.m.m.m.m.m.m.m.m.n.q 3 3 3 3 3 3 3 3 3 3 3 3 3 3 3 3 3 3 3 3 3 3 3 3 3 3                                                                                                                                                     ",
"                                                                                                                                                                                                K K K K K K K K K K K K K K K K K K K K K K K K K K K K K K K K K K K K K K K K K K K K K K K K K ) oXoXoX5.3 3 3 3 3 3 3 3 3 3 3 3 3 3 3 3 3 3 3 3 3 3 3 3 3 3 3 3 3 3 3 3 3 3 3 3 3 3 3 3 3 3 3 3 3 3 3 3 3 3 3 3 3 3 3 3 3 3 3 3 3 3 3 3 3 3 3 3 3 3 3 3 3 n K.Y.Y.Y.Y.Y.Y.Y.Y.Y.Y.Y.Y.Y.Y.Y.Y.Y.Q.!.n 3 3 3 3 3 3 3 3 3 3 3 3 3 3 3 3 3 3 3 3 3 3 3 3 3 3 3 3 3 3 3 G.Y.Y.Y.Y.Y.Y.Y.Y.Y.!.3 3 3 3 3 3 3 3 3 3 3 3 3 3 3 3 3 3 3 3 3 3 3 3 3 3 3 3 3 3 3 3 3 3 3 3 3 3 q m.m.m.m.m.m.m.m.m.m.m.m.m.m.m.m.m.m.m.m.m.m.m.m.m.m.m.m.m.m.m.m.m.m.m.m.m.m.m.m.m.m.m.m.m.m.m.m.m.m.m.m.m.m.m.m.m.m.m.m.m.m.m.m.m.m.m.m.m.m.m.O 6 3 3 3 3 3 3 3 3 3 3 3 3 3 3 3 3 3 3 3 3 3 3 3 3 3 3 3                                                                                                                                                     ",
"                                                                                                                                                                                                K K K K K K K K K K K K K K K K K K K K K K K K K K K K K K K K K K K K K K K K K K K K K K K K K ( oXoXoX5.3 3 3 3 3 3 3 3 3 3 3 3 3 3 3 3 3 3 3 3 3 3 3 3 3 3 3 3 3 3 3 3 3 3 3 3 3 3 3 3 3 3 3 3 3 3 3 3 3 3 3 3 3 3 3 3 3 3 3 3 3 3 3 3 3 3 3 3 3 3 3 3 3 3 z H.Y.Y.Y.Y.Y.Y.Y.Y.Y.Y.Y.Y.Y.Y.Y.Y.Y.Y.Y.F.$.3 3 3 3 3 3 3 3 3 3 3 3 3 3 3 , , 3 3 3 3 3 3 3 3 3 3 3 3 >.Y.Y.Y.Y.Y.Y.Y.Y.Y.J.3 3 3 3 3 3 3 3 3 3 3 3 3 3 3 3 3 3 3 3 3 3 3 3 3 3 3 3 3 3 3 3 3 3 3 3 3 3 q m.m.m.m.m.m.m.m.m.m.m.m.m.m.m.m.m.m.m.m.m.m.m.m.m.m.m.m.m.m.m.m.m.m.m.m.m.m.m.m.m.m.m.m.m.m.m.m.m.m.m.m.m.m.m.m.m.m.m.m.m.m.m.m.m.m.m.m.m.X : 3 3 3 3 3 3 3 3 3 3 3 3 3 3 3 3 3 3 3 3 3 3 3 3 3 3 3 3 3                                                                                                                                                     ",
"                                                                                                                                                                                                K K K K K K K K K K K K K K K K K K K K K K K K K K K K K K K K K K K K K K K K K K K K K K K K K ( oXoXoX5.3 3 3 3 3 3 3 3 3 3 3 3 3 3 3 3 3 3 3 3 3 3 3 3 3 3 3 3 3 3 3 3 3 3 3 3 3 3 3 3 3 3 3 3 3 3 3 3 3 3 3 3 3 3 3 3 3 3 3 3 3 3 3 3 3 3 3 3 3 3 3 3 3 3 3 3 !.Y.Y.Y.Y.Y.Y.Y.Y.Y.Y.Y.Y.Y.Y.Y.Y.Y.Y.Y.Y.T.!.X.3 3 3 3 3 3 3 3 3 3 3 3 3 3 3 3 3 3 3 3 3 3 3 3 3 3 X.Y.Y.Y.Y.Y.Y.Y.Y.Y.Q.1 3 3 3 3 3 3 3 3 3 3 3 3 3 3 3 3 3 3 3 3 3 3 3 3 3 3 3 3 3 3 3 3 3 3 3 3 3 q m.m.m.m.m.m.m.m.m.m.m.m.m.m.m.m.m.m.m.m.m.m.m.m.m.m.m.m.m.m.m.m.m.m.m.m.m.m.m.m.m.m.m.m.m.m.m.m.m.m.m.m.m.m.m.m.m.m.m.m.m.m.m.m.m.m.m.o t 3 3 3 3 3 3 3 3 3 3 3 3 3 3 3 3 3 3 3 3 3 3 3 3 3 3 3 3 3 3 3                                                                                                                                                     ",
"                                                                                                                                                                                                K K K K K K K K K K K K K K K K K K K K K K K K K K K K K K K K K K K K K K K K K K K K K K K K K ( oXoXoX5.3 3 3 3 3 3 3 3 3 3 3 3 3 3 3 3 3 3 3 3 3 3 3 3 3 3 3 3 3 3 3 3 3 3 3 3 3 3 3 3 3 3 3 3 3 3 3 3 3 3 3 3 3 3 3 3 3 3 3 3 3 3 3 3 3 3 3 3 3 3 3 3 3 3 3 3 3 ;.Y.Y.Y.Y.Y.Y.Y.Y.Y.Y.Y.Y.Y.Y.Y.Y.Y.Y.Y.Y.Y.Y.U.,.X.3 3 3 3 3 3 3 3 3 3 3 3 3 3 3 3 3 3 3 3 3 3 3 3 E.Y.Y.Y.Y.Y.Y.Y.Y.Y.X., 3 3 3 3 3 3 3 3 3 3 3 3 3 3 3 3 3 3 3 3 3 3 3 3 3 3 3 3 3 3 3 3 3 3 3 3 q m.m.m.m.m.m.m.m.m.m.m.m.m.m.m.m.m.m.m.m.m.m.m.m.m.m.m.m.m.m.m.m.m.m.m.m.m.m.m.m.m.m.m.m.m.m.m.m.m.m.m.m.m.m.m.m.m.m.m.m.m.m.m.m.M.O : 3 3 3 3 3 3 3 3 3 3 3 3 3 3 3 3 3 3 3 3 3 3 3 3 3 3 3 3 3 3 3 3 3                                                                                                                                                     ",
"                                                                                                                                                                                                K K K K K K K K K K K K K K K K K K K K K K K K K K K K K K K K K K K K K K K K K K K K K K K K K ( oXoXoX5.3 3 3 3 3 3 3 3 3 3 3 3 3 3 3 3 3 3 3 3 3 3 3 3 3 3 3 3 3 3 3 3 3 3 3 3 3 3 3 3 3 3 3 3 3 3 3 3 3 3 3 3 3 3 3 3 3 3 3 3 3 3 3 3 3 3 3 3 3 3 3 3 3 3 3 3 3 3 $.T.Y.Y.Y.Y.Y.Y.Y.Y.Y.Y.Y.Y.Y.Y.Y.Y.Y.Y.Y.Y.Y.Y.Y.T.G.;.X.3 3 3 3 3 3 3 3 3 3 3 3 3 3 3 3 3 3 3 3 H.Y.Y.Y.Y.Y.Y.Y.Y.Y.<.3 3 3 3 3 3 3 3 3 3 3 3 3 3 3 3 3 3 3 3 3 3 3 3 3 3 3 3 3 3 3 3 3 3 3 3 3 q m.m.m.m.m.m.m.m.m.m.m.m.m.m.m.m.m.m.m.m.m.m.m.m.m.m.m.m.m.m.m.m.m.m.m.m.m.m.m.m.m.m.m.m.m.m.m.m.m.m.m.m.m.m.m.m.m.m.m.m.m.M.o @ 1 3 3 3 3 3 3 3 3 3 3 3 3 3 3 3 3 3 3 3 3 3 3 3 3 3 3 3 3 3 3 3 3 3 3 3                                                                                                                                                     ",
"                                                                                                                                                                                                K K K K K K K K K K K K K K K K K K K K K K K K K K K K K K K K K K K K K K K K K K K K K K K K K ( oXoXoX5.3 3 3 3 3 3 3 3 3 3 3 3 3 3 3 3 3 3 3 3 3 3 3 3 3 3 3 3 3 3 3 3 3 3 3 3 3 3 3 3 3 3 3 3 3 3 3 3 3 3 3 3 3 3 3 3 3 3 3 3 3 3 3 3 3 3 3 3 3 3 3 3 3 3 3 3 3 3 3 n /.Y.Y.Y.Y.Y.Y.Y.Y.Y.Y.Y.Y.Y.Y.Y.Y.Y.Y.Y.Y.Y.Y.Y.Y.Y.Y.T.F.,. .n 3 3 3 3 3 3 3 3 3 3 3 3 3 3 3 ,.Y.Y.Y.Y.Y.Y.Y.Y.Y.F.3 3 3 3 3 3 3 3 3 3 3 3 3 3 3 3 3 3 3 3 3 3 3 3 3 3 3 3 3 3 3 3 3 3 3 3 3 q m.m.m.m.m.m.m.m.m.m.m.m.m.m.m.m.m.m.m.m.m.m.m.m.m.m.m.m.m.m.m.m.m.m.m.m.m.m.m.m.m.m.m.m.m.m.m.m.m.m.m.m.m.m.m.m.m.m.S.O @ 1 3 3 3 3 3 3 3 3 3 3 3 3 3 3 3 3 3 3 3 3 3 3 3 3 3 3 3 3 3 3 3 3 3 3 3 3 3 3                                                                                                                                                     ",
"                                                                                                                                                                                                K K K K K K K K K K K K K K K K K K K K K K K K K K K K K K K K K K K K K K K K K K K K K K K K K ( oXoXoX5.3 3 3 3 3 3 3 3 3 3 3 3 3 3 3 3 3 3 3 3 3 3 3 3 3 3 3 3 3 3 3 3 3 3 3 3 3 3 3 3 3 3 3 3 3 3 3 3 3 3 3 3 3 3 3 3 3 3 3 3 3 3 3 3 3 3 3 3 3 3 3 3 3 3 3 3 3 3 3 3 3  .T.Y.Y.Y.Y.Y.Y.Y.Y.Y.Y.Y.Y.Y.Y.Y.Y.Y.Y.Y.Y.Y.Y.Y.Y.Y.Y.Y.Y.Y.Q.K./.,.;.X.n 3 3 3 3 3 3 3 3 $.Y.Y.Y.Y.Y.Y.Y.Y.Y.T.3 3 3 3 3 3 3 3 3 3 3 3 3 3 3 3 3 3 3 3 3 3 3 3 3 3 3 3 3 3 3 3 3 3 3 3 3 q m.m.m.m.m.m.m.m.m.m.m.m.m.m.m.m.m.m.m.m.m.m.m.m.m.m.m.m.m.m.m.m.m.m.m.m.m.m.m.m.m.m.m.m.m.m.m.m.m.m.m.m.m.m.V.O @ 5 3 3 3 3 3 3 3 3 3 3 3 3 3 3 3 3 3 3 3 3 3 3 3 3 3 3 3 3 3 3 3 3 3 3 3 3 3 3 3 3 3 3                                                                                                                                                     ",
"                                                                                                                                                                                                J K J J J J J J J J J K K K J J J J J J K K K J K K J J J J J J J J K J J J J J J J J J K K K J K ( oXoXoX5.3 3 3 3 3 3 3 3 3 3 3 3 3 3 3 3 3 3 3 3 3 3 3 3 3 3 3 3 3 3 3 3 3 3 3 3 3 3 3 3 3 3 3 3 3 3 3 3 3 3 3 3 3 3 3 3 3 3 3 3 3 3 3 3 3 3 3 3 3 3 3 3 3 3 3 3 3 3 3 3 3 3 n ~.Y.Y.Y.Y.Y.Y.Y.Y.Y.Y.Y.Y.Y.Y.Y.Y.Y.Y.Y.Y.Y.Y.Y.Y.Y.Y.Y.Y.Y.Y.Y.Y.Y.Y.Y.Y.T.I.H.G.~.!.,.<.Y.Y.Y.Y.Y.Y.Y.Y.Y.Y.X.3 3 3 3 3 3 3 3 3 3 3 3 3 3 3 3 3 3 3 3 3 3 3 3 3 3 3 3 3 3 3 3 3 3 3 3 q m.m.m.m.m.m.m.m.m.m.m.m.m.m.m.m.m.m.m.m.m.m.m.m.m.m.m.m.m.m.m.m.m.m.m.m.m.m.m.m.m.m.m.m.m.m.m.n.V.o & @ : 1 3 3 3 3 3 3 3 3 3 3 3 3 3 3 3 3 3 3 3 3 3 3 3 3 3 3 3 3 3 3 3 3 3 3 3 3 3 3 3 3 3 3 3 3 3 3                                                                                                                                                     ",
"                                                                                                                                                                                                J K J J J J J J J J J K K K J J J J J J K K K K K K J J J J J J J J J J J J K K J J J J K K K K K ( oXoXoX5.3 3 3 3 3 3 3 3 3 3 3 3 3 3 3 3 3 3 3 3 3 3 3 3 3 3 3 3 3 3 3 3 3 3 3 3 3 3 3 3 3 3 3 3 3 3 3 3 3 3 3 3 3 3 3 3 3 3 3 3 3 3 3 3 3 3 3 3 3 3 3 3 3 3 3 3 3 3 3 3 3 3 3 3 X.K.Y.Y.Y.Y.Y.Y.Y.Y.Y.Y.Y.Y.Y.Y.Y.Y.Y.Y.Y.Y.Y.Y.Y.Y.Y.Y.Y.Y.Y.Y.Y.Y.Y.Y.Y.Y.Y.Y.Y.Y.Y.Y.Y.Y.Y.Y.Y.Y.Y.Y.Y.Y.;.3 3 3 3 3 3 3 3 3 3 3 3 3 3 3 3 3 3 3 3 3 3 3 3 3 3 3 3 3 3 3 3 3 3 3 3 q m.m.m.m.m.m.m.m.m.m.m.m.m.m.m.m.m.N.n.n.n.n.n.n.n.n.n.n.n.n.n.n.n.B.B.V.C.C.. o O & - @ q : 0 3 3 3 3 3 3 3 3 3 3 3 3 3 3 3 3 3 3 3 3 3 3 3 3 3 3 3 3 3 3 3 3 3 3 3 3 3 3 3 3 3 3 3 3 3 3 3 3 3 3 3 3 3                                                                                                                                                     ",
"                                                                                                                                                                                                J K J J K K J J J J J J K J J J K K K K J J K K K K J K K K K K J J J J J J K K K K K J J J K K K ( oXoXoX5.3 3 3 3 3 3 3 3 3 3 3 3 3 3 3 3 3 3 3 3 3 3 3 3 3 3 3 3 3 3 3 3 3 3 3 3 3 3 3 3 3 3 3 3 3 3 3 3 3 3 3 3 3 3 3 3 3 3 3 3 3 3 3 3 3 3 3 3 3 3 3 3 3 3 3 3 3 3 3 3 3 3 3 3 3 3  .I.Y.Y.Y.Y.Y.Y.Y.Y.Y.Y.Y.Y.Y.Y.Y.Y.Y.Y.Y.Y.Y.Y.Y.Y.Y.Y.Y.Y.Y.Y.Y.Y.Y.Y.Y.Y.Y.Y.Y.Y.Y.Y.Y.Y.Y.Y.Y.Y.Y.Y.G.3 3 3 3 3 3 3 3 3 3 3 3 3 3 3 3 3 3 3 3 3 3 3 3 3 3 3 3 3 3 3 3 3 3 3 3 q m.m.m.m.m.m.m.m.m.m.m.m.m.m.m.m.m.w 3 3 3 3 3 3 3 3 3 3 3 3 3 3 3 3 3 3 3 3 3 3 3 3 3 3 3 3 3 3 3 3 3 3 3 3 3 3 3 3 3 3 3 3 3 3 3 3 3 3 3 3 3 3 3 3 3 3 3 3 3 3 3 3 3 3 3 3 3 3 3 3 3 3 3 3 3 3 3 3 3 3                                                                                                                                                     ",
"                                                                                                                                                                                                J K K J K K J J J J J J K K J J K K K K J J K K J K J J K K K K J J J J J J K K K K K J J K K K K ( oXoXoX5.3 3 3 3 3 3 3 3 3 3 3 3 3 3 3 3 3 3 3 3 3 3 3 3 3 3 3 3 3 3 3 3 3 3 3 3 3 3 3 3 3 3 3 3 3 3 3 3 3 3 3 3 3 3 3 3 3 3 3 3 3 3 3 3 3 3 3 3 3 3 3 3 3 3 3 3 3 3 3 3 3 3 3 3 3 3 3 3  .I.Y.Y.Y.Y.Y.Y.Y.Y.Y.Y.Y.Y.Y.Y.Y.Y.Y.Y.Y.Y.Y.Y.Y.Y.Y.Y.Y.Y.Y.Y.Y.Y.Y.Y.Y.Y.Y.Y.Y.Y.Y.Y.Y.Y.Y.Y.Y.Y.Q.3 3 3 3 3 3 3 3 3 3 3 3 3 3 3 3 3 3 3 3 3 3 3 3 3 3 3 3 3 3 3 3 3 3 3 3 q m.m.m.m.m.m.m.m.m.m.m.m.m.m.m.m.m.w 3 3 3 3 3 3 3 3 3 3 3 3 3 3 3 3 3 3 3 3 3 3 3 3 3 3 3 3 3 3 3 3 3 3 3 3 3 3 3 3 3 3 3 3 3 3 3 3 3 3 3 3 3 3 3 3 3 3 3 3 3 3 3 3 3 3 3 3 3 3 3 3 3 3 3 3 3 3 3 3 3 3                                                                                                                                                     ",
"                                                                                                                                                                                                J J K K K K K K K K J K K K K K K K J J J J K K J J J J J J K K K K K K K K K K K K J J J J K K K ( oXoXoX5.3 3 3 3 3 3 3 3 3 3 3 3 3 3 3 3 3 3 3 3 3 3 3 3 3 3 3 3 3 3 3 3 3 3 3 3 3 3 3 3 3 3 3 3 3 3 3 3 3 3 3 3 3 3 3 3 3 3 3 3 3 3 3 3 3 3 3 3 3 3 3 3 3 3 3 3 3 3 3 3 3 3 3 3 3 3 3 3 3 3 $.F.Y.Y.Y.Y.Y.Y.Y.Y.Y.Y.Y.Y.Y.Y.Y.Y.Y.Y.Y.Y.Y.Y.Y.Y.Y.Y.Y.Y.Y.Y.Y.Y.Y.Y.Y.Y.Y.Y.Y.Y.Y.Y.Y.Y.Y.Y.Y.b 3 3 3 3 3 3 3 3 3 3 3 3 3 3 3 3 3 3 3 3 3 3 3 3 3 3 3 3 3 3 3 3 3 3 3 q m.m.m.m.m.m.m.m.m.m.m.m.m.m.m.m.m.w 3 3 3 3 3 3 3 3 3 3 3 3 3 3 3 3 3 3 3 3 3 3 3 3 3 3 3 3 3 3 3 3 3 3 3 3 3 3 3 3 3 3 3 3 3 3 3 3 3 3 3 3 3 3 3 3 3 3 3 3 3 3 3 3 3 3 3 3 3 3 3 3 3 3 3 3 3 3 3 3 3 3                                                                                                                                                     ",
"                                                                                                                                                                                                J K K K K K K K K K K K K K K K K K J J J J K K J J J J J K K K K K K K K K K K K K J J J J K K K ( oXoXoX5.3 3 3 3 3 3 3 3 3 3 3 3 3 3 3 3 3 3 3 3 3 3 3 3 3 3 3 3 3 3 3 3 3 3 3 3 3 3 3 3 3 3 3 3 3 3 3 3 3 3 3 3 3 3 3 3 3 3 3 3 3 3 3 3 3 3 3 3 3 3 3 3 3 3 3 3 3 3 3 3 3 3 3 3 3 3 3 3 3 3 3 3 b !.T.Y.Y.Y.Y.Y.Y.Y.Y.Y.Y.Y.Y.Y.Y.Y.Y.Y.Y.Y.Y.Y.Y.Y.Y.Y.Y.Y.Y.Y.Y.Y.Y.Y.Y.Y.Y.Y.Y.Y.Y.Y.Y.Y.Y. .3 3 3 3 3 3 3 3 3 3 3 3 3 3 3 3 3 3 3 3 3 3 3 3 3 3 3 3 3 3 3 3 3 3 3 q m.m.m.m.m.m.m.m.m.m.m.m.m.m.m.m.m.w 3 3 3 3 3 3 3 3 3 3 3 3 3 3 3 3 3 3 3 3 3 3 3 3 3 3 3 3 3 3 3 3 3 3 3 3 3 3 3 3 3 3 3 3 3 3 3 3 3 3 3 3 3 3 3 3 3 3 3 3 3 3 3 3 3 3 3 3 3 3 3 3 3 3 3 3 3 3 3 3 3 3                                                                                                                                                     ",
"                                                                                                                                                                                                J K K K K K J K K K J K K K K K K J J J K K K K K K K K J J J J K K K K K K K K K K J J K K K K K ( oXoXoX5.3 3 3 3 3 3 3 3 3 3 3 3 3 3 3 3 3 3 3 3 3 3 3 3 3 3 3 3 3 3 3 3 3 3 3 3 3 3 3 3 3 3 3 3 3 3 3 3 3 3 3 3 3 3 3 3 3 3 3 3 3 3 3 3 3 3 3 3 3 3 3 3 3 3 3 3 3 3 3 3 3 3 3 3 3 3 3 3 3 3 3 3 3 3 3 $./.Q.Y.Y.Y.Y.Y.Y.Y.Y.Y.Y.Y.Y.Y.Y.Y.Y.Y.Y.Y.Y.Y.Y.Y.Y.Y.Y.Y.Y.Y.Y.Y.Y.Y.Y.Y.Y.Y.Y.Y.Y.Y. .3 3 3 3 3 3 3 3 3 3 3 3 3 3 3 3 3 3 3 3 3 3 3 3 3 3 3 3 3 3 3 3 3 3 3 q m.m.m.m.m.m.m.m.m.m.m.m.m.m.m.m.m.w 3 3 3 3 3 3 3 3 3 3 3 3 3 3 3 3 3 3 3 3 3 3 3 3 3 3 3 3 3 3 3 3 3 3 3 3 3 3 3 3 3 3 3 3 3 3 3 3 3 3 3 3 3 3 3 3 3 3 3 3 3 3 3 3 3 3 3 3 3 3 3 3 3 3 3 3 3 3 3 3 3 3                                                                                                                                                     ",
"                                                                                                                                                                                                J J J J J J J J J J J J J J J J J J J J J J J J J J J J J J J J J J J J J J J J J J J J J J J J J ( oXoXoX5.3 3 3 3 3 3 3 3 3 3 3 3 3 3 3 3 3 3 3 3 3 3 3 3 3 3 3 3 3 3 3 3 3 3 3 3 3 3 3 3 3 3 3 3 3 3 3 3 3 3 3 3 3 3 3 3 3 3 3 3 3 3 3 3 3 3 3 3 3 3 3 3 3 3 3 3 3 3 3 3 3 3 3 3 3 3 3 3 3 3 3 3 3 3 3 3 3 1  .(.P.Y.Y.Y.Y.Y.Y.Y.Y.Y.Y.Y.Y.Y.Y.Y.Y.Y.Y.Y.Y.Y.Y.Y.Y.Y.Y.Y.Y.Y.Y.Y.Y.Y.Y.Y.Y.Y.Y.X.3 3 3 3 3 3 3 3 3 3 3 3 3 3 3 3 3 3 3 3 3 3 3 3 3 3 3 3 3 3 3 3 3 3 3 q m.m.m.m.m.m.m.m.m.m.m.m.m.m.m.m.m.w 3 3 3 3 3 3 3 3 3 3 3 3 3 3 3 3 3 3 3 3 3 3 3 3 3 3 3 3 3 3 3 3 3 3 3 3 3 3 3 3 3 3 3 3 3 3 3 3 3 3 3 3 3 3 3 3 3 3 3 3 3 3 3 3 3 3 3 3 3 3 3 3 3 3 3 3 3 3 3 3 3 3                                                                                                                                                     ",
"                                                                                                                                                                                                J J J J J J J J J J J J J J J J J J J J J J J J J J J J J J J J J J J J J J J J J J J J J J J J J ( oXoXoX5.3 3 3 3 3 3 3 3 3 3 3 3 3 3 3 3 3 3 3 3 3 3 3 3 3 3 3 3 3 3 3 3 3 3 3 3 3 3 3 3 3 3 3 3 3 3 3 3 3 3 3 3 3 3 3 3 3 3 3 3 3 3 3 3 3 3 3 3 3 3 3 3 3 3 3 3 3 3 3 3 3 3 3 3 3 3 3 3 3 3 3 3 3 3 3 3 3 3 3 3 3 X.<.F.T.Y.Y.Y.Y.Y.Y.Y.Y.Y.Y.Y.Y.Y.Y.Y.Y.Y.Y.Y.Y.Y.Y.Y.Y.Y.Y.Y.Y.Y.Y.Y.Y.Y.T.1 3 3 3 3 3 3 3 3 3 3 3 3 3 3 3 3 3 3 3 3 3 3 3 3 3 3 3 3 3 3 3 3 3 3 3 q m.m.m.m.m.m.m.m.m.m.m.m.m.m.m.m.m.w 3 3 3 3 3 3 3 3 3 3 3 3 3 3 3 3 3 3 3 3 3 3 3 3 3 3 3 3 3 3 3 3 3 3 3 3 3 3 3 3 3 3 3 3 3 3 3 3 3 3 3 3 3 3 3 3 3 3 3 3 3 3 3 3 3 3 3 3 3 3 3 3 3 3 3 3 3 3 3 3 3 3                                                                                                                                                     ",
"                                                                                                                                                                                                J J J J J J J J J J J J J J J J J J J J J J J J J J J J J J J J J J J J J J J J J J J J J J J J J ( oXoXoX5.3 3 3 3 3 3 3 3 3 3 3 3 3 3 3 3 3 3 3 3 3 3 3 3 3 3 3 3 3 3 3 3 3 3 3 3 3 3 3 3 3 3 3 3 3 3 3 3 3 3 3 3 3 3 3 3 3 3 3 3 3 3 3 3 3 3 3 3 3 3 3 3 3 3 3 3 3 3 3 3 3 3 3 3 3 3 3 3 3 3 3 3 3 3 3 3 3 3 3 3 3 3 3 3 3 X.;.~.K.Q.Y.Y.Y.Y.Y.Y.Y.Y.Y.Y.Y.Y.Y.Y.Y.Y.Y.Y.Y.Y.Y.Y.Y.Y.Y.Y.Y.Y.,.3 3 3 3 3 3 3 3 3 3 3 3 3 3 3 3 3 3 3 3 3 3 3 3 3 3 3 3 3 3 3 3 3 3 3 3 q m.m.m.m.m.m.m.m.m.m.m.m.m.m.m.m.m.w 3 3 3 3 3 3 3 3 3 3 3 3 3 3 3 3 3 3 3 3 3 3 3 3 3 3 3 3 3 3 3 3 3 3 3 3 3 3 3 3 3 3 3 3 3 3 3 3 3 3 3 3 3 3 3 3 3 3 3 3 3 3 3 3 3 3 3 3 3 3 3 3 3 3 3 3 3 3 3 3 3 3                                                                                                                                                     ",
"                                                                                                                                                                                                J J J J J J J J J J J J J J J J J J J J J J J J J J J J J J J J J J J J J J J J J J J J J J J J J ( oXoXoX5.3 3 3 3 3 3 3 3 3 3 3 3 3 3 3 3 3 3 3 3 3 3 3 3 3 3 3 3 3 3 3 3 3 3 3 3 3 3 3 3 3 3 3 3 3 3 3 3 3 3 3 3 3 3 3 3 3 3 3 3 3 3 3 3 3 3 3 3 3 3 3 3 3 3 3 3 3 3 3 3 3 3 3 3 3 3 3 3 3 3 3 3 3 3 3 3 3 3 3 3 3 3 3 3 3 3 3 3 3 3 X. .,./.J.T.Y.Y.Y.Y.Y.Y.Y.Y.Y.Y.Y.Y.Y.Y.Y.Y.Y.Y.Y.Y.Y.J.1 3 3 3 3 3 3 3 3 3 3 3 3 3 3 3 3 3 3 3 3 3 3 3 3 3 3 3 3 3 3 3 3 3 3 3 3 r m.m.m.m.m.m.m.m.m.m.m.m.m.m.m.m.m.w 3 3 3 3 3 3 3 3 3 3 3 3 3 3 3 3 3 3 3 3 3 3 3 3 3 3 3 3 3 3 3 3 3 3 3 3 3 3 3 3 3 3 3 3 3 3 3 3 3 3 3 3 3 3 3 3 3 3 3 3 3 3 3 3 3 3 3 3 3 3 3 3 3 3 3 3 3 3 3 3 3 3                                                                                                                                                     ",
"                                                                                                                                                                                                J J J J J J J J J J J J J J J J J J J J J J J J J J J J J J J J J J J J J J J J J J J J J J J J J ( oXoXoX5.3 3 3 3 3 3 3 3 3 3 3 3 3 3 3 3 3 3 3 3 3 3 3 3 3 3 3 3 3 3 3 3 3 3 3 3 3 3 3 3 3 3 3 3 3 3 3 3 3 3 3 3 3 3 3 3 3 3 3 3 3 3 3 3 3 3 3 3 3 3 3 3 3 3 3 3 3 3 3 3 3 3 3 3 3 3 3 3 3 3 3 3 3 3 3 3 3 3 3 3 3 3 3 3 3 3 3 3 3 3 3 3 3 3 3 3 2 <.Q.Y.Y.Y.Y.Y.Y.Y.Y.Y.Y.Y.Y.Y.Y.Y.Y.Y.J.1 3 3 3 3 3 3 3 3 3 3 3 3 3 3 3 3 3 3 3 3 3 3 3 3 3 3 3 3 3 3 3 3 3 3 3 3 3 q m.m.m.m.m.m.m.m.m.m.m.m.m.m.m.m.m.w 3 3 3 3 3 3 3 3 3 3 3 3 3 3 3 3 3 3 3 3 3 3 3 3 3 3 3 3 3 3 3 3 3 3 3 3 3 3 3 3 3 3 3 3 3 3 3 3 3 3 3 3 3 3 3 3 3 3 3 3 3 3 3 3 3 3 3 3 3 3 3 3 3 3 3 3 3 3 3 3 3 3                                                                                                                                                     ",
"                                                                                                                                                                                                J J J J J J J J J J J J J J J J J J J J J J J J J J J J J J J J J J J J J J J J J J J J J J J J J ( oXoXoX5.3 3 3 3 3 3 3 3 3 3 3 3 3 3 3 3 3 3 3 3 3 3 3 3 3 3 3 3 3 3 3 3 3 3 3 3 3 3 3 3 3 3 3 3 3 3 3 3 3 3 3 3 3 3 3 3 3 3 3 3 3 3 3 3 3 3 3 3 3 3 3 3 3 3 3 3 3 3 3 3 3 3 3 3 3 3 3 3 3 3 3 3 3 3 3 3 3 3 3 3 3 3 3 3 3 3 3 3 3 3 3 3 3 3 3 0 /.Y.Y.Y.Y.Y.Y.Y.Y.Y.Y.Y.Y.Y.Y.Y.Y.Y.T.$.3 3 3 3 3 3 3 3 3 3 3 3 3 3 3 3 3 3 3 3 3 3 3 3 3 3 3 3 3 3 3 3 3 3 3 3 3 3 3 r m.m.m.m.m.m.m.m.m.m.m.m.m.m.m.m.m.w 3 3 3 3 3 3 3 3 3 3 3 3 3 3 3 3 3 3 3 3 3 3 3 3 3 3 3 3 3 3 3 3 3 3 3 3 3 3 3 3 3 3 3 3 3 3 3 3 3 3 3 3 3 3 3 3 3 3 3 3 3 3 3 3 3 3 3 3 3 3 3 3 3 3 3 3 3 3 3 3 3 3                                                                                                                                                     ",
"                                                                                                                                                                                                J J J J J J J J J J J J J J J J J J J J J J J J J J J J J J J J J J J J J J J J J J J J J J J J J ( oXoXoX5.3 3 3 3 3 3 3 3 3 3 3 3 3 3 3 3 3 3 3 3 3 3 3 3 3 3 3 3 3 3 3 3 3 3 3 3 3 3 3 3 3 3 3 3 3 3 3 3 3 3 3 3 3 3 3 3 3 3 3 3 3 3 3 3 3 3 3 3 3 3 3 3 3 3 3 3 3 3 3 3 3 3 3 3 3 3 3 3 3 3 3 3 3 3 3 3 3 3 3 3 3 3 3 3 3 3 3 3 3 3 3 3 3 3 $.T.Y.Y.Y.Y.Y.Y.Y.Y.Y.Y.Y.Y.Y.Y.Y.Y.Y.G.0 3 3 3 3 3 3 3 3 3 3 3 3 3 3 3 3 3 3 3 3 3 3 3 3 3 3 3 3 3 3 3 3 3 3 3 3 3 3 3 3 q m.m.m.m.m.m.m.m.m.m.m.m.m.m.m.m.m.w 3 3 3 3 3 3 3 3 3 3 3 3 3 3 3 3 3 3 3 3 3 3 3 3 3 3 3 3 3 3 3 3 3 3 3 3 3 3 3 3 3 3 3 3 3 3 3 3 3 3 3 3 3 3 3 3 3 3 3 3 3 3 3 3 3 3 3 3 3 3 3 3 3 3 3 3 3 3 3 3 3 3                                                                                                                                                     ",
"                                                                                                                                                                                                J J J J J J J J J J J J J J J J J J J J J J J J J J J J J J J J J J J J J J J J J J J J J J J J J ( oXoXoX5.3 3 3 3 3 3 3 3 3 3 3 3 3 3 3 3 3 3 3 3 3 3 3 3 3 3 3 3 3 3 3 3 3 3 3 3 3 3 3 3 3 3 3 3 3 3 3 3 3 3 3 3 3 3 3 3 3 3 3 3 3 3 3 3 3 3 3 3 3 3 3 3 3 3 3 3 3 3 3 3 3 3 3 3 3 3 3 3 3 3 3 3 3 3 3 3 3 3 3 3 3 3 3 3 3 3 3 3 3 3 3 3 1 !.Y.Y.Y.Y.Y.Y.Y.Y.Y.Y.Y.Y.Y.Y.Y.Y.Y.T. .3 3 3 3 3 3 3 3 3 3 3 3 3 3 3 3 3 3 3 3 3 3 3 3 3 3 3 3 3 3 3 3 3 3 3 3 3 3 3 3 3 3 q m.m.m.m.m.m.m.m.m.m.m.m.m.m.m.m.m.w 3 3 3 3 3 3 3 3 3 3 3 3 3 3 3 3 3 3 3 3 3 3 3 3 3 3 3 3 3 3 3 3 3 3 3 3 3 3 3 3 3 3 3 3 3 3 3 3 3 3 3 3 3 3 3 3 3 3 3 3 3 3 3 3 3 3 3 3 3 3 3 3 3 3 3 3 3 3 3 3 3 3                                                                                                                                                     ",
"                                                                                                                                                                                                J J J J J J J J J J J J J J J J J J J J J J J J J J J J J J J J J J J J J J J J J J J J J J J J J ( oXoXoX5.3 3 3 3 3 3 3 3 3 3 3 3 3 3 3 3 3 3 3 3 3 3 3 3 3 3 3 3 3 3 3 3 3 3 3 3 3 3 3 3 3 3 3 3 3 3 3 3 3 3 3 3 3 3 3 3 3 3 3 3 3 3 3 3 3 3 3 3 3 3 3 3 3 3 3 3 3 3 3 3 3 3 3 3 3 3 3 3 3 3 3 3 3 3 3 3 3 3 3 3 3 3 3 3 3 3 3 3 3 3 3 X.I.Y.Y.Y.Y.Y.Y.Y.Y.Y.Y.Y.Y.Y.Y.Y.Y.Y.H.b 3 3 3 3 3 3 3 3 3 3 3 3 3 3 3 3 3 3 3 3 3 3 3 3 3 3 3 3 3 3 3 3 3 3 3 3 3 3 3 3 3 3 3 q m.m.m.m.m.m.m.m.m.m.m.m.m.m.m.m.m.w 3 3 3 3 3 3 3 3 3 3 3 3 3 3 3 3 3 3 3 3 3 3 3 3 3 3 3 3 3 3 3 3 3 3 3 3 3 3 3 3 3 3 3 3 3 3 3 3 3 3 3 3 3 3 3 3 3 3 3 3 3 3 3 3 3 3 3 3 3 3 3 3 3 3 3 3 3 3 3 3 3 3                                                                                                                                                     ",
"                                                                                                                                                                                                J J J J J J J J J J J J J J J J J J J J J J J J J J J J J J J J J J J J J J J J J J J J J J J J J ( oXoXoX5.3 3 3 3 3 3 3 3 3 3 3 3 3 3 3 3 3 3 3 3 3 3 3 3 3 3 3 3 3 3 3 3 3 3 3 3 3 3 3 3 3 3 3 3 3 3 3 3 3 3 3 3 3 3 3 3 3 3 3 3 3 3 3 3 3 3 3 3 3 3 3 3 3 3 3 3 3 3 3 3 3 3 3 3 3 3 3 3 3 3 3 3 3 3 3 3 3 3 3 3 3 3 3 3 3 3 3 3 3 3 <.Y.Y.Y.Y.Y.Y.Y.Y.Y.Y.Y.Y.Y.Y.Y.Y.Y.Y.<.3 3 3 3 3 3 3 3 3 3 3 3 3 3 3 3 3 3 3 3 3 3 3 3 3 3 3 3 3 3 3 3 3 3 3 3 3 3 3 3 3 3 3 3 3 q m.m.m.m.m.m.m.m.m.m.m.m.m.m.m.m.m.w 3 3 3 3 3 3 3 3 3 3 3 3 3 3 3 3 3 3 3 3 3 3 3 3 3 3 3 3 3 3 3 3 3 3 3 3 3 3 3 3 3 3 3 3 3 3 3 3 3 3 3 3 3 3 3 3 3 3 3 3 3 3 3 3 3 3 3 3 3 3 3 3 3 3 3 3 3 3 3 3 3 3                                                                                                                                                     ",
"                                                                                                                                                                                                J J J J J J J J J J J J J J J J J J J J J J J J J J J J J J J J J J J J J J J J J J J J J J J J J ( oXoXoX5.3 3 3 3 3 3 3 3 3 3 3 3 3 3 3 3 3 3 3 3 3 3 3 3 3 3 3 3 3 3 3 3 3 3 3 3 3 3 3 3 3 3 3 3 3 3 3 3 3 3 3 3 3 3 3 3 3 3 3 3 3 3 3 3 3 3 3 3 3 3 3 3 3 3 3 3 3 3 3 3 3 3 3 3 3 3 3 3 3 3 3 3 3 3 3 3 3 3 3 3 3 3 3 3 3 3 3 3 b J.Y.Y.Y.Y.Y.Y.Y.Y.Y.Y.Y.Y.Y.Y.Y.Y.Y.U.X.3 3 3 3 3 3 3 3 3 3 3 3 3 3 3 3 3 3 3 3 3 3 3 3 3 3 3 3 3 3 3 3 3 3 3 3 3 3 3 3 3 3 3 3 3 3 q m.m.m.m.m.m.m.m.m.m.m.m.m.m.m.m.m.w 3 3 3 3 3 3 3 3 3 3 3 3 3 3 3 3 3 3 3 3 3 3 3 3 3 3 3 3 3 3 3 3 3 3 3 3 3 3 3 3 3 3 3 3 3 3 3 3 3 3 3 3 3 3 3 3 3 3 3 3 3 3 3 3 3 3 3 3 3 3 3 3 3 3 3 3 3 3 3 3 3 3                                                                                                                                                     ",
"                                                                                                                                                                                                J J J J J J J J J J J J J J J J J J J J J J J J J J J J J J J J J J J J J J J J J J J J J J J J J ( oXoXoX5.3 3 2 2 2 2 3 3 3 2 3 3 3 3 2 2 3 3 3 3 2 2 2 3 3 3 2 2 2 2 3 3 3 2 3 3 3 3 2 2 2 3 3 3 2 2 2 3 3 3 2 2 2 2 3 3 3 2 3 3 3 3 2 2 3 3 3 3 2 2 2 3 3 3 2 2 2 3 3 3 2 2 3 3 3 3 2 2 2 2 3 3 2 2 2 3 3 3 2 3 3 3 2 2 3 3 3 ;.Q.Y.Y.Y.Y.Y.Y.Y.Y.Y.Y.Y.Y.Y.Y.Y.Y.Y.,.1 2 2 3 3 2 2 2 2 3 3 2 2 2 2 3 3 3 2 3 3 3 3 2 2 2 3 3 3 2 2 2 3 3 3 2 2 2 3 3 3 2 2 3 2 3 3 3 q m.m.m.m.m.m.m.m.m.m.m.m.m.m.m.m.m.w 3 3 3 3 2 2 2 3 3 3 2 2 2 3 3 3 2 2 2 2 3 3 3 2 3 3 3 3 2 2 3 3 3 3 2 2 2 3 3 3 2 2 2 2 3 3 3 2 3 3 3 3 2 2 2 3 3 3 2 2 2 3 3 3 2 2 2 3 3 3 2 2 3 3 3 3 2 2 2 2 3 3                                                                                                                                                     ",
"                                                                                                                                                                                                J J J J J J J J J J J J J J J J J J J J J J J J J J J J J J J J J J J J J J J J J J J J J J J J J ( oXoXoX5.3 3 2 2 2 2 3 3 3 3 3 3 3 3 2 2 2 3 3 3 2 2 2 3 3 3 2 2 2 2 3 3 3 3 3 3 3 3 2 2 2 3 3 3 2 2 2 2 3 3 2 2 2 2 3 3 3 3 3 3 3 3 2 2 2 3 3 3 2 2 2 3 3 3 2 2 2 2 3 3 3 3 3 3 3 3 2 2 2 3 3 3 2 2 2 2 3 3 2 2 3 3 3 2 3 b H.Y.Y.Y.Y.Y.Y.Y.Y.Y.Y.Y.Y.Y.Y.Y.Y.Y.P.X.2 2 2 3 3 3 2 2 2 2 3 3 2 2 2 2 3 3 3 3 3 3 3 3 2 2 2 3 3 3 2 2 2 2 3 3 2 2 2 2 3 3 3 3 3 2 2 3 3 q m.m.m.m.m.m.m.m.m.m.m.m.m.m.m.m.m.w 3 3 3 3 2 2 2 3 3 3 2 2 2 2 3 3 2 2 2 2 3 3 3 3 3 3 3 3 2 2 2 3 3 3 2 2 2 3 3 3 2 2 2 2 3 3 3 3 3 3 3 3 2 2 2 3 3 3 2 2 2 2 3 3 2 2 2 2 3 3 3 3 3 3 3 3 2 2 2 3 3 3                                                                                                                                                     ",
"                                                                                                                                                                                                J J J J J J J J J J J J J J J J J J J J J J J J J J J J J J J J J J J J J J J J J J J J J J J J J ( oXoXoX+.3 3 3 3 3 3 3 3 3 3 3 2 3 3 2 2 3 3 3 3 3 2 3 3 3 3 3 3 3 3 3 3 3 3 3 2 3 3 2 2 3 3 3 3 3 2 3 3 3 3 3 3 3 3 3 3 3 3 3 2 3 3 2 2 3 3 3 3 3 2 3 3 3 3 3 2 3 3 3 3 3 3 2 2 3 3 2 3 3 3 3 3 3 2 3 3 3 3 3 3 3 3 3 3  .T.Y.Y.Y.Y.Y.Y.Y.Y.Y.Y.Y.Y.Y.Y.Y.Y.Y./.2 3 2 2 3 3 3 3 3 2 3 3 3 3 3 3 3 3 3 3 3 3 3 2 3 3 2 2 3 3 3 3 3 2 3 3 3 3 3 2 3 3 3 3 3 3 3 3 3 3 3 r m.m.m.m.m.m.m.m.m.m.m.m.m.m.m.m.m.w 3 2 3 3 2 2 3 3 3 3 3 2 3 3 3 3 3 3 3 3 3 3 3 3 3 2 3 3 2 2 3 3 3 3 3 2 3 3 3 3 3 3 3 3 3 3 3 3 3 2 3 3 2 2 3 3 3 3 3 2 3 3 3 3 3 2 3 3 3 3 3 3 2 2 3 3 2 3 3 3 3 3                                                                                                                                                     ",
"                                                                                                                                                                                                J J J J J J J J J J J J J J J J J J J J J J J J J J J J J J J J J J J J J J J J J J J J J J J J J ( oXoXoX+.3 3 3 3 3 3 3 3 3 3 2 2 3 3 3 3 3 3 3 3 2 2 3 3 3 3 3 3 3 3 3 3 3 3 2 2 3 3 3 3 3 3 3 3 3 2 3 3 3 3 3 3 3 3 3 3 3 3 2 2 3 3 3 3 3 3 3 3 2 2 3 3 3 3 3 3 3 3 3 3 3 3 2 2 3 3 3 3 3 3 3 3 3 2 3 3 3 3 3 3 3 3 2 (.Y.Y.Y.Y.Y.Y.Y.Y.Y.Y.Y.Y.Y.Y.Y.Y.Y.T. .3 3 3 3 3 3 3 3 3 3 3 3 3 3 3 3 3 3 3 3 3 3 3 2 2 3 3 3 3 3 3 3 3 3 2 3 3 3 3 3 3 3 3 3 3 3 3 2 3 3 3 3 r m.m.m.m.m.m.m.m.m.m.m.m.m.m.m.m.m.w 2 2 3 3 3 3 3 3 3 3 3 2 3 3 3 3 3 3 3 3 3 3 3 3 2 2 3 3 3 3 3 3 3 3 2 2 3 3 3 3 3 3 3 3 3 3 3 3 2 2 3 3 3 3 3 3 3 3 3 2 3 3 3 3 3 3 3 3 3 3 3 3 2 2 3 3 3 3 3 3 3 3                                                                                                                                                     ",
"                                                                                                                                                                                                J J J J J J J J J J J J J J J J J J J J J J J J J J J J J J J J J J J J J J J J J J J J J J J J J / oXoXoX+.2 2 3 3 3 3 3 3 3 3 2 2 3 3 3 3 3 3 3 3 3 3 3 2 2 2 3 3 3 3 3 3 3 3 2 2 3 3 3 3 3 3 3 3 3 3 3 2 2 2 3 3 3 3 3 3 3 3 2 2 3 3 3 3 3 3 3 3 3 3 3 2 2 2 3 3 3 3 3 3 3 3 2 3 3 3 3 3 3 3 3 2 3 3 3 2 2 2 3 3 3 X.P.Y.Y.Y.Y.Y.Y.Y.Y.Y.Y.Y.Y.Y.Y.Y.Y.Y.F.0 3 3 3 3 3 3 3 3 3 3 3 3 3 3 2 2 3 3 3 3 3 3 3 3 2 2 3 3 3 3 3 3 3 3 3 3 3 2 2 2 3 3 3 3 3 3 3 3 2 3 3 3 3 r m.m.m.m.m.m.m.m.m.m.m.m.m.m.m.m.m.w 2 2 3 3 3 3 3 3 3 3 3 3 3 2 2 2 3 3 3 3 3 3 3 3 2 2 3 3 3 3 3 3 3 3 3 3 3 2 2 2 3 3 3 3 3 3 3 3 2 2 3 3 3 3 3 3 3 3 3 3 3 2 2 2 3 3 3 3 3 3 3 3 2 3 3 3 3 3 3 3 3 3                                                                                                                                                     ",
"                                                                                                                                                                                                J J J J J J J J J J J J J J J J J J J J J J J J J J J J J J J J J J J J J J J J J J J J J J J J J / oXoXoX+.3 3 3 3 3 3 3 3 3 2 2 2 3 3 3 3 3 3 3 3 3 3 3 2 2 2 3 3 3 3 3 3 3 2 2 2 3 3 3 3 3 3 3 3 3 3 3 3 2 2 3 3 3 3 3 3 3 2 2 2 3 3 3 3 3 3 3 3 3 3 3 2 2 2 3 3 3 3 3 3 3 2 2 2 3 3 3 3 3 3 3 3 3 3 3 3 2 2 3 1 ,.Y.Y.Y.Y.Y.Y.Y.Y.Y.Y.Y.Y.Y.Y.Y.Y.Y.Q.;.3 3 3 3 3 3 3 3 3 3 3 3 3 3 3 3 2 2 3 3 3 3 3 3 3 2 2 2 3 3 3 3 3 3 3 3 3 3 3 3 2 2 3 3 3 3 3 3 3 2 2 3 3 3 3 r m.m.m.m.m.m.m.m.m.m.m.m.m.m.m.m.m.w 2 2 3 3 3 3 3 3 3 3 3 3 3 3 2 2 3 3 3 3 3 3 3 2 2 2 3 3 3 3 3 3 3 3 3 3 3 2 2 2 3 3 3 3 3 3 3 2 2 2 3 3 3 3 3 3 3 3 3 3 3 3 2 2 3 3 3 3 3 3 3 2 2 2 3 3 3 3 3 3 3 3                                                                                                                                                     ",
"                                                                                                                                                                                                J J J J J J J J J J J J J J J J J J J J J J J J J J J J J J J J J J J J J J J J J J J J J J J J J / oXoXoX+.3 3 2 2 2 3 3 3 3 3 3 3 3 3 2 2 2 3 3 3 3 3 3 3 3 3 2 2 2 3 3 3 3 3 3 3 3 3 2 3 2 3 3 3 3 3 3 3 2 3 2 2 2 3 3 3 3 3 3 3 3 3 2 2 2 3 3 3 3 3 3 3 3 3 2 2 3 3 3 3 3 2 3 3 3 3 3 3 2 3 3 3 3 3 3 3 2 3 X.U.Y.Y.Y.Y.Y.Y.Y.Y.Y.Y.Y.Y.Y.Y.Y.Y.Y.J.b 3 3 3 2 2 3 2 3 3 2 3 3 3 3 3 3 3 2 2 2 2 2 3 3 3 3 3 3 3 3 3 2 3 2 3 3 3 3 3 3 3 2 3 2 2 3 3 3 3 2 2 3 3 3 3 3 r m.m.m.m.m.m.m.m.m.m.m.m.m.m.m.m.m.w 3 3 3 3 2 3 2 3 3 3 3 3 3 3 2 3 2 2 2 3 3 3 3 3 3 3 3 3 2 2 2 3 3 3 3 3 3 3 3 3 2 2 2 3 3 3 3 3 3 3 3 3 2 3 2 3 3 3 3 3 3 3 2 3 2 2 3 3 3 3 3 2 3 3 3 3 3 3 3 3 3 3                                                                                                                                                     ",
"                                                                                                                                                                                                J J J J J J J J J J J J J J J J J J J J J J J J J J J J J J J J J J J J J J J J J J J J J J J J J / oXoXoX+.2 2 2 2 2 2 2 2 2 2 2 2 2 2 2 2 2 2 2 2 2 2 2 2 2 2 2 2 2 2 2 2 2 2 2 2 2 2 2 2 2 2 2 2 2 2 2 2 2 2 2 2 2 2 2 2 2 2 2 2 2 2 2 2 2 2 2 2 2 2 2 2 2 2 2 2 2 2 2 2 2 2 2 2 2 2 2 2 2 2 2 2 2 2 2 2 1 :.Q.Y.Y.Y.Y.Y.Y.Y.Y.Y.Y.Y.Y.Y.Y.Y.Y.Y.,.3 2 2 2 2 2 2 2 2 2 2 2 2 2 2 2 2 2 2 2 2 2 2 2 2 2 2 2 2 2 2 2 2 2 2 2 2 2 2 2 2 2 2 2 2 2 2 2 2 2 2 2 2 2 2 2 2 2 e m.m.m.m.m.m.m.m.m.m.m.m.m.m.m.m.m.w 2 2 2 2 2 2 2 2 2 2 2 2 2 2 2 2 2 2 2 2 2 2 2 2 2 2 2 2 2 2 2 2 2 2 2 2 2 2 2 2 2 2 2 2 2 2 2 2 2 2 2 2 2 2 2 2 2 2 2 2 2 2 2 2 2 2 2 2 2 2 2 2 2 2 2 2 2 2 2 2 2 2                                                                                                                                                     ",
"                                                                                                                                                                                                J J J J J J J J J J J J J J J J J J J J J J J J J J J J J J J J J J J J J J J J J J J J J J J J J / oXoXoX+.2 2 2 2 2 2 2 2 2 2 2 2 2 2 2 2 2 2 2 2 2 2 2 2 2 2 2 2 2 2 2 2 2 2 2 2 2 2 2 2 2 2 2 2 2 2 2 2 2 2 2 2 2 2 2 2 2 2 2 2 2 2 2 2 2 2 2 2 2 2 2 2 2 2 2 2 2 2 2 2 2 2 2 2 2 2 2 2 2 2 2 2 2 2 2 b J.Y.Y.Y.Y.Y.Y.Y.Y.Y.Y.Y.Y.Y.Y.Y.Y.Y.I.X.2 2 2 2 2 2 2 2 2 2 2 2 2 2 2 2 2 2 2 2 2 2 2 2 2 2 2 2 2 2 2 2 2 2 2 2 2 2 2 2 2 2 2 2 2 2 2 2 2 2 2 2 2 2 2 2 2 2 2 e m.m.m.m.m.m.m.m.m.m.m.m.m.m.m.m.m.w 2 2 2 2 2 2 2 2 2 2 2 2 2 2 2 2 2 2 2 2 2 2 2 2 2 2 2 2 2 2 2 2 2 2 2 2 2 2 2 2 2 2 2 2 2 2 2 2 2 2 2 2 2 2 2 2 2 2 2 2 2 2 2 2 2 2 2 2 2 2 2 2 2 2 2 2 2 2 2 2 2 2                                                                                                                                                     ",
"                                                                                                                                                                                                J J J J J J J J J J J J J J J J J J J J J J J J J J J J J J J J J J J J J J J J J J J J J J J J J / oXoXoXO.2 2 2 2 2 2 2 2 2 2 2 2 2 2 2 2 2 2 2 2 2 2 2 2 2 2 2 2 2 2 2 2 2 2 2 2 2 2 2 2 2 2 2 2 2 2 2 2 2 2 2 2 2 2 2 2 2 2 2 2 2 2 2 2 2 2 2 2 2 2 2 2 2 2 2 2 2 2 2 2 2 2 2 2 2 2 2 2 2 2 2 2 2 2 ;.E.Y.Y.Y.Y.Y.Y.Y.Y.Y.Y.Y.Y.Y.Y.Y.Y.Y.!.2 2 2 2 2 2 2 2 2 2 2 2 2 2 2 2 2 2 2 2 2 2 2 2 2 2 2 2 2 2 2 2 2 2 2 2 2 2 2 2 2 2 2 2 2 2 2 2 2 2 2 2 2 2 2 2 2 2 2 2 2 e m.m.m.m.m.m.m.m.m.m.m.m.m.m.m.m.m.w 2 2 2 2 2 2 2 2 2 2 2 2 2 2 2 2 2 2 2 2 2 2 2 2 2 2 2 2 2 2 2 2 2 2 2 2 2 2 2 2 2 2 2 2 2 2 2 2 2 2 2 2 2 2 2 2 2 2 2 2 2 2 2 2 2 2 2 2 2 2 2 2 2 2 2 2 2 2 2 2 2 2                                                                                                                                                     ",
"                                                                                                                                                                                                J J J J J J J J J J J J J J J J J J J J J J J J J J J J J J J J J J J J J J J J J J J J J J J J J / oXoXoX+.2 2 2 2 2 2 2 2 2 2 2 2 2 2 2 2 2 2 2 2 2 2 2 2 2 2 2 2 2 2 2 2 2 2 2 2 2 2 2 2 2 2 2 2 2 2 2 2 2 2 2 2 2 2 2 2 2 2 2 2 2 2 2 2 2 2 2 2 2 2 2 2 2 2 2 2 2 2 2 2 2 2 2 2 2 2 2 2 2 2 2 2 0 G.Y.Y.Y.Y.Y.Y.Y.Y.Y.Y.Y.Y.Y.Y.Y.Y.Y.P.$.2 2 2 2 2 2 2 2 2 2 2 2 2 2 2 2 2 2 2 2 2 2 2 2 2 2 2 2 2 2 2 2 2 2 2 2 2 2 2 2 2 2 2 2 2 2 2 2 2 2 2 2 2 2 2 2 2 2 2 2 2 2 e m.m.m.m.m.m.m.m.m.m.m.m.m.m.m.m.m.w 2 2 2 2 2 2 2 2 2 2 2 2 2 2 2 2 2 2 2 2 2 2 2 2 2 2 2 2 2 2 2 2 2 2 2 2 2 2 2 2 2 2 2 2 2 2 2 2 2 2 2 2 2 2 2 2 2 2 2 2 2 2 2 2 2 2 2 2 2 2 2 2 2 2 2 2 2 2 2 2 2 2                                                                                                                                                     ",
"                                                                                                                                                                                                J J J J J J J J J J J J J J J J J J J J J J J J J J J J J J J J J J J J J J J J J J J J J J J J J / oXoXoX+.2 2 2 2 2 2 2 2 2 2 2 2 2 2 2 2 2 2 2 2 2 2 2 2 2 2 2 2 2 2 2 2 2 2 2 2 2 2 2 2 2 2 2 2 2 2 2 2 2 2 2 2 2 2 2 2 2 2 2 2 2 2 2 2 2 2 2 2 2 2 2 2 2 2 2 2 2 2 2 2 2 2 2 2 2 2 2 2 2 2 2 $.T.Y.Y.Y.Y.Y.Y.Y.Y.Y.Y.Y.Y.Y.Y.Y.Y.Y.G.0 2 2 2 2 2 2 2 2 2 2 2 2 2 2 2 2 2 2 2 2 2 2 2 2 2 2 2 2 2 2 2 2 2 2 2 2 2 2 2 2 2 2 2 2 2 2 2 2 2 2 2 2 2 2 2 2 2 2 2 2 2 2 2 e m.m.m.m.m.m.m.m.m.m.m.m.m.m.m.m.m.w 2 2 2 2 2 2 2 2 2 2 2 2 2 2 2 2 2 2 2 2 2 2 2 2 2 2 2 2 2 2 2 2 2 2 2 2 2 2 2 2 2 2 2 2 2 2 2 2 2 2 2 2 2 2 2 2 2 2 2 2 2 2 2 2 2 2 2 2 2 2 2 2 2 2 2 2 2 2 2 2 2 2                                                                                                                                                     ",
"                                                                                                                                                                                                J ^ J J J J ^ ^ ^ J J J ^ ^ ^ ^ J J J J J J J J ^ ^ J J J J ^ ^ ^ ^ J J J J ^ ^ ^ J J J ^ ^ ^ ^ J / oXoXoX+.2 2 2 2 2 2 2 2 2 2 2 2 2 2 2 2 2 2 2 2 2 2 2 2 2 2 2 2 2 2 2 2 2 2 2 2 2 2 2 2 2 2 2 2 2 2 2 2 2 2 2 2 2 2 2 2 2 2 2 2 2 2 2 2 2 2 2 2 2 2 2 2 2 2 2 2 2 2 2 2 2 2 2 2 2 2 2 2 2 1 !.Y.Y.Y.Y.Y.Y.Y.Y.Y.Y.Y.Y.Y.Y.Y.Y.Y.T. .2 2 2 2 2 2 2 2 2 2 2 2 2 2 2 2 2 2 2 2 2 2 2 2 2 2 2 2 2 2 2 2 2 2 2 2 2 2 2 2 2 2 2 2 2 2 2 2 2 2 2 2 2 2 2 2 2 2 2 2 2 2 2 2 2 e m.m.m.m.m.m.m.m.m.m.m.m.m.m.m.m.m.w 2 2 2 2 2 2 2 2 2 2 2 2 2 2 2 2 2 2 2 2 2 2 2 2 2 2 2 2 2 2 2 2 2 2 2 2 2 2 2 2 2 2 2 2 2 2 2 2 2 2 2 2 2 2 2 2 2 2 2 2 2 2 2 2 2 2 2 2 2 2 2 2 2 2 2 2 2 2 2 2 2 2                                                                                                                                                     ",
"                                                                                                                                                                                                J ^ ^ ^ J J ^ ^ ^ J J J ^ ^ ^ ^ J J J J ^ J J J ^ ^ J ^ J J ^ ^ ^ ^ J ^ J J ^ ^ ^ J J J ^ ^ ^ ^ J / oXoXoX+.2 2 2 2 2 2 2 2 2 2 2 2 2 2 2 2 2 2 2 2 2 2 2 2 2 2 2 2 2 2 2 2 2 2 2 2 2 2 2 2 2 2 2 2 2 2 2 2 2 2 2 2 2 2 2 2 2 2 2 2 2 2 2 2 2 2 2 2 2 2 2 2 2 2 2 2 2 2 2 2 2 2 2 2 2 2 2 2 X.I.Y.Y.Y.Y.Y.Y.Y.Y.Y.Y.Y.Y.Y.Y.Y.Y.Y.J.b 2 2 2 2 2 2 2 2 2 2 2 2 2 2 2 2 2 2 2 2 2 2 2 2 2 2 2 2 2 2 2 2 2 2 2 2 2 2 2 2 2 2 2 2 2 2 2 2 2 2 2 2 2 2 2 2 2 2 2 2 2 2 2 2 2 2 e m.m.m.m.m.m.m.m.m.m.m.m.m.m.m.m.m.w 2 2 2 2 2 2 2 2 2 2 2 2 2 2 2 2 2 2 2 2 2 2 2 2 2 2 2 2 2 2 2 2 2 2 2 2 2 2 2 2 2 2 2 2 2 2 2 2 2 2 2 2 2 2 2 2 2 2 2 2 2 2 2 2 2 2 2 2 2 2 2 2 2 2 2 2 2 2 2 2 2 2                                                                                                                                                     ",
"                                                                                                                                                                                                J ^ ^ ^ J J J ^ ^ ^ J J J J ^ ^ ^ ^ ^ ^ ^ ^ J J ^ ^ ^ ^ J J J ^ ^ ^ ^ ^ J J J ^ ^ ^ J J J J ^ ^ J / oXoXoXO.2 2 2 2 2 2 2 2 2 2 2 2 2 2 2 2 2 2 2 2 2 2 2 2 2 2 2 2 2 2 2 2 2 2 2 2 2 2 2 2 2 2 2 2 2 2 2 2 2 2 2 2 2 2 2 2 2 2 2 2 2 2 2 2 2 2 2 2 2 2 2 2 2 2 2 2 2 2 2 2 2 2 2 2 2 2 2 ,.Y.Y.Y.Y.Y.Y.Y.Y.Y.Y.Y.Y.Y.Y.Y.Y.Y.Q.;.2 2 2 2 2 2 2 2 2 2 2 2 2 2 2 2 2 2 2 2 2 2 2 2 2 2 2 2 2 2 2 2 2 2 2 2 2 2 2 2 2 2 2 2 2 2 2 2 2 2 2 2 2 2 2 2 2 2 2 2 2 2 2 2 2 2 2 2 e m.m.m.m.m.m.m.m.m.m.m.m.m.m.m.m.m.w 2 2 2 2 2 2 2 2 2 2 2 2 2 2 2 2 2 2 2 2 2 2 2 2 2 2 2 2 2 2 2 2 2 2 2 2 2 2 2 2 2 2 2 2 2 2 2 2 2 2 2 2 2 2 2 2 2 2 2 2 2 2 2 2 2 2 2 2 2 2 2 2 2 2 2 2 2 2 2 2 2 2                                                                                                                                                     ",
"                                                                                                                                                                                                J ^ ^ ^ J J J J ^ ^ J J J ^ ^ ^ ^ ^ ^ ^ ^ ^ J J ^ ^ ^ ^ J J J ^ ^ ^ ^ ^ J J J ^ ^ ^ J J J ^ ^ ^ J / oXoXoXO.2 2 2 2 2 2 2 2 2 2 2 2 2 2 2 2 2 2 2 2 2 2 2 2 2 2 2 2 2 2 2 2 2 2 2 2 2 2 2 2 2 2 2 2 2 2 2 2 2 2 2 2 2 2 2 2 2 2 2 2 2 2 2 2 2 2 2 2 2 2 2 2 2 2 2 2 2 2 2 2 2 2 2 2 2 2 G.Y.Y.Y.Y.Y.Y.Y.Y.Y.Y.Y.Y.Y.Y.Y.Y.Y.J.X.2 2 2 2 2 2 2 2 2 2 2 2 2 2 2 2 2 2 2 2 2 2 2 2 2 2 2 2 2 2 2 2 2 2 2 2 2 2 2 2 2 2 2 2 2 2 2 2 2 2 2 2 2 2 2 2 2 2 2 2 2 2 2 2 2 2 2 2 2 e m.m.m.m.m.m.m.m.m.m.m.m.m.m.m.m.m.w 2 2 2 2 2 2 2 2 2 2 2 2 2 2 2 2 2 2 2 2 2 2 2 2 2 2 2 2 2 2 2 2 2 2 2 2 2 2 2 2 2 2 2 2 2 2 2 2 2 2 2 2 2 2 2 2 2 2 2 2 2 2 2 2 2 2 2 2 2 2 2 2 2 2 2 2 2 2 2 2 2 2                                                                                                                                                     ",
"                                                                                                                                                                                                J ^ ^ ^ J J J J ^ ^ J J J J J J J J J J ^ ^ J J J ^ ^ ^ J J J J J ^ ^ ^ J J J J ^ ^ J J J J J J J / oXoXoXO.2 2 2 2 2 2 2 2 2 2 2 2 2 2 2 2 2 2 2 2 2 2 2 2 2 2 2 2 2 2 2 2 2 2 2 2 2 2 2 2 2 2 2 2 2 2 2 2 2 2 2 2 2 2 2 2 2 2 2 2 2 2 2 2 2 2 2 2 2 2 2 2 2 2 2 2 2 2 2 2 2 2 2 2 2 ;.Y.Y.Y.Y.Y.Y.Y.Y.Y.Y.Y.Y.Y.Y.Y.Y.Y.,.2 2 2 2 2 2 2 2 2 2 2 2 2 2 2 2 2 2 2 2 2 2 2 2 2 2 2 2 2 2 2 2 2 2 2 2 2 2 2 2 2 2 2 2 2 2 2 2 2 2 2 2 2 2 2 2 2 2 2 2 2 2 2 2 2 2 2 2 2 2 2 e m.m.m.m.m.m.m.m.m.m.m.m.m.m.m.m.m.w 2 2 2 2 2 2 2 2 2 2 2 2 2 2 2 2 2 2 2 2 2 2 2 2 2 2 2 2 2 2 2 2 2 2 2 2 2 2 2 2 2 2 2 2 2 2 2 2 2 2 2 2 2 2 2 2 2 2 2 2 2 2 2 2 2 2 2 2 2 2 2 2 2 2 2 2 2 2 2 2 2 2                                                                                                                                                     ",
"                                                                                                                                                                                                J ^ ^ ^ J J J J ^ ^ J J J J ^ ^ J J J J ^ ^ J ^ J ^ ^ ^ J J J J J ^ ^ ^ J J J J ^ ^ J J J J ^ ^ J / oXoXoXO.2 2 2 2 2 2 2 2 2 2 2 2 2 2 2 2 2 2 2 2 2 2 2 2 2 2 2 2 2 2 2 2 2 2 2 2 2 2 2 2 2 2 2 2 2 2 2 2 2 2 2 2 2 2 2 2 2 2 2 2 2 2 2 2 2 2 2 2 2 2 2 2 2 2 2 2 2 2 2 2 2 2 2 2 2 I.Y.Y.Y.Y.Y.Y.Y.Y.Y.Y.Y.Y.Y.Y.Y.P.X.2 2 2 2 2 2 2 2 2 2 2 2 2 2 2 2 2 2 2 2 2 2 2 2 2 2 2 2 2 2 2 2 2 2 2 2 2 2 2 2 2 2 2 2 2 2 2 2 2 2 2 2 2 2 2 2 2 2 2 2 2 2 2 2 2 2 2 2 2 2 2 2 e m.m.m.m.m.m.m.m.m.m.m.m.m.m.m.m.m.w 2 2 2 2 2 2 2 2 2 2 2 2 2 2 2 2 2 2 2 2 2 2 2 2 2 2 2 2 2 2 2 2 2 2 2 2 2 2 2 2 2 2 2 2 2 2 2 2 2 2 2 2 2 2 2 2 2 2 2 2 2 2 2 2 2 2 2 2 2 2 2 2 2 2 2 2 2 2 2 2 2 2                                                                                                                                                     ",
"                                                                                                                                                                                                J J ^ ^ J J J J ^ J J J ^ ^ ^ ^ J J J J ^ ^ ^ ^ J J ^ ^ J J J J J J ^ ^ J J J J ^ J J J ^ ^ ^ ^ J / oXoXoXO.2 2 2 2 2 2 2 2 2 2 2 2 2 2 2 2 2 2 2 2 2 2 2 2 2 2 2 2 2 2 2 2 2 2 2 2 2 2 2 2 2 2 2 2 2 2 2 2 2 2 2 2 2 2 2 2 2 2 2 2 2 2 2 2 2 2 2 2 2 2 2 2 2 2 2 2 2 2 2 2 2 2 2 2 0 Y.Y.Y.Y.Y.Y.Y.Y.Y.Y.Y.Y.Y.Y.Y.(.1 2 2 2 2 2 2 2 2 2 2 2 2 2 2 2 2 2 2 2 2 2 2 2 2 2 2 2 2 2 2 2 2 2 2 2 2 2 2 2 2 2 2 2 2 2 2 2 2 2 2 2 2 2 2 2 2 2 2 2 2 2 2 2 2 2 2 2 2 2 2 2 2 2 e m.m.m.m.m.m.m.m.m.m.m.m.m.m.m.m.m.w 2 2 2 2 2 2 2 2 2 2 2 2 2 2 2 2 2 2 2 2 2 2 2 2 2 2 2 2 2 2 2 2 2 2 2 2 2 2 2 2 2 2 2 2 2 2 2 2 2 2 2 2 2 2 2 2 2 2 2 2 2 2 2 2 2 2 2 2 2 2 2 2 2 2 2 2 2 2 2 2 2 2                                                                                                                                                     ",
"                                                                                                                                                                                                ^ ^ R R R ^ ^ ^ R ^ ^ ^ R R R R ^ ^ ^ ^ R R R R ^ ^ R R R ^ ^ ^ ^ ^ R R R ^ ^ ^ R ^ ^ ^ R R R R ^ / oXoXoXO.2 2 2 2 2 2 2 2 2 2 2 2 2 2 2 2 2 2 2 2 2 2 2 2 2 2 2 2 2 2 2 2 2 2 2 2 2 2 2 2 2 2 2 2 2 2 2 2 2 2 2 2 2 2 2 2 2 2 2 2 2 2 2 2 2 2 2 2 2 2 2 2 2 2 2 2 2 2 2 2 2 2 2 2 X.Y.Y.Y.Y.Y.Y.Y.Y.Y.Y.Y.Y.Y.T.$.2 2 2 2 2 2 2 2 2 2 2 2 2 2 2 2 2 2 2 2 2 2 2 2 2 2 2 2 2 2 2 2 2 2 2 2 2 2 2 2 2 2 2 2 2 2 2 2 2 2 2 2 2 2 2 2 2 2 2 2 2 2 2 2 2 2 2 2 2 2 2 2 2 2 2 e m.m.m.m.m.m.m.m.m.m.m.m.m.m.m.m.m.w 2 2 2 2 2 2 2 2 2 2 2 2 2 2 2 2 2 2 2 2 2 2 2 2 2 2 2 2 2 2 2 2 2 2 2 2 2 2 2 2 2 2 2 2 2 2 2 2 2 2 2 2 2 2 2 2 2 2 2 2 2 2 2 2 2 2 2 2 2 2 2 2 2 2 2 2 2 2 2 2 2 2                                                                                                                                                     ",
"                                                                                                                                                                                                ^ ^ ^ ^ ^ ^ ^ ^ ^ ^ ^ ^ ^ ^ ^ ^ ^ ^ ^ ^ ^ ^ ^ ^ ^ ^ ^ ^ ^ ^ ^ ^ ^ ^ ^ ^ ^ ^ ^ ^ ^ ^ ^ ^ ^ ^ ^ ^ ^ / oXoXoXO.2 2 2 2 2 2 2 2 2 2 2 2 2 2 2 2 2 2 2 2 2 2 2 2 2 2 2 2 2 2 2 2 2 2 2 2 2 2 2 2 2 2 2 2 2 2 2 2 2 2 2 2 2 2 2 2 2 2 2 2 2 2 2 2 2 2 2 2 2 2 2 2 2 2 2 2 2 2 2 2 2 2 2 2 8 Y.Y.Y.Y.Y.Y.Y.Y.Y.Y.Y.Y.G.0 2 2 2 2 2 2 2 2 2 2 2 2 2 2 2 2 2 2 2 2 2 2 2 2 2 2 2 2 2 2 2 2 2 2 2 2 2 2 2 2 2 2 2 2 2 2 2 2 2 2 2 2 2 2 2 2 2 2 2 2 2 2 2 2 2 2 2 2 2 2 2 2 2 2 2 2 e m.m.m.m.m.m.m.m.m.m.m.m.m.m.m.m.m.w 2 2 2 2 2 2 2 2 2 2 2 2 2 2 2 2 2 2 2 2 2 2 2 2 2 2 2 2 2 2 2 2 2 2 2 2 2 2 2 2 2 2 2 2 2 2 2 2 2 2 2 2 2 2 2 2 2 2 2 2 2 2 2 2 2 2 2 2 2 2 2 2 2 2 2 2 2 2 2 2 2 2                                                                                                                                                     ",
"                                                                                                                                                                                                ^ ^ ^ ^ ^ ^ ^ ^ ^ ^ ^ ^ ^ ^ ^ ^ ^ ^ ^ ^ ^ ^ ^ ^ ^ ^ ^ ^ ^ ^ ^ ^ ^ ^ ^ ^ ^ ^ ^ ^ ^ ^ ^ ^ ^ ^ ^ ^ ^ / oXoXoXO.2 2 2 2 2 2 2 2 2 2 2 2 2 2 2 2 2 2 2 2 2 2 2 2 2 2 2 2 2 2 2 2 2 2 2 2 2 2 2 2 2 2 2 2 2 2 2 2 2 2 2 2 2 2 2 2 2 2 2 2 2 2 2 2 2 2 2 2 2 2 2 2 2 2 2 2 2 2 2 2 2 2 2 2 2 T.Y.Y.Y.Y.Y.Y.Y.Y.Y.E.;.2 2 2 2 2 2 2 2 2 2 2 2 2 2 2 2 2 2 2 2 2 2 2 2 2 2 2 2 2 2 2 2 2 2 2 2 2 2 2 2 2 2 2 2 2 2 2 2 2 2 2 2 2 2 2 2 2 2 2 2 2 2 2 2 2 2 2 2 2 2 2 2 2 2 2 2 2 2 e m.m.m.m.m.m.m.m.m.m.m.m.m.m.m.m.m.w 2 2 2 2 2 2 2 2 2 2 2 2 2 2 2 2 2 2 2 2 2 2 2 2 2 2 2 2 2 2 2 2 2 2 2 2 2 2 2 2 2 2 2 2 2 2 2 2 2 2 2 2 2 2 2 2 2 2 2 2 2 2 2 2 2 2 2 2 2 2 2 2 2 2 2 2 2 2 2 2 2 2                                                                                                                                                     ",
"                                                                                                                                                                                                ^ ^ ^ ^ ^ ^ ^ ^ ^ ^ ^ ^ ^ ^ ^ ^ ^ ^ ^ ^ ^ ^ ^ ^ ^ ^ ^ ^ ^ ^ ^ ^ ^ ^ ^ ^ ^ ^ ^ ^ ^ ^ ^ ^ ^ ^ ^ ^ ^ / oXoXoXO.2 2 2 2 2 2 2 2 2 2 2 2 2 2 2 2 2 2 2 2 2 2 2 2 2 2 2 2 2 2 2 2 2 2 2 2 2 2 2 2 2 2 2 2 2 2 2 2 2 2 2 2 2 2 2 2 2 2 2 2 2 2 2 2 2 2 2 2 2 2 2 2 2 2 2 2 2 2 2 2 2 2 2 2 2 ,.Y.Y.Y.Y.Y.Y.Y.Y.J.8 2 2 2 2 2 2 2 2 2 2 2 2 2 2 2 2 2 2 2 2 2 2 2 2 2 2 2 2 2 2 2 2 2 2 2 2 2 2 2 2 2 2 2 2 2 2 2 2 2 2 2 2 2 2 2 2 2 2 2 2 2 2 2 2 2 2 2 2 2 2 2 2 2 2 2 2 2 2 2 e m.m.m.m.m.m.m.m.m.m.m.m.m.m.m.m.m.w 2 2 2 2 2 2 2 2 2 2 2 2 2 2 2 2 2 2 2 2 2 2 2 2 2 2 2 2 2 2 2 2 2 2 2 2 2 2 2 2 2 2 2 2 2 2 2 2 2 2 2 2 2 2 2 2 2 2 2 2 2 2 2 2 2 2 2 2 2 2 2 2 2 2 2 2 2 2 2 2 2                                                                                                                                                       ",
"                                                                                                                                                                                                ^ ^ ^ ^ ^ ^ ^ ^ ^ ^ ^ ^ ^ ^ ^ ^ ^ ^ ^ ^ ^ ^ ^ ^ ^ ^ ^ ^ ^ ^ ^ ^ ^ ^ ^ ^ ^ ^ ^ ^ ^ ^ ^ ^ ^ ^ ^ ^ ^ / oXoXoXO.2 2 2 2 2 2 2 2 2 2 2 2 2 2 2 2 2 2 2 2 2 2 2 2 2 2 2 2 2 2 2 2 2 2 2 2 2 2 2 2 2 2 2 2 2 2 2 2 2 2 2 2 2 2 2 2 2 2 2 2 2 2 2 2 2 2 2 2 2 2 2 2 2 2 2 2 2 2 2 2 2 2 2 2 2 < J.Y.Y.Y.Y.Y.Y.:.2 2 2 2 2 2 2 2 2 2 2 2 2 2 2 2 2 2 2 2 2 2 2 2 2 2 2 2 2 2 2 2 2 2 2 2 2 2 2 2 2 2 2 2 2 2 2 2 2 2 2 2 2 2 2 2 2 2 2 2 2 2 2 2 2 2 2 2 2 2 2 2 2 2 2 2 2 2 2 2 2 e m.m.m.m.m.m.m.m.m.m.m.m.m.m.m.m.m.w 2 2 2 2 2 2 2 2 2 2 2 2 2 2 2 2 2 2 2 2 2 2 2 2 2 2 2 2 2 2 2 2 2 2 2 2 2 2 2 2 2 2 2 2 2 2 2 2 2 2 2 2 2 2 2 2 2 2 2 2 2 2 2 2 2 2 2 2 2 2 2 2 2 2 2 2 2 2 2 2 2                                                                                                                                                       ",
"                                                                                                                                                                                                ^ ^ ^ ^ ^ ^ ^ ^ ^ ^ ^ ^ ^ ^ ^ ^ ^ ^ ^ ^ ^ ^ ^ ^ ^ ^ ^ ^ ^ ^ ^ ^ ^ ^ ^ ^ ^ ^ ^ ^ ^ ^ ^ ^ ^ ^ ^ ^ ^ / oXoXoXO.2 2 2 2 2 2 2 2 2 2 2 2 2 2 2 2 2 2 2 2 2 2 2 2 2 2 2 2 2 2 2 2 2 2 2 2 2 2 2 2 2 2 2 2 2 2 2 2 2 2 2 2 2 2 2 2 2 2 2 2 2 2 2 2 2 2 2 2 2 2 2 2 2 2 2 2 2 2 2 2 2 2 2 2 2 2 1 !.Q.Y.Y.H.X.2 2 2 2 2 2 2 2 2 2 2 2 2 2 2 2 2 2 2 2 2 2 2 2 2 2 2 2 2 2 2 2 2 2 2 2 2 2 2 2 2 2 2 2 2 2 2 2 2 2 2 2 2 2 2 2 2 2 2 2 2 2 2 2 2 2 2 2 2 2 2 2 2 2 2 2 2 2 2 2 2 2 e m.m.m.m.m.m.m.m.m.m.m.m.m.m.m.m.m.w 2 2 2 2 2 2 2 2 2 2 2 2 2 2 2 2 2 2 2 2 2 2 2 2 2 2 2 2 2 2 2 2 2 2 2 2 2 2 2 2 2 2 2 2 2 2 2 2 2 2 2 2 2 2 2 2 2 2 2 2 2 2 2 2 2 2 2 2 2 2 2 2 2 2 2 2 2 2 2 2 2                                                                                                                                                       ",
"                                                                                                                                                                                                ^ ^ ^ ^ ^ ^ ^ ^ ^ ^ ^ ^ ^ ^ ^ ^ ^ ^ ^ ^ ^ ^ ^ ^ ^ ^ ^ ^ ^ ^ ^ ^ ^ ^ ^ ^ ^ ^ ^ ^ ^ ^ ^ ^ ^ ^ ^ ^ ^ / oXoXoXO.2 2 2 2 2 2 2 2 2 2 2 2 2 2 2 2 2 2 2 2 2 2 2 2 2 2 2 2 2 2 2 2 2 2 2 2 2 2 2 2 2 2 2 2 2 2 2 2 2 2 2 2 2 2 2 2 2 2 2 2 2 2 2 2 2 2 2 2 2 2 2 2 2 2 2 2 2 2 2 2 2 2 2 2 2 2 2 2 < X.0 2 2 2 2 2 2 2 2 2 2 2 2 2 2 2 2 2 2 2 2 2 2 2 2 2 2 2 2 2 2 2 2 2 2 2 2 2 2 2 2 2 2 2 2 2 2 2 2 2 2 2 2 2 2 2 2 2 2 2 2 2 2 2 2 2 2 2 2 2 2 2 2 2 2 2 2 2 2 2 2 2 2 2 2 e m.m.m.m.m.m.m.m.m.m.m.m.m.m.m.m.m.w 2 2 2 2 2 2 2 2 2 2 2 2 2 2 2 2 2 2 2 2 2 2 2 2 2 2 2 2 2 2 2 2 2 2 2 2 2 2 2 2 2 2 2 2 2 2 2 2 2 2 2 2 2 2 2 2 2 2 2 2 2 2 2 2 2 2 2 2 2 2 2 2 2 2 2 2 2 2 2 2                                                                                                                                                         ",
"                                                                                                                                                                                                ^ ^ ^ ^ ^ ^ ^ ^ ^ ^ ^ ^ ^ ^ ^ ^ ^ ^ ^ ^ ^ ^ ^ ^ ^ ^ ^ ^ ^ ^ ^ ^ ^ ^ ^ ^ ^ ^ ^ ^ ^ ^ ^ ^ ^ ^ ^ ^ ^ / oXoXoXO.2 2 2 2 2 2 2 2 2 2 2 2 2 2 2 2 2 2 2 2 2 2 2 2 2 2 2 2 2 2 2 2 2 2 2 2 2 2 2 2 2 2 2 2 2 2 2 2 2 2 2 2 2 2 2 2 2 2 2 2 2 2 2 2 2 2 2 2 2 2 2 2 2 2 2 2 2 2 2 2 2 2 2 2 2 2 2 2 2 2 2 2 2 2 2 2 2 2 2 2 2 2 2 2 2 2 2 2 2 2 2 2 2 2 2 2 2 2 2 2 2 2 2 2 2 2 2 2 2 2 2 2 2 2 2 2 2 2 2 2 2 2 2 2 2 2 2 2 2 2 2 2 2 2 2 2 2 2 2 2 2 2 2 2 2 2 2 2 2 2 2 2 2 2 2 e m.m.m.m.m.m.m.m.m.m.m.m.m.m.m.m.m.w 2 2 2 2 2 2 2 2 2 2 2 2 2 2 2 2 2 2 2 2 2 2 2 2 2 2 2 2 2 2 2 2 2 2 2 2 2 2 2 2 2 2 2 2 2 2 2 2 2 2 2 2 2 2 2 2 2 2 2 2 2 2 2 2 2 2 2 2 2 2 2 2 2 2 2 2 2 2 2 2                                                                                                                                                         ",
"                                                                                                                                                                                                ^ ^ ^ ^ ^ ^ ^ ^ ^ ^ ^ ^ ^ ^ ^ ^ ^ ^ ^ ^ ^ ^ ^ ^ ^ ^ ^ ^ ^ ^ ^ ^ ^ ^ ^ ^ ^ ^ ^ ^ ^ ^ ^ ^ ^ ^ ^ ^ ^ / oXoXoXO.2 2 < < < < 2 < < < < < < 2 2 2 2 < < 2 < 2 2 < < < < < 2 2 2 2 2 2 < 2 < < < < < 2 2 2 2 2 < < < < < < < 2 2 2 2 2 < < < 2 2 2 2 < < 2 < 2 2 < < < 2 2 2 < < < < 2 < < < < 2 < < < 2 2 2 < < < < < < < < < 2 < < < 2 2 2 < < < < 2 < < < < 2 < < < 2 2 2 2 < < < < < < < < 2 < < < < < < 2 2 2 2 < < 2 < 2 2 < < < < < 2 2 2 2 2 2 < 2 < < < < < 2 2 2 2 < 2 e m.m.m.m.m.m.m.m.m.m.m.m.m.m.m.m.m.w < 2 < 2 2 < < < 2 2 2 < < < < 2 < < < < 2 < < < 2 2 2 2 < < < < < < < < 2 < < < 2 2 2 < < < < 2 < < < < 2 < < < 2 2 2 2 < < < < < < < < 2 < < < 2 2 < < < 2 2 2                                                                                                                                                         ",
"                                                                                                                                                                                                ^ ^ ^ ^ ^ ^ ^ ^ ^ ^ ^ ^ ^ ^ ^ ^ ^ ^ ^ ^ ^ ^ ^ ^ ^ ^ ^ ^ ^ ^ ^ ^ ^ ^ ^ ^ ^ ^ ^ ^ ^ ^ ^ ^ ^ ^ ^ ^ ^ / oXoXoXO.2 2 2 2 2 2 < < < 2 2 < < < < < < < < < < < 2 2 2 2 < < 2 2 2 2 < 2 < < < < < 2 2 2 < < 2 2 2 2 2 2 2 2 < < < < 2 2 2 < < < < < < < < < < < 2 2 2 2 < < < < < < 2 2 2 2 2 2 < < < 2 < < < < < 2 2 2 2 2 2 2 < < < 2 < < < < < < 2 2 2 2 2 2 < < < 2 < < < < < 2 2 2 2 2 2 2 < < < 2 2 < < < < < < < < < < < 2 2 2 2 < < 2 2 2 2 < 2 < < < < < 2 2 2 < < < < 2 e m.m.m.m.m.m.m.m.m.m.m.m.m.m.m.m.m.w < < < < 2 2 2 2 < < < < < < 2 2 2 2 2 2 < < < 2 < < < < < 2 2 2 2 2 2 2 < < < 2 < < < < < < 2 2 2 2 2 2 < < < 2 < < < < < 2 2 2 2 2 2 2 < < < 2 2 < < < 2 2 2                                                                                                                                                           ",
"                                                                                                                                                                                                ^ ^ ^ ^ ^ ^ ^ ^ ^ ^ ^ ^ ^ ^ ^ ^ ^ ^ ^ ^ ^ ^ ^ ^ ^ ^ ^ ^ ^ ^ ^ ^ ^ ^ ^ ^ ^ ^ ^ ^ ^ ^ ^ ^ ^ ^ ^ ^ ^ / oXoXoXO.< < 2 2 2 2 < < < 2 2 < 2 2 < < < < 2 < 2 < 2 2 2 2 < < 2 2 < 2 < < < < < < < 2 2 2 < < 2 2 2 2 2 2 2 2 < < < < 2 2 2 < 2 2 < < < < 2 < 2 < 2 2 2 2 < < < < < < 2 2 2 2 2 2 < < < 2 < < < < < < 2 2 2 2 2 2 < < < 2 < < < < < < 2 2 2 2 2 2 < < < 2 < < < < < < 2 2 2 2 2 2 < < < 2 2 < 2 2 < < < < 2 < 2 < 2 2 2 2 < < 2 2 < 2 < < < < < < < 2 2 2 < < < < 2 e m.m.m.m.m.m.m.m.m.m.m.m.m.m.m.m.m.w 2 < 2 < 2 2 2 2 < < < < < < 2 2 2 2 2 2 < < < 2 < < < < < < 2 2 2 2 2 2 < < < 2 < < < < < < 2 2 2 2 2 2 < < < 2 < < < < < < 2 2 2 2 2 2 < < < 2 2 < < < 2 2 2                                                                                                                                                           ",
"                                                                                                                                                                                                ^ ^ ^ ^ ^ ^ ^ ^ ^ ^ ^ ^ ^ ^ ^ ^ ^ ^ ^ ^ ^ ^ ^ ^ ^ ^ ^ ^ ^ ^ ^ ^ ^ ^ ^ ^ ^ ^ ^ ^ ^ ^ ^ ^ ^ ^ ^ ^ ^ / oXoXoXO.< < 2 2 2 < < < 2 2 2 2 2 2 < < 2 2 2 2 2 2 2 2 2 < < 2 2 2 < < < < 2 2 < < 2 2 2 2 < < < < 2 2 2 2 2 2 2 2 < < 2 2 2 2 2 2 < < 2 2 2 2 2 2 2 2 2 < < < < < 2 2 2 2 2 2 2 < < < 2 2 < 2 < < 2 2 2 2 2 2 2 < < < 2 2 < < < < 2 2 2 2 2 2 2 < < < 2 2 < 2 < < 2 2 2 2 2 2 2 < < < 2 2 2 2 2 2 < < 2 2 2 2 2 2 2 2 2 < < 2 2 2 < < < < 2 2 < < 2 2 2 2 < < 2 2 2 : & & & & & & & & & & & & & & & & & : 2 2 2 2 2 2 2 < < < < < 2 2 2 2 2 2 2 < < < 2 2 < 2 < < 2 2 2 2 2 2 2 < < < 2 2 < < < < 2 2 2 2 2 2 2 < < < 2 2 < 2 < < 2 2 2 2 2 2 2 < < < 2 2 2 2 < < 2 2                                                                                                                                                             ",
"                                                                                                                                                                                                ^ ^ ^ ^ ^ ^ ^ ^ ^ ^ ^ ^ ^ ^ ^ ^ ^ ^ ^ ^ ^ ^ ^ ^ ^ ^ ^ ^ ^ ^ ^ ^ ^ ^ ^ ^ ^ ^ ^ ^ ^ ^ ^ ^ ^ ^ ^ ^ ^ / oXoXoXO.2 < 2 2 2 < < < 2 2 2 2 2 2 < 2 2 2 2 2 2 2 2 2 2 < 2 2 2 2 < < < < 2 2 < < 2 2 2 2 < < < < 2 2 < < 2 2 2 2 < < 2 2 2 2 2 2 < 2 2 2 2 2 2 2 2 2 2 < 2 2 2 2 2 2 2 2 2 2 2 < < < 2 2 2 2 < 2 2 2 2 2 2 2 2 < < < 2 2 2 2 2 2 2 2 2 2 2 2 2 < < < 2 2 2 2 < 2 2 2 2 2 2 2 2 < < < 2 2 2 2 2 2 < 2 2 2 2 2 2 2 2 2 2 < 2 2 2 2 < < < < 2 2 < < 2 2 2 2 < 2 2 2 2 2 < < < < < 2 2 2 2 2 < < < < < 2 2 2 2 2 2 2 2 2 2 < 2 2 2 2 2 2 2 2 2 2 2 < < < 2 2 2 2 < 2 2 2 2 2 2 2 2 < < < 2 2 2 2 2 2 2 2 2 2 2 2 2 < < < 2 2 2 2 < 2 2 2 2 2 2 2 2 < < < 2 2 2 2 2 < 2                                                                                                                                                               ",
"                                                                                                                                                                                                ^ ^ ^ ^ ^ ^ ^ ^ ^ ^ ^ ^ ^ ^ ^ ^ ^ ^ ^ ^ ^ ^ ^ ^ ^ ^ ^ ^ ^ ^ ^ ^ ^ ^ ^ ^ ^ ^ ^ ^ ^ ^ ^ ^ ^ ^ ^ ^ ^ / oXoXoXO.2 2 2 2 2 < 2 2 2 2 < 2 < < 2 2 2 2 2 2 2 2 2 2 < < 2 2 < < 2 2 2 2 2 2 < < 2 2 2 2 2 2 2 2 2 2 < < 2 2 < < 2 2 2 2 < 2 < < 2 2 2 2 2 2 2 2 2 2 < < 2 2 2 2 2 2 2 2 2 2 2 2 2 2 2 2 2 2 2 2 2 2 2 2 2 2 2 2 2 2 2 2 2 2 2 2 2 2 2 2 2 2 2 2 2 2 2 2 2 2 2 2 2 2 2 2 2 2 2 2 2 2 2 2 < 2 < < 2 2 2 2 2 2 2 2 2 2 < < 2 2 < < 2 2 2 2 2 2 < < 2 2 2 2 2 2 2 2 2 2 < < 2 2 < < 2 2 2 2 2 2 2 2 < 2 2 2 2 2 2 2 2 2 < < 2 2 2 2 2 2 2 2 2 2 2 2 2 2 2 2 2 2 2 2 2 2 2 2 2 2 2 2 2 2 2 2 2 2 2 2 2 2 2 2 2 2 2 2 2 2 2 2 2 2 2 2 2 2 2 2 2 2 2 2 2 2 2 2 2 2 < < 2                                                                                                                                                               ",
"                                                                                                                                                                                                ^ ^ ^ ^ ^ ^ ^ ^ ^ ^ ^ ^ ^ ^ ^ ^ ^ ^ ^ ^ ^ ^ ^ ^ ^ ^ ^ ^ ^ ^ ^ ^ ^ ^ ^ ^ ^ ^ ^ ^ ^ ^ ^ ^ ^ ^ ^ ^ ^ / oXoXoXO.2 2 2 2 < < 2 2 2 2 2 2 < < < 2 2 2 2 2 2 2 2 2 < < 2 < < < 2 2 2 2 2 2 < < 2 2 2 2 2 2 2 2 2 2 < < 2 < < < 2 2 2 2 2 2 < < < 2 2 2 2 2 2 2 2 2 < < 2 2 2 2 2 2 2 2 2 2 < < 2 2 2 2 2 2 2 2 2 2 2 2 2 2 < < 2 2 2 2 2 2 2 2 2 2 2 2 2 2 < < 2 2 2 2 2 2 2 2 2 2 2 2 2 2 < < 2 2 2 2 2 2 < < < 2 2 2 2 2 2 2 2 2 < < 2 < < < 2 2 2 2 2 2 < < 2 2 2 2 2 2 2 2 2 2 < < 2 < < < 2 2 2 2 2 2 2 2 2 2 2 2 2 2 2 2 2 2 < < 2 2 2 2 2 2 2 2 2 2 < < 2 2 2 2 2 2 2 2 2 2 2 2 2 2 < < 2 2 2 2 2 2 2 2 2 2 2 2 2 2 < < 2 2 2 2 2 2 2 2 2 2 2 2 2 2 < < 2 2 2 2 2 2 < <                                                                                                                                                                 ",
"                                                                                                                                                                                                ^ ^ ^ ^ ^ ^ ^ ^ ^ ^ ^ ^ ^ ^ ^ ^ ^ ^ ^ ^ ^ ^ ^ ^ ^ ^ ^ ^ ^ ^ ^ ^ ^ ^ ^ ^ ^ ^ ^ ^ ^ ^ ^ ^ ^ ^ ^ ^ ^ / oXoXoXO.< < < < < < < < < < < < < < < < < < < < < < < < < < < < < < < < < < < < < < < < < < < < < < < < < < < < < < < < < < < < < < < < < < < < < < < < < < < < < < < < < < < < < < < < < < < < < < < < < < < < < < < < < < < < < < < < < < < < < < < < < < < < < < < < < < < < < < < < < < < < < < < < < < < < < < < < < < < < < < < < < < < < < < < < < < < < < < < < < < < < < < < < < < < < < < < < < < < < < < < < < < < < < < < < < < < < < < < < < < < < < < < < < < < < < < < < < < < < < < < < < < < < < < < < < < < < < < < < < < < < < < < < < < < < 2                                                                                                                                                                   ",
"                                                                                                                                                                                                ^ ^ ^ ^ ^ ^ ^ ^ ^ ^ ^ ^ ^ ^ ^ ^ ^ ^ ^ ^ ^ ^ ^ ^ ^ ^ ^ ^ ^ ^ ^ ^ ^ ^ ^ ^ ^ ^ ^ ^ ^ ^ ^ ^ ^ ^ ^ ^ ^ / oXoXoXO.< < < < < < < < < < < < < < < < < < < < < < < < < < < < < < < < < < < < < < < < < < < < < < < < < < < < < < < < < < < < < < < < < < < < < < < < < < < < < < < < < < < < < < < < < < < < < < < < < < < < < < < < < < < < < < < < < < < < < < < < < < < < < < < < < < < < < < < < < < < < < < < < < < < < < < < < < < < < < < < < < < < < < < < < < < < < < < < < < < < < < < < < < < < < < < < < < < < < < < < < < < < < < < < < < < < < < < < < < < < < < < < < < < < < < < < < < < < < < < < < < < < < < < < < < < < < < < < < < < < < < < < < < < < <                                                                                                                                                                     ",
"                                                                                                                                                                                                ^ ^ ^ ^ ^ ^ ^ ^ ^ ^ ^ ^ ^ ^ ^ ^ ^ ^ ^ ^ ^ ^ ^ ^ ^ ^ ^ ^ ^ ^ ^ ^ ^ ^ ^ ^ ^ ^ ^ ^ ^ ^ ^ ^ ^ ^ ^ ^ ^ / oXoXoXO.< < < < < < < < < < < < < < < < < < < < < < < < < < < < < < < < < < < < < < < < < < < < < < < < < < < < < < < < < < < < < < < < < < < < < < < < < < < < < < < < < < < < < < < < < < < < < < < < < < < < < < < < < < < < < < < < < < < < < < < < < < < < < < < < < < < < < < < < < < < < < < < < < < < < < < < < < < < < < < < < < < < < < < < < < < < < < < < < < < < < < < < < < < < < < < < < < < < < < < < < < < < < < < < < < < < < < < < < < < < < < < < < < < < < < < < < < < < < < < < < < < < < < < < < < < < < < < < < < < < < < < < < < <                                                                                                                                                                         ",
"                                                                                                                                                                                                ^ ^ ^ ^ ^ ^ ^ ^ ^ ^ ^ ^ ^ ^ ^ ^ ^ ^ ^ ^ ^ ^ ^ ^ ^ ^ ^ ^ ^ ^ ^ ^ ^ ^ ^ ^ ^ ^ ^ ^ ^ ^ ^ ^ ^ ^ ^ ^ ^ / oXoXoXO.< < < < < < < < < < < < < < < < < < < < < < < < < < < < < < < < < < < < < < < < < < < < < < < < < < < < < < < < < < < < < < < < < < < < < < < < < < < < < < < < < < < < < < < < < < < < < < < < < < < < < < < < < < < < < < < < < < < < < < < < < < < < < < < < < < < < < < < < < < < < < < < < < < < < < < < < < < < < < < < < < < < < < < < < < < < < < < < < < < < < < < < < < < < < < < < < < < < < < < < < < < < < < < < < < < < < < < < < < < < < < < < < < < < < < < < < < < < < < < < < < < < < < < < < < < < < < < < < < < < < < < < < <                                                                                                                                                                           ",
"                                                                                                                                                                                                ^ ^ ^ ^ ^ ^ ^ ^ ^ ^ ^ ^ ^ ^ ^ ^ ^ ^ ^ ^ ^ ^ ^ ^ ^ ^ ^ ^ ^ ^ ^ ^ ^ ^ ^ ^ ^ ^ ^ ^ ^ ^ ^ ^ ^ ^ ^ ^ ^ / oXoXoXO.< < < < < < < < < < < < < < < < < < < < < < < < < < < < < < < < < < < < < < < < < < < < < < < < < < < < < < < < < < < < < < < < < < < < < < < < < < < < < < < < < < < < < < < < < < < < < < < < < < < < < < < < < < < < < < < < < < < < < < < < < < < < < < < < < < < < < < < < < < < < < < < < < < < < < < < < < < < < < < < < < < < < < < < < < < < < < < < < < < < < < < < < < < < < < < < < < < < < < < < < < < < < < < < < < < < < < < < < < < < < < < < < < < < < < < < < < < < < < < < < < < < < < < < < < < < < < < < < < < < < < < <                                                                                                                                                                               ",
"                                                                                                                                                                                                ^ ^ ^ ^ ^ ^ ^ ^ ^ ^ ^ ^ ^ ^ ^ ^ ^ ^ ^ ^ ^ ^ ^ ^ ^ ^ ^ ^ ^ ^ ^ ^ ^ ^ ^ ^ ^ ^ ^ ^ ^ ^ ^ ^ ^ ^ ^ ^ ^ / oXoXoXO.< < < < < < < < < < < < < < < < < < < < < < < < < < < < < < < < < < < < < < < < < < < < < < < < < < < < < < < < < < < < < < < < < < < < < < < < < < < < < < < < < < < < < < < < < < < < < < < < < < < < < < < < < < < < < < < < < < < < < < < < < < < < < < < < < < < < < < < < < < < < < < < < < < < < < < < < < < < < < < < < < < < < < < < < < < < < < < < < < < < < < < < < < < < < < < < < < < < < < < < < < < < < < < < < < < < < < < < < < < < < < < < < < < < < < < < < < < < < < < < < < < < < < < < < < < < < < < < < < < < < < <                                                                                                                                                                                 ",
"                                                                                                                                                                                                ^ ^ ^ ^ ^ ^ ^ ^ ^ ^ ^ ^ ^ ^ ^ ^ ^ ^ ^ ^ ^ ^ ^ ^ ^ ^ ^ ^ ^ ^ ^ ^ ^ ^ ^ ^ ^ ^ ^ ^ ^ ^ ^ ^ ^ ^ ^ ^ ^ / oXoXoXO.< < < < < < < < < < < < < < < < < < < < < < < < < < < < < < < < < < < < < < < < < < < < < < < < < < < < < < < < < < < < < < < < < < < < < < < < < < < < < < < < < < < < < < < < < < < < < < < < < < < < < < < < < < < < < < < < < < < < < < < < < < < < < < < < < < < < < < < < < < < < < < < < < < < < < < < < < < < < < < < < < < < < < < < < < < < < < < < < < < < < < < < < < < < < < < < < < < < < < < < < < < < < < < < < < < < < < < < < < < < < < < < < < < < < < < < < < < < < < < < < < < < < < < < < < < < < < < < < < < < <                                                                                                                                                                                     ",
"                                                                                                                                                                                                ^ ^ ^ ^ ^ ^ ^ ^ ^ ^ ^ ^ ^ ^ ^ ^ ^ ^ ^ ^ ^ ^ ^ ^ ^ ^ ^ ^ ^ ^ ^ ^ ^ ^ ^ ^ ^ ^ ^ ^ ^ ^ ^ ^ ^ ^ ^ ^ ^ / oXoXoXO.< < < < < < < < < < < < < < < < < < < < < < < < < < < < < < < < < < < < < < < < < < < < < < < < < < < < < < < < < < < < < < < < < < < < < < < < < < < < < < < < < < < < < < < < < < < < < < < < < < < < < < < < < < < < < < < < < < < < < < < < < < < < < < < < < < < < < < < < < < < < < < < < < < < < < < < < < < < < < < < < < < < < < < < < < < < < < < < < < < < < < < < < < < < < < < < < < < < < < < < < < < < < < < < < < < < < < < < < < < < < < < < < < < < < < < < < < < < < < < < < < < < < < < < < < < < < < < < < < <                                                                                                                                                                                         ",
"                                                                                                                                                                                                ^ ^ ^ ^ ^ ^ ^ ^ ^ ^ ^ ^ ^ ^ ^ ^ ^ ^ ^ ^ ^ ^ ^ ^ ^ ^ ^ ^ ^ ^ ^ ^ ^ ^ ^ ^ ^ ^ ^ ^ ^ ^ ^ ^ ^ ^ ^ ^ ^ / oXoXoXO.< < < < < < < < < < < < < < < < < < < < < < < < < < < < < < < < < < < < < < < < < < < < < < < < < < < < < < < < < < < < < < < < < < < < < < < < < < < < < < < < < < < < < < < < < < < < < < < < < < < < < < < < < < < < < < < < < < < < < < < < < < < < < < < < < < < < < < < < < < < < < < < < < < < < < < < < < < < < < < < < < < < < < < < < < < < < < < < < < < < < < < < < < < < < < < < < < < < < < < < < < < < < < < < < < < < < < < < < < < < < < < < < < < < < < < < < < < < < < < < < < < < < < < < < < < < < < < <                                                                                                                                                                                               ",
"                                                                                                                                                                                                ^ ^ ^ ^ ^ ^ ^ ^ ^ ^ ^ ^ ^ ^ ^ ^ ^ ^ ^ ^ ^ ^ ^ ^ ^ ^ ^ ^ ^ ^ ^ ^ ^ ^ ^ ^ ^ ^ ^ ^ ^ ^ ^ ^ ^ ^ ^ ^ ^ / oXoXoXO.< < < < < < < < < < < < < < < < < < < < < < < < < < < < < < < < < < < < < < < < < < < < < < < < < < < < < < < < < < < < < < < < < < < < < < < < < < < < < < < < < < < < < < < < < < < < < < < < < < < < < < < < < < < < < < < < < < < < < < < < < < < < < < < < < < < < < < < < < < < < < < < < < < < < < < < < < < < < < < < < < < < < < < < < < < < < < < < < < < < < < < < < < < < < < < < < < < < < < < < < < < < < < < < < < < < < < < < < < < < < < < < < < < < < < < < < < < < < < < < < < < < < < < < < < < < <                                                                                                                                                                                                     ",
"                                                                                                                                                                                                ^ ^ ^ ^ ^ ^ ^ ^ ^ ^ ^ ^ ^ ^ ^ ^ ^ ^ ^ ^ ^ ^ ^ ^ ^ ^ ^ ^ ^ ^ ^ ^ ^ ^ ^ ^ ^ ^ ^ ^ ^ ^ ^ ^ ^ ^ ^ ^ ^ / oXoXoXO.< < < < < < < < < < < < < < < < < < < < < < < < < < < < < < < < < < < < < < < < < < < < < < < < < < < < < < < < < < < < < < < < < < < < < < < < < < < < < < < < < < < < < < < < < < < < < < < < < < < < < < < < < < < < < < < < < < < < < < < < < < < < < < < < < < < < < < < < < < < < < < < < < < < < < < < < < < < < < < < < < < < < < < < < < < < < < < < < < < < < < < < < < < < < < < < < < < < < < < < < < < < < < < < < < < < < < < < < < < < < < < < < < < < < < < < < < < < < < < < < < < < < < < < < <                                                                                                                                                                                                           ",
"                                                                                                                                                                                                ^ ^ ^ ^ ^ ^ ^ ^ ^ ^ ^ ^ ^ ^ ^ ^ ^ ^ ^ ^ ^ ^ ^ ^ ^ ^ ^ ^ ^ ^ ^ ^ ^ ^ ^ ^ ^ ^ ^ ^ ^ ^ ^ ^ ^ ^ ^ ^ ^ / oXoXoXO.< < < < < < < < < < < < < < < < < < < < < < < < < < < < < < < < < < < < < < < < < < < < < < < < < < < < < < < < < < < < < < < < < < < < < < < < < < < < < < < < < < < < < < < < < < < < < < < < < < < < < < < < < < < < < < < < < < < < < < < < < < < < < < < < < < < < < < < < < < < < < < < < < < < < < < < < < < < < < < < < < < < < < < < < < < < < < < < < < < < < < < < < < < < < < < < < < < < < < < < < < < < < < < < < < < < < < < < < < < < < < < < < < < < < < < < < < < < < < < < < < < < < <                                                                                                                                                                                                                   ",
"                                                                                                                                                                                                ^ ^ ^ ^ ^ ^ ^ ^ ^ ^ ^ ^ ^ ^ ^ ^ ^ ^ ^ ^ ^ ^ ^ ^ ^ ^ ^ ^ ^ ^ ^ ^ ^ ^ ^ ^ ^ ^ ^ ^ ^ ^ ^ ^ ^ ^ ^ ^ ^ / oXoXoXO.< < < < < < < < < < < < < < < < < < < < < < < < < < < < < < < < < < < < < < < < < < < < < < < < < < < < < < < < < < < < < < < < < < < < < < < < < < < < < < < < < < < < < < < < < < < < < < < < < < < < < < < < < < < < < < < < < < < < < < < < < < < < < < < < < < < < < < < < < < < < < < < < < < < < < < < < < < < < < < < < < < < < < < < < < < < < < < < < < < < < < < < < < < < < < < < < < < < < < < < < < < < < < < < < < < < < < < < < < < < < < < < < < < < < < < < < < < < < < < < < < <                                                                                                                                                                                                                         ",
"                                                                                                                                                                                                ^ ^ ^ ^ ^ ^ ^ ^ ^ ^ ^ ^ ^ ^ ^ ^ ^ ^ ^ ^ ^ ^ ^ ^ ^ ^ ^ ^ ^ ^ ^ ^ ^ ^ ^ ^ ^ ^ ^ ^ ^ ^ ^ ^ ^ ^ ^ ^ ^ / oXoXoXO.< < < < < < < < < < < < < < < < < < < < < < < < < < < < < < < < < < < < < < < < < < < < < < < < < < < < < < < < < < < < < < < < < < < < < < < < < < < < < < < < < < < < < < < < < < < < < < < < < < < < < < < < < < < < < < < < < < < < < < < < < < < < < < < < < < < < < < < < < < < < < < < < < < < < < < < < < < < < < < < < < < < < < < < < < < < < < < < < < < < < < < < < < < < < < < < < < < < < < < < < < < < < < < < < < < < < < < < < < < < < < < < < < < < < < < < < < < < < < <                                                                                                                                                                                                                                 ",
"                                                                                                                                                                                                ^ ^ ^ ^ ^ ^ ^ ^ ^ ^ ^ ^ ^ ^ ^ ^ ^ ^ ^ ^ ^ ^ ^ ^ ^ ^ ^ ^ ^ ^ ^ ^ ^ ^ ^ ^ ^ ^ ^ ^ ^ ^ ^ ^ ^ ^ ^ ^ ^ / oXoXoXO.< < < < < < < < < < < < < < < < < < < < < < < < < < < < < < < < < < < < < < < < < < < < < < < < < < < < < < < < < < < < < < < < < < < < < < < < < < < < < < < < < < < < < < < < < < < < < < < < < < < < < < < < < < < < < < < < < < < < < < < < < < < < < < < < < < < < < < < < < < < < < < < < < < < < < < < < < < < < < < < < < < < < < < < < < < < < < < < < < < < < < < < < < < < < < < < < < < < < < < < < < < < < < < < < < < < < < < < < < < < < < < < < < < < < < < < < < < <                                                                                                                                                                                                                                       ",
"                                                                                                                                                                                                ^ ^ ^ ^ ^ ^ ^ ^ ^ ^ ^ ^ ^ ^ ^ ^ ^ ^ ^ ^ ^ ^ ^ ^ ^ ^ ^ ^ ^ ^ ^ ^ ^ ^ ^ ^ ^ ^ ^ ^ ^ ^ ^ ^ ^ ^ ^ ^ ^ / oXoXoXO.< < < < < < < < < < < < < < < < < < < < < < < < < < < < < < < < < < < < < < < < < < < < < < < < < < < < < < < < < < < < < < < < < < < < < < < < < < < < < < < < < < < < < < < < < < < < < < < < < < < < < < < < < < < < < < < < < < < < < < < < < < < < < < < < < < < < < < < < < < < < < < < < < < < < < < < < < < < < < < < < < < < < < < < < < < < < < < < < < < < < < < < < < < < < < < < < < < < < < < < < < < < < < < < < < < < < < < < < < < < < < < < < < < < < < < <                                                                                                                                                                                                                                               ",
"                                                                                                                                                                                                ^ ^ ^ ^ ^ ^ ^ ^ ^ ^ ^ ^ ^ ^ ^ ^ ^ ^ ^ ^ ^ ^ ^ ^ ^ ^ ^ ^ ^ ^ ^ ^ ^ ^ ^ ^ ^ ^ ^ ^ ^ ^ ^ ^ ^ ^ ^ ^ ^ / oXoXoXO.< < < < < < < < < < < < < < < < < < < < < < < < < < < < < < < < < < < < < < < < < < < < < < < < < < < < < < < < < < < < < < < < < < < < < < < < < < < < < < < < < < < < < < < < < < < < < < < < < < < < < < < < < < < < < < < < < < < < < < < < < < < < < < < < < < < < < < < < < < < < < < < < < < < < < < < < < < < < < < < < < < < < < < < < < < < < < < < < < < < < < < < < < < < < < < < < < < < < < < < < < < < < < < < < < < < < < < < < < < < < < < < < < < < <                                                                                                                                                                                                                                                     ",
"                                                                                                                                                                                                ^ ^ ^ ^ ^ ^ ^ ^ ^ ^ ^ ^ ^ ^ ^ ^ ^ ^ ^ ^ ^ ^ ^ ^ ^ ^ ^ ^ ^ ^ ^ ^ ^ ^ ^ ^ ^ ^ ^ ^ ^ ^ ^ ^ ^ ^ ^ ^ ^ / oXoXoXO.< < < < < < < < < < < < < < < < < < < < < < < < < < < < < < < < < < < < < < < < < < < < < < < < < < < < < < < < < < < < < < < < < < < < < < < < < < < < < < < < < < < < < < < < < < < < < < < < < < < < < < < < < < < < < < < < < < < < < < < < < < < < < < < < < < < < < < < < < < < < < < < < < < < < < < < < < < < < < < < < < < < < < < < < < < < < < < < < < < < < < < < < < < < < < < < < < < < < < < < < < < < < < < < < < < < < < < < < < < < < < < < <                                                                                                                                                                                                                                                             ",
"                                                                                                                                                                                                ^ ^ ^ ^ ^ ^ ^ ^ ^ ^ ^ ^ ^ ^ ^ ^ ^ ^ ^ ^ ^ ^ ^ ^ ^ ^ ^ ^ ^ ^ ^ ^ ^ ^ ^ ^ ^ ^ ^ ^ ^ ^ ^ ^ ^ ^ ^ ^ ^ / oXoXoXO.< < < < < < < < < < < < < < < < < < < < < < < < < < < < < < < < < < < < < < < < < < < < < < < < < < < < < < < < < < < < < < < < < < < < < < < < < < < < < < < < < < < < < < < < < < < < < < < < < < < < < < < < < < < < < < < < < < < < < < < < < < < < < < < < < < < < < < < < < < < < < < < < < < < < < < < < < < < < < < < < < < < < < < < < < < < < < < < < < < < < < < < < < < < < < < < < < < < < < < < < < < < < < < < < < < < < < < < < < < < < <                                                                                                                                                                                                                                                                   ",
"                                                                                                                                                                                                ^ ^ ^ ^ ^ ^ ^ ^ ^ ^ ^ ^ ^ ^ ^ ^ ^ ^ ^ ^ ^ ^ ^ ^ ^ ^ ^ ^ ^ ^ ^ ^ ^ ^ ^ ^ ^ ^ ^ ^ ^ ^ ^ ^ ^ ^ ^ ^ ^ / oXoXoXO.< < < < < < < < < < < < < < < < < < < < < < < < < < < < < < < < < < < < < < < < < < < < < < < < < < < < < < < < < < < < < < < < < < < < < < < < < < < < < < < < < < < < < < < < < < < < < < < < < < < < < < < < < < < < < < < < < < < < < < < < < < < < < < < < < < < < < < < < < < < < < < < < < < < < < < < < < < < < < < < < < < < < < < < < < < < < < < < < < < < < < < < < < < < < < < < < < < < < < < < < < < < < < < < < < < < < < < < < < <                                                                                                                                                                                                                                                                         ",
"                                                                                                                                                                                                ^ ^ ^ ^ ^ ^ ^ ^ ^ ^ ^ ^ ^ ^ ^ ^ ^ ^ ^ ^ ^ ^ ^ ^ ^ ^ ^ ^ ^ ^ ^ ^ ^ ^ ^ ^ ^ ^ ^ ^ ^ ^ ^ ^ ^ ^ ^ ^ ^ / oXoXoXO.< < < < < < < < < < < < < < < < < < < < < < < < < < < < < < < < < < < < < < < < < < < < < < < < < < < < < < < < < < < < < < < < < < < < < < < < < < < < < < < < < < < < < < < < < < < < < < < < < < < < < < < < < < < < < < < < < < < < < < < < < < < < < < < < < < < < < < < < < < < < < < < < < < < < < < < < < < < < < < < < < < < < < < < < < < < < < < < < < < < < < < < < < < < < < < < < < < < < < < < < < < < < < < < < < < < < < <                                                                                                                                                                                                                                                                                 ",
"                                                                                                                                                                                                ^ ^ ^ ^ ^ ^ ^ ^ ^ ^ ^ ^ ^ ^ ^ ^ ^ ^ ^ ^ ^ ^ ^ ^ ^ ^ ^ ^ ^ ^ ^ ^ ^ ^ ^ ^ ^ ^ ^ ^ ^ ^ ^ ^ ^ ^ ^ ^ ^ / oXoXoXO.< < < < < < < < < < < < < < < < < < < < < < < < < < < < < < < < < < < < < < < < < < < < < < < < < < < < < < < < < < < < < < < < < < < < < < < < < < < < < < < < < < < < < < < < < < < < < < < < < < < < < < < < < < < < < < < < < < < < < < < < < < < < < < < < < < < < < < < < < < < < < < < < < < < < < < < < < < < < < < < < < < < < < < < < < < < < < < < < < < < < < < < < < < < < < < < < < < < < < < < < < < < < < < < < < < <                                                                                                                                                                                                                                                                                       ",
"                                                                                                                                                                                                ^ ^ ^ ^ ^ ^ ^ ^ ^ ^ ^ ^ ^ ^ ^ ^ ^ ^ ^ ^ ^ ^ ^ ^ ^ ^ ^ ^ ^ ^ ^ ^ ^ ^ ^ ^ ^ ^ ^ ^ ^ ^ ^ ^ ^ ^ ^ ^ ^ / oXoXoXO.< < < < < < < < < < < < < < < < < < < < < < < < < < < < < < < < < < < < < < < < < < < < < < < < < < < < < < < < < < < < < < < < < < < < < < < < < < < < < < < < < < < < < < < < < < < < < < < < < < < < < < < < < < < < < < < < < < < < < < < < < < < < < < < < < < < < < < < < < < < < < < < < < < < < < < < < < < < < < < < < < < < < < < < < < < < < < < < < < < < < < < < < < < < < < < < < < < < < < < < < < < < < < < <                                                                                                                                                                                                                                                                                               ",
"                                                                                                                                                                                                ^ ^ ^ ^ ^ ^ ^ ^ ^ ^ ^ ^ ^ ^ ^ ^ ^ ^ ^ ^ ^ ^ ^ ^ ^ ^ ^ ^ ^ ^ ^ ^ ^ ^ ^ ^ ^ ^ ^ ^ ^ ^ ^ ^ ^ ^ ^ ^ ^ / oXoXoXO.< < < < < < < < < < < < < < < < < < < < < < < < < < < < < < < < < < < < < < < < < < < < < < < < < < < < < < < < < < < < < < < < < < < < < < < < < < < < < < < < < < < < < < < < < < < < < < < < < < < < < < < < < < < < < < < < < < < < < < < < < < < < < < < < < < < < < < < < < < < < < < < < < < < < < < < < < < < < < < < < < < < < < < < < < < < < < < < < < < < < < < < < < < < < < < < < < < < < < < < < < < < <                                                                                                                                                                                                                                                                                                     ",
"                                                                                                                                                                                                ^ ^ ^ ^ ^ ^ ^ ^ ^ ^ ^ ^ ^ ^ ^ ^ ^ ^ ^ ^ ^ ^ ^ ^ ^ ^ ^ ^ ^ ^ ^ ^ ^ ^ ^ ^ ^ ^ ^ ^ ^ ^ ^ ^ ^ ^ ^ ^ ^ / oXoXoXO.< < < < < < < < < < < < < < < < < < < < < < < < < < < < < < < < < < < < < < < < < < < < < < < < < < < < < < < < < < < < < < < < < < < < < < < < < < < < < < < < < < < < < < < < < < < < < < < < < < < < < < < < < < < < < < < < < < < < < < < < < < < < < < < < < < < < < < < < < < < < < < < < < < < < < < < < < < < < < < < < < < < < < < < < < < < < < < < < < < < < < < < < < < < < < < < < < < < < < < < <                                                                                                                                                                                                                                                                                                             ",
"                                                                                                                                                                                                ^ ^ ^ ^ ^ ^ ^ ^ ^ ^ ^ ^ ^ ^ ^ ^ ^ ^ ^ ^ ^ ^ ^ ^ ^ ^ ^ ^ ^ ^ ^ ^ ^ ^ ^ ^ ^ ^ ^ ^ ^ ^ ^ ^ ^ ^ ^ ^ ^ / oXoXoXO.< < < < < < < < < < < < < < < < < < < < < < < < < < < < < < < < < < < < < < < < < < < < < < < < < < < < < < < < < < < < < < < < < < < < < < < < < < < < < < < < < < < < < < < < < < < < < < < < < < < < < < < < < < < < < < < < < < < < < < < < < < < < < < < < < < < < < < < < < < < < < < < < < < < < < < < < < < < < < < < < < < < < < < < < < < < < < < < < < < < < < < < < < < < < < < < < < < < < <                                                                                                                                                                                                                                                                                                                   ",
"                                                                                                                                                                                                ^ ^ ^ ^ ^ ^ ^ ^ ^ ^ ^ ^ ^ ^ ^ ^ ^ ^ ^ ^ ^ ^ ^ ^ ^ ^ ^ ^ ^ ^ ^ ^ ^ ^ ^ ^ ^ ^ ^ ^ ^ ^ ^ ^ ^ ^ ^ ^ ^ / oXoXoXO.< < < < < < < < < < < < < < < < < < < < < < < < < < < < < < < < < < < < < < < < < < < < < < < < < < < < < < < < < < < < < < < < < < < < < < < < < < < < < < < < < < < < < < < < < < < < < < < < < < < < < < < < < < < < < < < < < < < < < < < < < < < < < < < < < < < < < < < < < < < < < < < < < < < < < < < < < < < < < < < < < < < < < < < < < < < < < < < < < < < < < < < < < < < < < < < < <                                                                                                                                                                                                                                                                                                                           ",
"                                                                                                                                                                                                ^ ^ ^ ^ ^ ^ ^ ^ ^ ^ ^ ^ ^ ^ ^ ^ ^ ^ ^ ^ ^ ^ ^ ^ ^ ^ ^ ^ ^ ^ ^ ^ ^ ^ ^ ^ ^ ^ ^ ^ ^ ^ ^ ^ ^ ^ ^ ^ ^ / oXoXoXO.< < < < < < < < < < < < < < < < < < < < < < < < < < < < < < < < < < < < < < < < < < < < < < < < < < < < < < < < < < < < < < < < < < < < < < < < < < < < < < < < < < < < < < < < < < < < < < < < < < < < < < < < < < < < < < < < < < < < < < < < < < < < < < < < < < < < < < < < < < < < < < < < < < < < < < < < < < < < < < < < < < < < < < < < < < < < < < < < < < < < < < < < < < < < < <                                                                                                                                                                                                                                                                                                                                 ",
"                                                                                                                                                                                                ^ ^ ^ ^ ^ ^ ^ ^ ^ ^ ^ ^ ^ ^ ^ ^ ^ ^ ^ ^ ^ ^ ^ ^ ^ ^ ^ ^ ^ ^ ^ ^ ^ ^ ^ ^ ^ ^ ^ ^ ^ ^ ^ ^ ^ ^ ^ ^ ^ / oXoXoXO.< < < < < < < < < < < < < < < < < < < < < < < < < < < < < < < < < < < < < < < < < < < < < < < < < < < < < < < < < < < < < < < < < < < < < < < < < < < < < < < < < < < < < < < < < < < < < < < < < < < < < < < < < < < < < < < < < < < < < < < < < < < < < < < < < < < < < < < < < < < < < < < < < < < < < < < < < < < < < < < < < < < < < < < < < < < < < < < < < < < < < < < < < <                                                                                                                                                                                                                                                                                                                                         ",
"                                                                                                                                                                                                ^ ^ ^ ^ ^ ^ ^ ^ ^ ^ ^ ^ ^ ^ ^ ^ ^ ^ ^ ^ ^ ^ ^ ^ ^ ^ ^ ^ ^ ^ ^ ^ ^ ^ ^ ^ ^ ^ ^ ^ ^ ^ ^ ^ ^ ^ ^ ^ ^ / oXoXoXO.< < < < < < < < < < < < < < < < < < < < < < < < < < < < < < < < < < < < < < < < < < < < < < < < < < < < < < < < < < < < < < < < < < < < < < < < < < < < < < < < < < < < < < < < < < < < < < < < < < < < < < < < < < < < < < < < < < < < < < < < < < < < < < < < < < < < < < < < < < < < < < < < < < < < < < < < < < < < < < < < < < < < < < < < < < < < < < < < < < < < < < <                                                                                                                                                                                                                                                                                                                                               ",
"                                                                                                                                                                                                ^ ^ ^ ^ ^ ^ ^ ^ ^ ^ ^ ^ ^ ^ ^ ^ ^ ^ ^ ^ ^ ^ ^ ^ ^ ^ ^ ^ ^ ^ ^ ^ ^ ^ ^ ^ ^ ^ ^ ^ ^ ^ ^ ^ ^ ^ ^ ^ ^ / oXoXoXO.< < < < < < < < < < < < < < < < < < < < < < < < < < < < < < < < < < < < < < < < < < < < < < < < < < < < < < < < < < < < < < < < < < < < < < < < < < < < < < < < < < < < < < < < < < < < < < < < < < < < < < < < < < < < < < < < < < < < < < < < < < < < < < < < < < < < < < < < < < < < < < < < < < < < < < < < < < < < < < < < < < < < < < < < < < < < < < < < < < < <                                                                                                                                                                                                                                                                                                                                                     ",
"                                                                                                                                                                                                ^ ^ ^ ^ ^ ^ ^ ^ ^ ^ ^ ^ ^ ^ ^ ^ ^ ^ ^ ^ ^ ^ ^ ^ ^ ^ ^ ^ ^ ^ ^ ^ ^ ^ ^ ^ ^ ^ ^ ^ ^ ^ ^ ^ ^ ^ ^ ^ ^ / oXoXoXO.< < < < < < < < < < < < < < < < < < < < < < < < < < < < < < < < < < < < < < < < < < < < < < < < < < < < < < < < < < < < < < < < < < < < < < < < < < < < < < < < < < < < < < < < < < < < < < < < < < < < < < < < < < < < < < < < < < < < < < < < < < < < < < < < < < < < < < < < < < < < < < < < < < < < < < < < < < < < < < < < < < < < < < < < < < < < < < < <                                                                                                                                                                                                                                                                                                                                                             ",
"                                                                                                                                                                                                ^ ^ ^ ^ ^ ^ ^ ^ ^ ^ ^ ^ ^ ^ ^ ^ ^ ^ ^ ^ ^ ^ ^ ^ ^ ^ ^ ^ ^ ^ ^ ^ ^ ^ ^ ^ ^ ^ ^ ^ ^ ^ ^ ^ ^ ^ ^ ^ ^ / oXoXoX+.< < < < < < < < < < < < < < < < < < < < < < < < < < < < < < < < < < < < < < < < < < < < < < < < < < < < < < < < < < < < < < < < < < < < < < < < < < < < < < < < < < < < < < < < < < < < < < < < < < < < < < < < < < < < < < < < < < < < < < < < < < < < < < < < < < < < < < < < < < < < < < < < < < < < < < < < < < < < < < < < < < < < < < < < < < < < <                                                                                                                                                                                                                                                                                                                                                                   ",
"                                                                                                                                                                                                ^ ^ ^ ^ ^ ^ ^ ^ ^ ^ ^ ^ ^ ^ ^ ^ ^ ^ ^ ^ ^ ^ ^ ^ ^ ^ ^ ^ ^ ^ ^ ^ ^ ^ ^ ^ ^ ^ ^ ^ ^ ^ ^ ^ ^ ^ ^ ^ ^ / oXoXoX+.< < < < < < < < < < < < < < < < < < < < < < < < < < < < < < < < < < < < < < < < < < < < < < < < < < < < < < < < < < < < < < < < < < < < < < < < < < < < < < < < < < < < < < < < < < < < < < < < < < < < < < < < < < < < < < < < < < < < < < < < < < < < < < < < < < < < < < < < < < < < < < < < < < < < < < < < < < < < < < < < < < < < < < < < <                                                                                                                                                                                                                                                                                                                                                                           ",
"                                                                                                                                                                                                ^ ^ ^ ^ ^ ^ ^ ^ ^ ^ ^ ^ ^ ^ ^ ^ ^ ^ ^ ^ ^ ^ ^ ^ ^ ^ ^ ^ ^ ^ ^ ^ ^ ^ ^ ^ ^ ^ ^ ^ ^ ^ ^ ^ ^ ^ ^ ^ ^ / oXoXoX+.< < < < < < < < < < < < < < < < < < < < < < < < < < < < < < < < < < < < < < < < < < < < < < < < < < < < < < < < < < < < < < < < < < < < < < < < < < < < < < < < < < < < < < < < < < < < < < < < < < < < < < < < < < < < < < < < < < < < < < < < < < < < < < < < < < < < < < < < < < < < < < < < < < < < < < < < < < < < < < < < < < < < < <                                                                                                                                                                                                                                                                                                                                                                                 ",
"                                                                                                                                                                                                ^ ^ ^ ^ ^ ^ ^ ^ ^ ^ ^ ^ ^ ^ ^ ^ ^ ^ ^ ^ ^ ^ ^ ^ ^ ^ ^ ^ ^ ^ ^ ^ ^ ^ ^ ^ ^ ^ ^ ^ ^ ^ ^ ^ ^ ^ ^ ^ ^ / oXoXoX+.< < < < < < < < < < < < < < < < < < < < < < < < < < < < < < < < < < < < < < < < < < < < < < < < < < < < < < < < < < < < < < < < < < < < < < < < < < < < < < < < < < < < < < < < < < < < < < < < < < < < < < < < < < < < < < < < < < < < < < < < < < < < < < < < < < < < < < < < < < < < < < < < < < < < < < < < < < < < < < < < < <                                                                                                                                                                                                                                                                                                                                                                                         ",
"                                                                                                                                                                                                ^ ^ ^ ^ ^ ^ ^ ^ ^ ^ ^ ^ ^ ^ ^ ^ ^ ^ ^ ^ ^ ^ ^ ^ ^ ^ ^ ^ ^ ^ ^ ^ ^ ^ ^ ^ ^ ^ ^ ^ ^ ^ ^ ^ ^ ^ ^ ^ ^ / oXoXoX+.< < < < < < < < < < < < < < < < < < < < < < < < < < < < < < < < < < < < < < < < < < < < < < < < < < < < < < < < < < < < < < < < < < < < < < < < < < < < < < < < < < < < < < < < < < < < < < < < < < < < < < < < < < < < < < < < < < < < < < < < < < < < < < < < < < < < < < < < < < < < < < < < < < < < < < < < < < < < < < <                                                                                                                                                                                                                                                                                                                                                                                               ",
"                                                                                                                                                                                                ^ ^ ^ ^ ^ ^ ^ ^ ^ ^ ^ ^ ^ ^ ^ ^ ^ ^ ^ ^ ^ ^ ^ ^ ^ ^ ^ ^ ^ ^ ^ ^ ^ ^ ^ ^ ^ ^ ^ ^ ^ ^ ^ ^ ^ ^ ^ ^ ^ / oXoXoXO.< < < < < < < < < < < < < < < < < < < < < < < < < < < < < < < < < < < < < < < < < < < < < < < < < < < < < < < < < < < < < < < < < < < < < < < < < < < < < < < < < < < < < < < < < < < < < < < < < < < < < < < < < < < < < < < < < < < < < < < < < < < < < < < < < < < < < < < < < < < < < < < < < < < < < < < < < < <                                                                                                                                                                                                                                                                                                                                                                                                       ",
"                                                                                                                                                                                                ^ ^ ^ ^ ^ ^ ^ ^ ^ ^ ^ ^ ^ ^ ^ ^ ^ ^ ^ ^ ^ ^ ^ ^ ^ ^ ^ ^ ^ ^ ^ ^ ^ ^ ^ ^ ^ ^ ^ ^ ^ ^ ^ ^ ^ ^ ^ ^ ^ / oXoXoX+.< < < < < < < < < < < < < < < < < < < < < < < < < < < < < < < < < < < < < < < < < < < < < < < < < < < < < < < < < < < < < < < < < < < < < < < < < < < < < < < < < < < < < < < < < < < < < < < < < < < < < < < < < < < < < < < < < < < < < < < < < < < < < < < < < < < < < < < < < < < < < < < < < < < < < < < <                                                                                                                                                                                                                                                                                                                                                                                                             ",
"                                                                                                                                                                                                ^ ^ ^ ^ ^ ^ ^ ^ ^ ^ ^ ^ ^ ^ ^ ^ ^ ^ ^ ^ ^ ^ ^ ^ ^ ^ ^ ^ ^ ^ ^ ^ ^ ^ ^ ^ ^ ^ ^ ^ ^ ^ ^ ^ ^ ^ ^ ^ ^ / oXoXoX+.< < < < < < < < < < < < < < < < < < < < < < < < < < < < < < < < < < < < < < < < < < < < < < < < < < < < < < < < < < < < < < < < < < < < < < < < < < < < < < < < < < < < < < < < < < < < < < < < < < < < < < < < < < < < < < < < < < < < < < < < < < < < < < < < < < < < < < < < < < < < < < < < < < < < <                                                                                                                                                                                                                                                                                                                                                                                                                   ",
"                                                                                                                                                                                                ^ ^ ^ ^ ^ ^ ^ ^ ^ ^ ^ ^ ^ ^ ^ ^ ^ ^ ^ ^ ^ ^ ^ ^ ^ ^ ^ ^ ^ ^ ^ ^ ^ ^ ^ ^ ^ ^ ^ ^ ^ ^ ^ ^ ^ ^ ^ ^ ^ / oXoXoX+.< < < < < < < < < < < < < < < < < < < < < < < < < < < < < < < < < < < < < < < < < < < < < < < < < < < < < < < < < < < < < < < < < < < < < < < < < < < < < < < < < < < < < < < < < < < < < < < < < < < < < < < < < < < < < < < < < < < < < < < < < < < < < < < < < < < < < < < < < < < < < < < 2 <                                                                                                                                                                                                                                                                                                                                                                                                                           ",
"                                                                                                                                                                                                  R ^ ^ ^ ^ ^ ^ ^ ^ ^ ^ ^ ^ ^ ^ ^ ^ ^ ^ ^ ^ ^ ^ ^ ^ ^ ^ ^ ^ ^ ^ ^ ^ ^ ^ ^ ^ ^ ^ ^ ^ ^ ^ ^ ^ ^ ^ ^ / oXoXoX+.< < < < < < < < < < < < < < < < < < < < < < < < < < < < < < < < < < < < < < < < < < < < < < < < < < < < < < < < < < < < < < < < < < < < < < < < < < < < < < < < < < < < < < < < < < < < < < < < < < < < < < < < < < < < < < < < < < < < < < < < < < < < < < < < < < < < < < < < < < < < < <                                                                                                                                                                                                                                                                                                                                                                                                                                 ",
"                                                                                                                                                                                                    ^ ^ ^ ^ ^ ^ ^ ^ ^ ^ ^ ^ ^ ^ ^ ^ ^ ^ ^ ^ ^ ^ ^ ^ ^ ^ ^ ^ ^ ^ ^ ^ ^ ^ ^ ^ ^ ^ ^ ^ ^ ^ ^ ^ ^ ^ ^ / oXoXoX+.< < < < < < < < < < < < < < < < < < < < < < < < < < < < < < < < < < < < < < < < < < < < < < < < < < < < < < < < < < < < < < < < < < < < < < < < < < < < < < < < < < < < < < < < < < < < < < < < < < < < < < < < < < < < < < < < < < < < < < < < < < < < < < < < < < < < < < < < < <                                                                                                                                                                                                                                                                                                                                                                                                                                         ",
"                                                                                                                                                                                                        ^ ^ ^ ^ ^ ^ ^ ^ ^ ^ ^ ^ ^ ^ ^ ^ ^ ^ ^ ^ ^ ^ ^ ^ ^ ^ ^ ^ ^ ^ ^ ^ ^ ^ ^ ^ ^ ^ ^ ^ ^ ^ ^ ^ ^ / oXoXoX+.< < < < < < < < < < < < < < < < < < < < < < < < < < < < < < < < < < < < < < < < < < < < < < < < < < < < < < < < < < < < < < < < < < < < < < < < < < < < < < < < < < < < < < < < < < < < < < < < < < < < < < < < < < < < < < < < < < < < < < < < < < < < < < < < < < < < < < <                                                                                                                                                                                                                                                                                                                                                                                                                                               ",
"                                                                                                                                                                                                          ^ ^ ^ ^ ^ ^ ^ ^ ^ ^ ^ ^ ^ ^ ^ ^ ^ ^ ^ ^ ^ ^ ^ ^ ^ ^ ^ ^ ^ ^ ^ ^ ^ ^ ^ ^ ^ ^ ^ ^ ^ ^ ^ ^ / oXoXoX+.< < < < < < < < < < < < < < < < < < < < < < < < < < < < < < < < < < < < < < < < < < < < < < < < < < < < < < < < < < < < < < < < < < < < < < < < < < < < < < < < < < < < < < < < < < < < < < < < < < < < < < < < < < < < < < < < < < < < < < < < < < < < < < < < < < <                                                                                                                                                                                                                                                                                                                                                                                                                                                       ",
"                                                                                                                                                                                                            ^ ^ ^ ^ ^ ^ ^ ^ ^ ^ ^ ^ ^ ^ ^ ^ ^ ^ ^ ^ ^ ^ ^ ^ ^ ^ ^ ^ ^ ^ ^ ^ ^ ^ ^ ^ ^ ^ ^ ^ ^ ^ ^ / oXoXoX+.< < < < < < < < < < < < < < < < < < < < < < < < < < < < < < < < < < < < < < < < < < < < < < < < < < < < < < < < < < < < < < < < < < < < < < < < < < < < < < < < < < < < < < < < < < < < < < < < < < < < < < < < < < < < < < < < < < < < < < < < < < < < < < < <                                                                                                                                                                                                                                                                                                                                                                                                                                                             ",
"                                                                                                                                                                                                              ^ ^ ^ ^ ^ ^ ^ ^ ^ ^ ^ ^ ^ ^ ^ ^ ^ ^ ^ ^ ^ ^ ^ ^ ^ ^ ^ ^ ^ ^ ^ ^ ^ ^ ^ ^ ^ ^ ^ ^ ^ ^ / oXoXoX+.< < < < < < < < < < < < < < < < < < < < < < < < < < < < < < < < < < < < < < < < < < < < < < < < < < < < < < < < < < < < < < < < < < < < < < < < < < < < < < < < < < < < < < < < < < < < < < < < < < < < < < < < < < < < < < < < < < < < < < < < < < < <                                                                                                                                                                                                                                                                                                                                                                                                                                                                     ",
"                                                                                                                                                                                                                  ^ ^ ^ ^ ^ ^ ^ ^ ^ ^ ^ ^ ^ ^ ^ ^ ^ ^ ^ ^ ^ ^ ^ ^ ^ ^ ^ ^ ^ ^ ^ ^ ^ ^ ^ ^ ^ ^ ^ ^ / oXoXoX+.< < < < < < < < < < < < < < < < < < < < < < < < < < < < < < < < < < < < < < < < < < < < < < < < < < < < < < < < < < < < < < < < < < < < < < < < < < < < < < < < < < < < < < < < < < < < < < < < < < < < < < < < < < < < < < < < < < < < < < < < <                                                                                                                                                                                                                                                                                                                                                                                                                                                                           ",
"                                                                                                                                                                                                                    ^ ^ ^ ^ ^ ^ ^ ^ ^ ^ ^ ^ ^ ^ ^ ^ ^ ^ ^ ^ ^ ^ ^ ^ ^ ^ ^ ^ ^ ^ ^ ^ ^ ^ ^ ^ ^ ^ ^ / oXoXoX+.< < < < < < < < < < < < < < < < < < < < < < < < < < < < < < < < < < < < < < < < < < < < < < < < < < < < < < < < < < < < < < < < < < < < < < < < < < < < < < < < < < < < < < < < < < < < < < < < < < < < < < < < < < < < < < < < < < < < <                                                                                                                                                                                                                                                                                                                                                                                                                                                                                   ",
"                                                                                                                                                                                                                      ^ ^ ^ ^ ^ ^ ^ ^ ^ ^ ^ ^ ^ ^ ^ ^ ^ ^ ^ ^ ^ ^ ^ ^ ^ ^ ^ ^ ^ ^ ^ ^ ^ ^ ^ ^ ^ ^ / oXoXoX+.< < < < < < < < < < < < < < < < < < < < < < < < < < < < < < < < < < < < < < < < < < < < < < < < < < < < < < < < < < < < < < < < < < < < < < < < < < < < < < < < < < < < < < < < < < < < < < < < < < < < < < < < < < < < < < < < < <                                                                                                                                                                                                                                                                                                                                                                                                                                                                                         ",
"                                                                                                                                                                                                                        ^ ^ ^ ^ ^ ^ ^ ^ ^ ^ ^ ^ ^ ^ ^ ^ ^ ^ ^ ^ ^ ^ ^ ^ ^ ^ ^ ^ ^ ^ ^ ^ ^ ^ ^ ^ ^ / oXoXoX+.< < < < < < < < < < < < < < < < < < < < < < < < < < < < < < < < < < < < < < < < < < < < < < < < < < < < < < < < < < < < < < < < < < < < < < < < < < < < < < < < < < < < < < < < < < < < < < < < < < < < < < < < < < < < < < <                                                                                                                                                                                                                                                                                                                                                                                                                                                                                               ",
"                                                                                                                                                                                                                            ^ ^ ^ ^ ^ ^ ^ ^ ^ ^ ^ ^ ^ ^ ^ ^ ^ ^ ^ ^ ^ ^ ^ ^ ^ ^ ^ ^ ^ ^ ^ ^ ^ ^ ^ / oXoXoX+.< < < < < < < < < < < < < < < < < < < < < < < < < < < < < < < < < < < < < < < < < < < < < < < < < < < < < < < < < < < < < < < < < < < < < < < < < < < < < < < < < < < < < < < < < < < < < < < < < < < < < < < < < < <                                                                                                                                                                                                                                                                                                                                                                                                                                                                                                       ",
"                                                                                                                                                                                                                              ^ ^ ^ ^ ^ ^ ^ ^ ^ ^ ^ ^ ^ ^ ^ ^ ^ ^ ^ ^ ^ ^ ^ ^ ^ ^ ^ ^ ^ ^ ^ ^ ^ ^ / oXoXoX+.< < < < < < < < < < < < < < < < < < < < < < < < < < < < < < < < < < < < < < < < < < < < < < < < < < < < < < < < < < < < < < < < < < < < < < < < < < < < < < < < < < < < < < < < < < < < < < < < < < < < < < < <                                                                                                                                                                                                                                                                                                                                                                                                                                                                                                             ",
"                                                                                                                                                                                                                                ^ ^ ^ ^ ^ ^ ^ ^ ^ ^ ^ ^ ^ ^ ^ ^ ^ ^ ^ ^ ^ ^ ^ ^ ^ ^ ^ ^ ^ ^ ^ ^ ^ / oXoXoX+.< < < < < < < < < < < < < < < < < < < < < < < < < < < < < < < < < < < < < < < < < < < < < < < < < < < < < < < < < < < < < < < < < < < < < < < < < < < < < < < < < < < < < < < < < < < < < < < < < < < <                                                                                                                                                                                                                                                                                                                                                                                                                                                                                                                     ",
"                                                                                                                                                                                                                                  ^ ^ ^ ^ ^ ^ ^ ^ ^ ^ ^ ^ ^ ^ ^ ^ ^ ^ ^ ^ ^ ^ ^ ^ ^ ^ ^ ^ ^ ^ ^ ^ / oXoXoX+.< < < < < < < < < < < < < < < < < < < < < < < < < < < < < < < < < < < < < < < < < < < < < < < < < < < < < < < < < < < < < < < < < < < < < < < < < < < < < < < < < < < < < < < < < < < < < < < < <                                                                                                                                                                                                                                                                                                                                                                                                                                                                                                                           ",
"                                                                                                                                                                                                                                      ^ ^ ^ ^ ^ ^ ^ ^ ^ ^ ^ ^ ^ ^ ^ ^ ^ ^ ^ ^ ^ ^ ^ ^ ^ ^ ^ ^ ^ ^ / oXoXoX+.< < < < < < < < < < < < < < < < < < < < < < < < < < < < < < < < < < < < < < < < < < < < < < < < < < < < < < < < < < < < < < < < < < < < < < < < < < < < < < < < < < < < < < < < < < < < <                                                                                                                                                                                                                                                                                                                                                                                                                                                                                                                                   ",
"                                                                                                                                                                                                                                        ^ ^ ^ ^ ^ ^ ^ ^ ^ ^ ^ ^ ^ ^ ^ ^ ^ ^ ^ ^ ^ ^ ^ ^ ^ ^ ^ ^ ^ / oXoXoX+.< < < < < < < < < < < < < < < < < < < < < < < < < < < < < < < < < < < < < < < < < < < < < < < < < < < < < < < < < < < < < < < < < < < < < < < < < < < < < < < < < < < < < < < < < <                                                                                                                                                                                                                                                                                                                                                                                                                                                                                                                                         ",
"                                                                                                                                                                                                                                          J ^ ^ ^ ^ ^ ^ ^ ^ ^ ^ ^ ^ ^ ^ ^ ^ ^ ^ ^ ^ ^ ^ ^ ^ ^ ^ ^ / oXoXoX+.< < < < < < < < < < < < < < < < < < < < < < < < < < < < < < < < < < < < < < < < < < < < < < < < < < < < < < < < < < < < < < < < < < < < < < < < < < < < < < < < < < < < < <                                                                                                                                                                                                                                                                                                                                                                                                                                                                                                                                                 ",
"                                                                                                                                                                                                                                            R ^ ^ ^ ^ ^ ^ ^ ^ ^ ^ ^ ^ ^ ^ ^ ^ ^ ^ ^ ^ ^ ^ ^ ^ ^ ^ / oXoXoX+.< < < < < < < < < < < < < < < < < < < < < < < < < < < < < < < < < < < < < < < < < < < < < < < < < < < < < < < < < < < < < < < < < < < < < < < < < < < < < < < < < < <                                                                                                                                                                                                                                                                                                                                                                                                                                                                                                                                                       ",
"                                                                                                                                                                                                                                                J ^ ^ ^ ^ ^ ^ ^ ^ ^ ^ ^ ^ ^ ^ ^ ^ ^ ^ ^ ^ ^ ^ ^ ^ / oXoXoX+.< < < < < < < < < < < < < < < < < < < < < < < < < < < < < < < < < < < < < < < < < < < < < < < < < < < < < < < < < < < < < < < < < < < < < < < < < < < < < < <                                                                                                                                                                                                                                                                                                                                                                                                                                                                                                                                                               ",
"                                                                                                                                                                                                                                                  ^ ^ ^ ^ ^ ^ ^ ^ ^ ^ ^ ^ ^ ^ ^ ^ ^ ^ ^ ^ ^ ^ ^ ^ / oXoXoX+.< < < < < < < < < < < < < < < < < < < < < < < < < < < < < < < < < < < < < < < < < < < < < < < < < < < < < < < < < < < < < < < < < < < < < < < < < < < <                                                                                                                                                                                                                                                                                                                                                                                                                                                                                                                                                                     ",
"                                                                                                                                                                                                                                                    ^ ^ ^ ^ ^ ^ ^ ^ ^ ^ ^ ^ ^ ^ ^ ^ ^ ^ ^ ^ ^ ^ ^ / oXoXoX+.< < < < < < < < < < < < < < < < < < < < < < < < < < < < < < < < < < < < < < < < < < < < < < < < < < < < < < < < < < < < < < < < < < < < < < < < <                                                                                                                                                                                                                                                                                                                                                                                                                                                                                                                                                                           ",
"                                                                                                                                                                                                                                                      ^ ^ ^ ^ ^ ^ ^ ^ ^ ^ ^ ^ ^ ^ ^ ^ ^ ^ ^ ^ ^ ^ / oXoXoX+.< < < < < < < < < < < < < < < < < < < < < < < < < < < < < < < < < < < < < < < < < < < < < < < < < < < < < < < < < < < < < < < < < < < < <                                                                                                                                                                                                                                                                                                                                                                                                                                                                                                                                                                                   ",
"                                                                                                                                                                                                                                                          J ^ ^ ^ ^ ^ ^ ^ ^ ^ ^ ^ ^ ^ ^ ^ ^ ^ ^ ^ / oXoXoX+.< < < < < < < < < < < < < < < < < < < < < < < < < < < < < < < < < < < < < < < < < < < < < < < < < < < < < < < < < < < < < < < < < <                                                                                                                                                                                                                                                                                                                                                                                                                                                                                                                                                                                         ",
"                                                                                                                                                                                                                                                            ^ ^ ^ ^ ^ ^ ^ ^ ^ ^ ^ ^ ^ ^ ^ ^ ^ ^ ^ / oXoXoX+.< < < < < < < < < < < < < < < < < < < < < < < < < < < < < < < < < < < < < < < < < < < < < < < < < < < < < < < < < < < < < <                                                                                                                                                                                                                                                                                                                                                                                                                                                                                                                                                                                                 ",
"                                                                                                                                                                                                                                                              ^ ^ ^ ^ ^ ^ ^ ^ ^ ^ ^ ^ ^ ^ ^ ^ ^ ^ / oXoXoX+.< < < < < < < < < < < < < < < < < < < < < < < < < < < < < < < < < < < < < < < < < < < < < < < < < < < < < < < < < < <                                                                                                                                                                                                                                                                                                                                                                                                                                                                                                                                                                                                       ",
"                                                                                                                                                                                                                                                                ^ ^ ^ ^ ^ ^ ^ ^ ^ ^ ^ ^ ^ ^ ^ ^ ^ / oXoXoX+.< < < < < < < < < < < < < < < < < < < < < < < < < < < < < < < < < < < < < < < < < < < < < < < < < < < < < < <                                                                                                                                                                                                                                                                                                                                                                                                                                                                                                                                                                                                               ",
"                                                                                                                                                                                                                                                                    ^ ^ ^ ^ ^ ^ ^ ^ ^ ^ ^ ^ ^ ^ ^ / oXoXoX+.< < < < < < < < < < < < < < < < < < < < < < < < < < < < < < < < < < < < < < < < < < < < < < < < < < < <                                                                                                                                                                                                                                                                                                                                                                                                                                                                                                                                                                                                                     ",
"                                                                                                                                                                                                                                                                      ^ ^ ^ ^ ^ ^ ^ ^ ^ ^ ^ ^ ^ ^ / oXoXoX+.< < < < < < < < < < < < < < < < < < < < < < < < < < < < < < < < < < < < < < < < < < < < < < < <                                                                                                                                                                                                                                                                                                                                                                                                                                                                                                                                                                                                                             ",
"                                                                                                                                                                                                                                                                        ^ ^ ^ ^ ^ ^ ^ ^ ^ ^ ^ ^ ^ / oXoXoX+.< < < < < < < < < < < < < < < < < < < < < < < < < < < < < < < < < < < < < < < < < < < < <                                                                                                                                                                                                                                                                                                                                                                                                                                                                                                                                                                                                                                   ",
"                                                                                                                                                                                                                                                                          J ^ ^ ^ ^ ^ ^ ^ ^ ^ ^ ^ / oXoXoX+.< < < < < < < < < < < < < < < < < < < < < < < < < < < < < < < < < < < < < < < < <                                                                                                                                                                                                                                                                                                                                                                                                                                                                                                                                                                                                                                           ",
"                                                                                                                                                                                                                                                                              ^ ^ ^ ^ ^ ^ ^ ^ ^ ^ / oXoXoX+.< < < < < < < < < < < < < < < < < < < < < < < < < < < < < < < < < < < < 2 <                                                                                                                                                                                                                                                                                                                                                                                                                                                                                                                                                                                                                                                 ",
"                                                                                                                                                                                                                                                                                ^ ^ ^ ^ ^ ^ ^ ^ ^ / oXoXoX+.< < < < < < < < < < < < < < < < < < < < < < < < < < < < < < < < < < <                                                                                                                                                                                                                                                                                                                                                                                                                                                                                                                                                                                                                                                       ",
"                                                                                                                                                                                                                                                                                  J ^ ^ ^ ^ ^ ^ ^ / oXoXoX+.< < < < < < < < < < < < < < < < < < < < < < < < < < < < < < <                                                                                                                                                                                                                                                                                                                                                                                                                                                                                                                                                                                                                                                               ",
"                                                                                                                                                                                                                                                                                    J ^ ^ ^ ^ ^ ^ / oXoXoX+.< < < < < < < < < < < < < < < < < < < < < < < < < < < <                                                                                                                                                                                                                                                                                                                                                                                                                                                                                                                                                                                                                                                                     ",
"                                                                                                                                                                                                                                                                                        ^ ^ ^ ^ ^ / oXoXoX+.< < < < < < < < < < < < < < < < < < < < < < < <                                                                                                                                                                                                                                                                                                                                                                                                                                                                                                                                                                                                                                                                             ",
"                                                                                                                                                                                                                                                                                          ^ ^ ^ ^ / oXoXoX5.< < < < < < < < < < < < < < < < < < < < <                                                                                                                                                                                                                                                                                                                                                                                                                                                                                                                                                                                                                                                                                   ",
"                                                                                                                                                                                                                                                                                            ^ ^ ^ / oXoXoX7.< < < < < < < < < < < < < < < < <                                                                                                                                                                                                                                                                                                                                                                                                                                                                                                                                                                                                                                                                                           ",
"                                                                                                                                                                                                                                                                                              ^ ^ / oXoXoX7.< < < < < < < < < < < < < <                                                                                                                                                                                                                                                                                                                                                                                                                                                                                                                                                                                                                                                                                                 ",
"                                                                                                                                                                                                                                                                                                  / oXoXoX7.< < < < < < < < < <                                                                                                                                                                                                                                                                                                                                                                                                                                                                                                                                                                                                                                                                                                         ",
"                                                                                                                                                                                                                                                                                                    r.oXoX7.< < < < < < <                                                                                                                                                                                                                                                                                                                                                                                                                                                                                                                                                                                                                                                                                                               ",
"                                                                                                                                                                                                                                                                                                      q..X7.< < < <                                                                                                                                                                                                                                                                                                                                                                                                                                                                                                                                                                                                                                                                                                                     ",
"                                                                                                                                                                                                                                                                                                        ` W                                                                                                                                                                                                                                                                                                                                                                                                                                                                                                                                                                                                                                                                                                                             ",
"                                                                                                                                                                                                                                                                                                                                                                                                                                                                                                                                                                                                                                                                                                                                                                                                                                                                                                                                                                                                                                        ",
"                                                                                                                                                                                                                                                                                                                                                                                                                                                                                                                                                                                                                                                                                                                                                                                                                                                                                                                                                                                                                                        ",
"                                                                                                                                                                                                                                                                                                                                                                                                                                                                                                                                                                                                                                                                                                                                                                                                                                                                                                                                                                                                                                        ",
"                                                                                                                                                                                                                                                                                                                                                                                                                                                                                                                                                                                                                                                                                                                                                                                                                                                                                                                                                                                                                                        ",
"                                                                                                                                                                                                                                                                                                                                                                                                                                                                                                                                                                                                                                                                                                                                                                                                                                                                                                                                                                                                                                        ",
"                                                                                                                                                                                                                                                                                                                                                                                                                                                                                                                                                                                                                                                                                                                                                                                                                                                                                                                                                                                                                                        ",
"                                                                                                                                                                                                                                                                                                                                                                                                                                                                                                                                                                                                                                                                                                                                                                                                                                                                                                                                                                                                                                        "
};

