static const char *icon_copy_xpm[] = {
/* columns rows colors chars-per-pixel */
"28 30 41 1 ",
"  c None",
". c gray83",
"X c #D5D5D5",
"o c gray84",
"O c #D7D7D7",
"+ c #D8D8D8",
"@ c gray85",
"# c #DADADA",
"$ c gray86",
"% c gainsboro",
"& c #DDDDDD",
"* c gray87",
"= c #DFDFDF",
"- c gray88",
"; c #E1E1E1",
": c #E2E2E2",
"> c gray89",
", c #E4E4E4",
"< c gray90",
"1 c #E6E6E6",
"2 c #E7E7E7",
"3 c gray91",
"4 c #E9E9E9",
"5 c #EAEAEA",
"6 c gray92",
"7 c #ECECEC",
"8 c gray93",
"9 c #EEEEEE",
"0 c #EFEFEF",
"q c gray94",
"w c #F1F1F1",
"e c gray95",
"r c #F3F3F3",
"t c #F4F4F4",
"y c gray96",
"u c #F6F6F6",
"i c gray97",
"p c #F8F8F8",
"a c #F9F9F9",
"s c gray98",
"d c #FBFBFB",
/* pixels */
"        24222:::==$$$OO=    ",
"        00044422:::==$$:    ",
"        0r0044422:::==$24   ",
"        0tr0044422:::==402  ",
"        0trr0004422::::0r02 ",
"        0ttrr0004422:::2::=$",
"        0rrrrr00044222::==$O",
" 222::=$::::===:0444222::==$",
"=0044422::===$$=20444222::=$",
":rr044222:::==$:440044222::=",
":trr004422::===:04400444222=",
":rtr00444222:==:r040r044222:",
"=rttr0044422:::2442:0tr0442:",
"=rrrrr0004422:::===$2ppt044:",
"=rrttrrr0044222::==$2pppt042",
"=rrrtrrrr0044222::==2ppppp02",
"=rrrrtr0rr0044422::=2ppppdp0",
"$rrrrrrrrrr0044422::2ppppppt",
"$rrrrtttttttr044422:4tpppppt",
"$rrrrrtttttpptr044224tpppppt",
"$rrrrrttttpppppt04424ttppppt",
"Orrrrrrttttpppppt0444rrttttr",
"O0rrrrrttttttpppppr4$       ",
"O00rrrrrttttpppppppr:       ",
"O0000rrrrtttttpppppp4       ",
"O0000rrrrrttttpppppp0       ",
"O00r0rrrrttttttppppp0       ",
"O0rr00rrrrtttttppppp0       ",
"O000000rrrttttttpppp0       ",
" OOOOOOO$$$$====::::        "
};
