/* XPM */
static const char * icon_clear_16_xpm[] = {
"16 16 114 2",
"  	c None",
". 	c #946009",
"+ 	c #8F5902",
"@ 	c #95600A",
"# 	c #9C6714",
"$ 	c #C69D5C",
"% 	c #DFB472",
"& 	c #8D5A09",
"* 	c #925E07",
"= 	c #CFA461",
"- 	c #8C5D13",
"; 	c #C08F40",
"> 	c #855B16",
", 	c #AB7826",
"' 	c #D59C46",
") 	c #C58B30",
"! 	c #7E581A",
"~ 	c #D8C311",
"{ 	c #93690E",
"] 	c #BA7E1D",
"^ 	c #C17F15",
"/ 	c #855C1B",
"( 	c #77521D",
"_ 	c #D5BF15",
": 	c #E3D23F",
"< 	c #D4BF15",
"[ 	c #CEAB14",
"} 	c #9E7217",
"| 	c #77541E",
"1 	c #A28587",
"2 	c #9B7D96",
"3 	c #B89F8F",
"4 	c #DCCB87",
"5 	c #E1CF41",
"6 	c #C6AF11",
"7 	c #BDA40F",
"8 	c #DAC316",
"9 	c #D6C21F",
"0 	c #C7B06A",
"a 	c #A0848A",
"b 	c #77537D",
"c 	c #89686A",
"d 	c #C0A83C",
"e 	c #BCA30D",
"f 	c #D9C517",
"g 	c #E3D23C",
"h 	c #FDF191",
"i 	c #FCF08E",
"j 	c #F6E771",
"k 	c #D5C05E",
"l 	c #815F5C",
"m 	c #5C3566",
"n 	c #95752F",
"o 	c #DAC417",
"p 	c #E7D84B",
"q 	c #F7EA7E",
"r 	c #FAEF8B",
"s 	c #F7E975",
"t 	c #EAD74C",
"u 	c #ECDA40",
"v 	c #E7D226",
"w 	c #A98D1B",
"x 	c #E6D644",
"y 	c #F4E775",
"z 	c #ECDB5E",
"A 	c #F7EA77",
"B 	c #F0E059",
"C 	c #E0C92F",
"D 	c #E7D327",
"E 	c #E2CB0D",
"F 	c #B4990B",
"G 	c #D9C416",
"H 	c #E4D23C",
"I 	c #F1E36A",
"J 	c #DAC528",
"K 	c #F7E977",
"L 	c #F1E25C",
"M 	c #E0C930",
"N 	c #DEC51E",
"O 	c #DAC30D",
"P 	c #E2CB0B",
"Q 	c #AF920B",
"R 	c #D7C20F",
"S 	c #EAD84E",
"T 	c #D1BC0E",
"U 	c #E6D44D",
"V 	c #F2E25E",
"W 	c #CEB81D",
"X 	c #D8BE19",
"Y 	c #DCC20D",
"Z 	c #C9B00B",
"` 	c #E1CA0B",
" .	c #AB8E0C",
"..	c #D2BC0E",
"+.	c #CCB60E",
"@.	c #ECDC55",
"#.	c #C8B115",
"$.	c #BEA40C",
"%.	c #D6BA0B",
"&.	c #DEC509",
"*.	c #B59A0C",
"=.	c #DBC30C",
"-.	c #AB900C",
";.	c #CAB413",
">.	c #C2AA0D",
",.	c #BDA40D",
"'.	c #BCA00B",
").	c #D3B707",
"!.	c #D5BD0B",
"~.	c #A98D0C",
"{.	c #C8AF0B",
"].	c #AD910B",
"^.	c #B79C0D",
"/.	c #AF940C",
"                        . + @   ",
"                      # $ % &   ",
"                    * = - ; >   ",
"                    , ' ) !     ",
"              ~   { ] ^ / (     ",
"              _ : < [ } |       ",
"            1 2 3 4 5 6 7       ",
"          8 9 0 a b c d e       ",
"        f g h i j k l m n       ",
"      o p q r s t u v w         ",
"    f x y z A B C D E F         ",
"  G H I J K L M N O P Q         ",
"  R S T U V W X Y Z `  .        ",
"    ..+.@.#.$.%.&.*.=.-.        ",
"      ;.>.,.'.).!.~.{.].        ",
"            ^./.~.~.~.          "};

static const char * icon_clear_64_xpm[] = {
"64 64 909 2",
"  	c None",
". 	c #8F5902",
"+ 	c #945E0C",
"@ 	c #AC7E3F",
"# 	c #B58B4F",
"$ 	c #AB7F43",
"% 	c #925E13",
"& 	c #A06F2C",
"* 	c #D4AB6B",
"= 	c #D0A869",
"- 	c #C59C5F",
"; 	c #D4AC6E",
"> 	c #D3AC6D",
", 	c #A47435",
"' 	c #905A05",
") 	c #CFA76A",
"! 	c #C09659",
"~ 	c #905A06",
"{ 	c #926022",
"] 	c #935F13",
"^ 	c #CBA162",
"/ 	c #D7AF70",
"( 	c #9D6A25",
"_ 	c #9F7033",
": 	c #DAB374",
"< 	c #98651D",
"[ 	c #CBBAAD",
"} 	c #FBFAF8",
"| 	c #B59A85",
"1 	c #A16917",
"2 	c #D8AE6C",
"3 	c #C3995B",
"4 	c #A77A3F",
"5 	c #95600E",
"6 	c #CFBFB3",
"7 	c #FEFDFC",
"8 	c #B89F8B",
"9 	c #9F6506",
"0 	c #CC964B",
"a 	c #D9B273",
"b 	c #99661F",
"c 	c #9D6D2C",
"d 	c #DBB475",
"e 	c #B37F37",
"f 	c #905A08",
"g 	c #966630",
"h 	c #915A02",
"i 	c #B5750D",
"j 	c #C2801B",
"k 	c #D9B06E",
"l 	c #BA8E4E",
"m 	c #8F5903",
"n 	c #D1A96A",
"o 	c #D2A35E",
"p 	c #B7760D",
"q 	c #AF700B",
"r 	c #BB780E",
"s 	c #C17D10",
"t 	c #CE994F",
"u 	c #D3A762",
"v 	c #925D0D",
"w 	c #AA7D40",
"x 	c #CA9143",
"y 	c #C48323",
"z 	c #D6A860",
"A 	c #AE7E38",
"B 	c #C0975A",
"C 	c #D9B070",
"D 	c #C48428",
"E 	c #CD9848",
"F 	c #C9994C",
"G 	c #905A03",
"H 	c #935F14",
"I 	c #D0A767",
"J 	c #D3A35D",
"K 	c #C17E12",
"L 	c #C58527",
"M 	c #D09E4E",
"N 	c #A36F23",
"O 	c #A0702D",
"P 	c #D5A963",
"Q 	c #CB9342",
"R 	c #C07D10",
"S 	c #BF7C10",
"T 	c #C8923E",
"U 	c #BB8737",
"V 	c #B2833F",
"W 	c #D3A458",
"X 	c #C48527",
"Y 	c #BD7B10",
"Z 	c #BB790F",
"` 	c #BD8125",
" .	c #C38F3A",
"..	c #986311",
"+.	c #905A04",
"@.	c #C29146",
"#.	c #CC9847",
"$.	c #BC7B14",
"%.	c #B9780F",
"&.	c #B7770F",
"*.	c #B57610",
"=.	c #BD8730",
"-.	c #AB7622",
";.	c #976215",
">.	c #C69343",
",.	c #C18933",
"'.	c #B6760F",
").	c #B4750F",
"!.	c #B2730E",
"~.	c #B47A1E",
"{.	c #B47E26",
"].	c #925C05",
"^.	c #C4A000",
"/.	c #A26F21",
"(.	c #C18D39",
"_.	c #B67B1F",
":.	c #B0720E",
"<.	c #AE710E",
"[.	c #AC7010",
"}.	c #AF781F",
"|.	c #9E6710",
"1.	c #D4B84B",
"2.	c #CBAB2E",
"3.	c #AC7726",
"4.	c #B8822B",
"5.	c #AD7212",
"6.	c #AA6F0E",
"7.	c #A86D0D",
"8.	c #A86F13",
"9.	c #A56F11",
"0.	c #AC8201",
"a.	c #C39E00",
"b.	c #CCAD35",
"c.	c #ECDB80",
"d.	c #FDF39D",
"e.	c #D4B94C",
"f.	c #915B05",
"g.	c #AE7923",
"h.	c #AD761C",
"i.	c #A66C0D",
"j.	c #A56B0D",
"k.	c #B08009",
"l.	c #C19B02",
"m.	c #C8A61F",
"n.	c #E4D072",
"o.	c #FBF19A",
"p.	c #FDF39B",
"q.	c #FDF39E",
"r.	c #D8BE52",
"s.	c #96600A",
"t.	c #A97219",
"u.	c #AC7A0E",
"v.	c #BD9603",
"w.	c #C5A105",
"x.	c #DCC45D",
"y.	c #F8EC92",
"z.	c #FDF39C",
"A.	c #FDF18E",
"B.	c #FDEF80",
"C.	c #DDC663",
"D.	c #966402",
"E.	c #B68E04",
"F.	c #D4B846",
"G.	c #F3E383",
"H.	c #FDF296",
"I.	c #FDF08D",
"J.	c #FDEF7F",
"K.	c #FDEF7E",
"L.	c #FDF298",
"M.	c #E6D377",
"N.	c #A27600",
"O.	c #690000",
"P.	c #C49F00",
"Q.	c #CBAB27",
"R.	c #E9D66A",
"S.	c #FDF089",
"T.	c #FDEE79",
"U.	c #FDEE76",
"V.	c #FDEE7A",
"W.	c #FDEF7D",
"X.	c #DFCD79",
"Y.	c #8F653F",
"Z.	c #6D0202",
"`.	c #9E1010",
" +	c #920808",
".+	c #C6A40D",
"++	c #DAC242",
"@+	c #F0E069",
"#+	c #F6E773",
"$+	c #FAEA6E",
"%+	c #FDEC6B",
"&+	c #FDED6F",
"*+	c #FDED73",
"=+	c #FDEE77",
"-+	c #EDDC71",
";+	c #A78644",
">+	c #6A0301",
",+	c #9B1D1D",
"'+	c #CC2929",
")+	c #CF2222",
"!+	c #C21515",
"~+	c #770202",
"{+	c #C4A102",
"]+	c #D1B528",
"^+	c #E2CF42",
"/+	c #E9D750",
"(+	c #EBD849",
"_+	c #F0DC43",
":+	c #F6E456",
"<+	c #FCEB67",
"[+	c #FDED6D",
"}+	c #F7E56D",
"|+	c #BEA34E",
"1+	c #70210B",
"2+	c #8F2020",
"3+	c #D64040",
"4+	c #E74040",
"5+	c #DD3333",
"6+	c #D32727",
"7+	c #C91B1B",
"8+	c #A20B0B",
"9+	c #C8A70B",
"0+	c #DDC836",
"a+	c #E3D141",
"b+	c #E3CF35",
"c+	c #E5CF24",
"d+	c #ECD737",
"e+	c #F2DF4A",
"f+	c #F8E65D",
"g+	c #D2B952",
"h+	c #80481D",
"i+	c #780B0B",
"j+	c #C83A3A",
"k+	c #FA5757",
"l+	c #F65252",
"m+	c #EC4545",
"n+	c #E23939",
"o+	c #D82D2D",
"p+	c #B91B1B",
"q+	c #7D0404",
"r+	c #7E4100",
"s+	c #C5A102",
"t+	c #D3B92A",
"u+	c #E3D043",
"v+	c #E7D547",
"w+	c #E9D433",
"x+	c #D7BF36",
"y+	c #926621",
"z+	c #6C0101",
"A+	c #A81C1C",
"B+	c #E33939",
"C+	c #F24848",
"D+	c #FA5555",
"E+	c #FB5757",
"F+	c #F14B4B",
"G+	c #DB3A3A",
"H+	c #9A1919",
"I+	c #6A0101",
"J+	c #A17E48",
"K+	c #CAAC41",
"L+	c #C5A106",
"M+	c #C9A917",
"N+	c #D6BF3E",
"O+	c #A3802D",
"P+	c #6A0800",
"Q+	c #8D0505",
"R+	c #C81A1A",
"S+	c #DE2A2A",
"T+	c #E63636",
"U+	c #EF4343",
"V+	c #F74F4F",
"W+	c #F75656",
"X+	c #BC3636",
"Y+	c #700505",
"Z+	c #8D613D",
"`+	c #DECB7C",
" @	c #FCEE8C",
".@	c #F9EC8D",
"+@	c #EEDF7C",
"@@	c #D5BA4A",
"#@	c #9C6E00",
"$@	c #6E1B00",
"%@	c #7A0000",
"&@	c #AD0101",
"*@	c #CA0C0C",
"=@	c #D31818",
"-@	c #DB2525",
";@	c #E33131",
">@	c #EA3D3D",
",@	c #CD3939",
"'@	c #811616",
")@	c #793D2A",
"!@	c #CCB77D",
"~@	c #FBEB80",
"{@	c #FDE84D",
"]@	c #FCE53B",
"^@	c #F7E249",
"/@	c #F4E470",
"(@	c #F3E684",
"_@	c #E3D168",
":@	c #C8A61C",
"<@	c #6E0000",
"[@	c #A00000",
"}@	c #C10000",
"|@	c #C30000",
"1@	c #C70606",
"2@	c #CF1313",
"3@	c #D71F1F",
"4@	c #CB2525",
"5@	c #8F1515",
"6@	c #6D160E",
"7@	c #B79E77",
"8@	c #F5E89E",
"9@	c #FEED77",
"0@	c #FDEA5C",
"a@	c #FDE73F",
"b@	c #F9E233",
"c@	c #F2DB29",
"d@	c #EEDA49",
"e@	c #F0E279",
"f@	c #E9DA72",
"g@	c #CCAE30",
"h@	c #890000",
"i@	c #C40202",
"j@	c #C30C0C",
"k@	c #9A0B0B",
"l@	c #6A0000",
"m@	c #9E7C55",
"n@	c #EADC9B",
"o@	c #FEF194",
"p@	c #FCEC76",
"q@	c #FEED6E",
"r@	c #FDEB60",
"s@	c #FDE952",
"t@	c #FDE744",
"u@	c #FBE437",
"v@	c #F4DD2D",
"w@	c #EED622",
"x@	c #E9D22C",
"y@	c #ECDC6D",
"z@	c #EADC75",
"A@	c #D1B63F",
"B@	c #B40000",
"C@	c #C00000",
"D@	c #9F0000",
"E@	c #700000",
"F@	c #875734",
"G@	c #DAC782",
"H@	c #FDEF8E",
"I@	c #FEEC6F",
"J@	c #FEED73",
"K@	c #F9E76C",
"L@	c #F9E665",
"M@	c #FEEB63",
"N@	c #FDE956",
"O@	c #FAE444",
"P@	c #F9E238",
"Q@	c #F6DF30",
"R@	c #EED624",
"S@	c #E8D01B",
"T@	c #E4CC19",
"U@	c #E7D65F",
"V@	c #EBDD77",
"W@	c #D6BE56",
"X@	c #810000",
"Y@	c #A60000",
"Z@	c #790000",
"`@	c #6F1D00",
" #	c #C0A65E",
".#	c #F9EA89",
"+#	c #FDEA62",
"@#	c #FDE954",
"##	c #FBE85D",
"$#	c #FCEA68",
"%#	c #FBEA6B",
"&#	c #F2DD57",
"*#	c #F8E45B",
"=#	c #FDEA58",
"-#	c #FAE548",
";#	c #F5DD36",
">#	c #F7DF31",
",#	c #F1D928",
"'#	c #E7CE1C",
")#	c #E3CA13",
"!#	c #DFC70D",
"~#	c #E3D154",
"{#	c #ECE083",
"]#	c #DBC66A",
"^#	c #C4A001",
"/#	c #7D4100",
"(#	c #BC9600",
"_#	c #F2E280",
":#	c #FBEA6F",
"<#	c #FDE84C",
"[#	c #FAE654",
"}#	c #F7E357",
"|#	c #FDEB67",
"1#	c #F6E25C",
"2#	c #ECD546",
"3#	c #F5DD38",
"4#	c #F1D82C",
"5#	c #F4DC2C",
"6#	c #EBD320",
"7#	c #E1C714",
"8#	c #DDC40C",
"9#	c #DBC305",
"0#	c #E1CE4C",
"a#	c #EEE38F",
"b#	c #DFCC76",
"c#	c #C4A105",
"d#	c #F2E380",
"e#	c #F8E668",
"f#	c #FBE438",
"g#	c #FCE84F",
"h#	c #F4DF4B",
"i#	c #F8E459",
"j#	c #FDEB62",
"k#	c #EED747",
"l#	c #EAD13C",
"m#	c #FCE84E",
"n#	c #FBE441",
"o#	c #EDD32A",
"p#	c #EFD628",
"q#	c #EFD824",
"r#	c #E7CF1F",
"s#	c #DCC115",
"t#	c #D8BE06",
"u#	c #DAC203",
"v#	c #E0CC45",
"w#	c #EFE598",
"x#	c #E2D281",
"y#	c #C5A213",
"z#	c #EFE07D",
"A#	c #F5E365",
"B#	c #F8E132",
"C#	c #FCE63C",
"D#	c #FDE847",
"E#	c #F6E147",
"F#	c #F1DA46",
"G#	c #FAE657",
"H#	c #E4CA32",
"I#	c #EFD73C",
"J#	c #FDE743",
"K#	c #F4DB31",
"L#	c #E6CB20",
"M#	c #EAD31D",
"N#	c #E4CE2F",
"O#	c #D6BB14",
"P#	c #D5BA02",
"Q#	c #DFCB48",
"R#	c #F0E69D",
"S#	c #E6D78A",
"T#	c #C7A522",
"U#	c #ECDC76",
"V#	c #F3E267",
"W#	c #F4DD2C",
"X#	c #FAE335",
"Y#	c #FDE63E",
"Z#	c #FBE545",
"`#	c #EDD439",
" $	c #F8E34E",
".$	c #FDE955",
"+$	c #F1DA44",
"@$	c #DEC123",
"#$	c #F7E03D",
"$$	c #FBE439",
"%$	c #E8CD23",
"&$	c #E3C81C",
"*$	c #EBD41F",
"=$	c #E6CE17",
"-$	c #E2CD3C",
";$	c #D3B712",
">$	c #D4B802",
",$	c #E0CC4C",
"'$	c #F0E69C",
")$	c #E9DC92",
"!$	c #C9A934",
"~$	c #E7D56D",
"{$	c #F1E16C",
"]$	c #F0D926",
"^$	c #F5DE2E",
"/$	c #EFD636",
"($	c #F0D83D",
"_$	c #FDE94F",
":$	c #E3C72A",
"<$	c #E1C424",
"[$	c #FCE539",
"}$	c #F3DB2E",
"|$	c #DEC117",
"1$	c #E4CA1A",
"2$	c #E7CF17",
"3$	c #E2CA18",
"4$	c #E1CD43",
"5$	c #D1B513",
"6$	c #D2B602",
"7$	c #D9C103",
"8$	c #E1CE4B",
"9$	c #EFE599",
"0$	c #ECE199",
"a$	c #CDB047",
"b$	c #E1CE62",
"c$	c #F0E171",
"d$	c #ECD420",
"e$	c #EFD726",
"f$	c #F7DF30",
"g$	c #F5DC35",
"h$	c #E7CC2B",
"i$	c #FCE747",
"j$	c #FDE848",
"k$	c #F6DF3E",
"l$	c #D5B614",
"m$	c #ECD22C",
"n$	c #F7E031",
"o$	c #E8CE28",
"p$	c #D8BA10",
"q$	c #E5CC16",
"r$	c #E2CA10",
"s$	c #DEC821",
"t$	c #E1CE48",
"u$	c #D1B417",
"v$	c #D0B301",
"w$	c #D9C003",
"x$	c #E2CF4A",
"y$	c #EEE393",
"z$	c #EFE59F",
"A$	c #D3BA5D",
"B$	c #DAC454",
"C$	c #EFE178",
"D$	c #E9D11A",
"E$	c #E9D01F",
"F$	c #F1D929",
"G$	c #F9E135",
"H$	c #E4C722",
"I$	c #F5DD39",
"J$	c #FDE742",
"K$	c #FDE740",
"L$	c #E5CA28",
"M$	c #D3B211",
"N$	c #F4DC2E",
"O$	c #F2DC31",
"P$	c #DCC12C",
"Q$	c #D7BA0E",
"R$	c #E2CB11",
"S$	c #DDC508",
"T$	c #DEC92E",
"U$	c #E3D04C",
"V$	c #D0B31B",
"W$	c #CEAF01",
"X$	c #D8BF07",
"Y$	c #E3D049",
"Z$	c #EDE189",
"`$	c #F0E7A2",
" %	c #DBC673",
".%	c #C4A107",
"+%	c #D2B841",
"@%	c #EEE17B",
"#%	c #E6CF26",
"$%	c #E5CC19",
"%%	c #EBD221",
"&%	c #F3DC2B",
"*%	c #E6CA23",
"=%	c #EBCF29",
"-%	c #FDE63B",
";%	c #F9E136",
">%	c #D1B010",
",%	c #DDC11D",
"'%	c #ECD745",
")%	c #D2B313",
"!%	c #D9BE0C",
"~%	c #DEC609",
"{%	c #E1CD3C",
"]%	c #E4D24E",
"^%	c #D1B421",
"/%	c #CCAC01",
"(%	c #D7BE0E",
"_%	c #E4D149",
":%	c #EBDD7C",
"<%	c #F1E8A1",
"[%	c #E4D488",
"}%	c #C7A628",
"|%	c #CAAA20",
"1%	c #ECDF79",
"2%	c #E5D03F",
"3%	c #E2C914",
"4%	c #E3C918",
"5%	c #EFD825",
"6%	c #EAD025",
"7%	c #DEC01A",
"8%	c #FAE235",
"9%	c #FAE336",
"0%	c #E7CC26",
"a%	c #C8A504",
"b%	c #EAD123",
"c%	c #EED830",
"d%	c #E2CB48",
"e%	c #CDAD05",
"f%	c #DBC108",
"g%	c #DAC206",
"h%	c #E3D047",
"i%	c #E5D350",
"j%	c #D2B728",
"k%	c #C9A801",
"l%	c #D4BA12",
"m%	c #E4D24A",
"n%	c #E9DA6C",
"o%	c #EBDF97",
"p%	c #CEB24C",
"q%	c #E8D96F",
"r%	c #E5D355",
"s%	c #E0C80F",
"t%	c #DDC211",
"u%	c #EAD21E",
"v%	c #EFD627",
"w%	c #D7B812",
"x%	c #EFD72B",
"y%	c #F6DF3C",
"z%	c #D0B022",
"A%	c #D1B20F",
"B%	c #ECD520",
"C%	c #EDDA4D",
"D%	c #D5B92F",
"E%	c #CDAD03",
"F%	c #DAC103",
"G%	c #DBC415",
"H%	c #E5D34E",
"I%	c #E5D451",
"J%	c #D5BC30",
"K%	c #C7A500",
"L%	c #D0B411",
"M%	c #E3D149",
"N%	c #E7D75D",
"O%	c #EEE391",
"P%	c #F0E6A1",
"Q%	c #DBC771",
"R%	c #C5A20F",
"S%	c #E0CD60",
"T%	c #E7D765",
"U%	c #DEC60A",
"V%	c #D9BD0C",
"W%	c #E3CA16",
"X%	c #EFD724",
"Y%	c #D9BB14",
"Z%	c #E2C61E",
"`%	c #F4DD30",
" &	c #EAD657",
".&	c #E1C618",
"+&	c #E9D32B",
"@&	c #E9D756",
"#&	c #CBAA12",
"$&	c #CFB102",
"%&	c #DDC624",
"&&	c #E6D451",
"*&	c #E6D553",
"=&	c #DAC33A",
"-&	c #C7A402",
";&	c #CBAB0D",
">&	c #E1CD45",
",&	c #E6D554",
"'&	c #EBDE7D",
")&	c #F1E7A1",
"!&	c #E9DC91",
"~&	c #CFB246",
"{&	c #C39F00",
"]&	c #D5BD49",
"^&	c #EADD75",
"/&	c #DCC412",
"(&	c #D8BD10",
"_&	c #DBC10E",
":&	c #E8D019",
"<&	c #EBD41E",
"[&	c #E0C51E",
"}&	c #D4B50F",
"|&	c #F1D927",
"1&	c #F2DA28",
"2&	c #F1DA27",
"3&	c #F4E260",
"4&	c #D5B937",
"5&	c #CBA906",
"6&	c #E9D64B",
"7&	c #DEC947",
"8&	c #C6A301",
"9&	c #DFCA33",
"0&	c #DFCA44",
"a&	c #C8A70E",
"b&	c #C6A404",
"c&	c #DBC53C",
"d&	c #E9DB70",
"e&	c #F1E8A3",
"f&	c #EDE39A",
"g&	c #C9AA2F",
"h&	c #BE9B00",
"i&	c #C9A922",
"j&	c #EBDE77",
"k&	c #DFCB41",
"l&	c #DBC32C",
"m&	c #D4B707",
"n&	c #E3CC12",
"o&	c #E7D018",
"p&	c #E8D137",
"q&	c #CDAC07",
"r&	c #E6CC1D",
"s&	c #EED723",
"t&	c #F1DD51",
"u&	c #ECDA5E",
"v&	c #C6A30B",
"w&	c #D8BC0D",
"x&	c #E4CE27",
"y&	c #E8D857",
"z&	c #D3B831",
"A&	c #C6A300",
"B&	c #D7BE03",
"C&	c #E1CE40",
"D&	c #E3D14C",
"E&	c #CEB122",
"F&	c #C4A100",
"G&	c #D3B933",
"H&	c #EEE496",
"I&	c #EBDF95",
"J&	c #CCAE3D",
"K&	c #E4D369",
"L&	c #E5D45F",
"M&	c #DFCB3B",
"N&	c #D0B206",
"O&	c #DCC30B",
"P&	c #E9D43A",
"Q&	c #D3B62A",
"R&	c #D6B810",
"S&	c #ECD41F",
"T&	c #EDD83D",
"U&	c #F0E064",
"V&	c #DAC244",
"W&	c #C7A401",
"X&	c #E5D246",
"Y&	c #E5D351",
"Z&	c #CAAB1C",
"`&	c #DAC30A",
" *	c #DDC866",
".*	c #C6A41E",
"+*	c #CCAE32",
"@*	c #C8A621",
"#*	c #C19D00",
"$*	c #C19E00",
"%*	c #D6BE4D",
"&*	c #EADD74",
"**	c #E1CD3E",
"=*	c #D3B826",
"-*	c #D4B905",
";*	c #DFC80C",
">*	c #E4CE29",
",*	c #E0CB49",
"'*	c #C9A703",
")*	c #E5CD18",
"!*	c #E9D222",
"~*	c #EFDE60",
"{*	c #ECDB5D",
"]*	c #C9A81E",
"^*	c #D0B205",
"/*	c #DFC924",
"(*	c #E1CD4A",
"_*	c #C6A308",
":*	c #CDAE01",
"<*	c #DBC419",
"[*	c #E5D44F",
"}*	c #E7D760",
"|*	c #F0E7A0",
"1*	c #D7C05E",
"2*	c #BD9A00",
"3*	c #B49300",
"4*	c #C8A61B",
"5*	c #E4D356",
"6*	c #DBC53E",
"7*	c #CDAF01",
"8*	c #DBC306",
"9*	c #DFC710",
"0*	c #E9D857",
"a*	c #CAA918",
"b*	c #D5B80C",
"c*	c #E6CE15",
"d*	c #EBD952",
"e*	c #ECDC5D",
"f*	c #DFC94B",
"g*	c #C5A100",
"h*	c #D8BE04",
"i*	c #E2D044",
"j*	c #DBC53F",
"k*	c #D0B302",
"l*	c #DAC204",
"m*	c #E3D257",
"n*	c #F0E79E",
"o*	c #ECE094",
"p*	c #D1B646",
"q*	c #B39200",
"r*	c #DDC95D",
"s*	c #E9DB6E",
"t*	c #E3D14D",
"u*	c #CCAC07",
"v*	c #D5BB02",
"w*	c #E6D44D",
"x*	c #E0C70F",
"y*	c #E3CB11",
"z*	c #E6D23C",
"A*	c #EBDA5B",
"B*	c #E9D959",
"C*	c #CEB02C",
"D*	c #CAAA01",
"E*	c #D5BC31",
"F*	c #D4BA1F",
"G*	c #E6D765",
"H*	c #E0CE6A",
"I*	c #C8A71A",
"J*	c #B69500",
"K*	c #CBAC2D",
"L*	c #E8D963",
"M*	c #D3B82D",
"N*	c #CEB002",
"O*	c #E0CD3B",
"P*	c #C9A81C",
"Q*	c #D0B105",
"R*	c #E0C80C",
"S*	c #E1C91B",
"T*	c #E1CE4D",
"U*	c #D3B702",
"V*	c #E3D046",
"W*	c #E6D556",
"X*	c #D5BD4F",
"Y*	c #C5A107",
"Z*	c #DBC556",
"`*	c #D1B637",
" =	c #B89600",
".=	c #DDCA5F",
"+=	c #ECDF7D",
"@=	c #DFCB4B",
"#=	c #C8A701",
"$=	c #D6BD03",
"%=	c #DDC623",
"&=	c #DCC745",
"*=	c #D7BC06",
"==	c #DDC507",
"-=	c #E4D146",
";=	c #E6D654",
">=	c #D4B937",
",=	c #C6A400",
"'=	c #DCC529",
")=	c #EADD79",
"!=	c #EFE59A",
"~=	c #CDAE32",
"{=	c #C09D00",
"]=	c #9C7F00",
"^=	c #C9A824",
"/=	c #E9DC76",
"(=	c #CEB021",
"_=	c #CDAD01",
":=	c #E4D24B",
"<=	c #D1B531",
"[=	c #DDC829",
"}=	c #E4D354",
"|=	c #C9A82A",
"1=	c #D3B943",
"2=	c #EFE597",
"3=	c #E1D07C",
"4=	c #CAAB2E",
"5=	c #AD8D00",
"6=	c #D6BE4E",
"7=	c #EEE28C",
"8=	c #E0CE60",
"9=	c #D4B902",
"0=	c #DFCA34",
"a=	c #E4D250",
"b=	c #C9A91C",
"c=	c #DAC104",
"d=	c #E5D55A",
"e=	c #ECDF83",
"f=	c #E4D484",
"g=	c #C9A923",
"h=	c #C3A000",
"i=	c #B29100",
"j=	c #A08200",
"k=	c #C4A104",
"l=	c #E1CF68",
"m=	c #D2B740",
"n=	c #D9C10A",
"o=	c #E4D34D",
"p=	c #E3D15F",
"q=	c #C7A524",
"r=	c #D0B435",
"s=	c #ECE086",
"t=	c #EDE299",
"u=	c #DDC975",
"v=	c #CAAA31",
"w=	c #B69400",
"x=	c #C7A61B",
"y=	c #E9DB83",
"z=	c #ECE196",
"A=	c #D4BB58",
"B=	c #DBC55B",
"C=	c #E9DB74",
"D=	c #E4D586",
"E=	c #C5A108",
"F=	c #AC8C00",
"G=	c #CAAB28",
"H=	c #EBDF8F",
"I=	c #E9DC8C",
"J=	c #D9C265",
"K=	c #DAC55C",
"L=	c #D8C262",
"M=	c #CFB248",
"N=	c #C5A210",
"O=	c #C29E00",
"P=	c #987C00",
"                                                                                                                                ",
"                    . . .                                                                                                       ",
"                . + @ # $ % .                                                                                                   ",
"              . & * = - ; > , .                                                                                                 ",
"              ' ) ! ~ { ] ^ / ( .                                                                                               ",
"              _ : < [ } | 1 2 3 .                                                                                               ",
"            . 4 : 5 6 7 8 9 0 a b .                                                                                             ",
"              c d e f g h i j k l .                                                                                             ",
"              m n o p q r s s t u v                                                                                             ",
"              . w : x s s s s y z A .                                                                                           ",
"                . B C D s s s s E F G                                                                                           ",
"                  H I J K s s s L M N .                                                                                         ",
"                  . O P Q s s R S T U .                                                                                         ",
"                    . V W X S Y Z `  ....                                                                                       ",
"                      +.@.#.$.%.&.*.=.-..                                                                                       ",
"                      . ;.>.,.'.).!.~.{.].        ^.^.                                                                          ",
"                        . /.(._.:.<.[.}.|..   ^.^.1.2.^.                                                                        ",
"                          . 3.4.5.6.7.8.9.0.a.b.c.d.e.^.                                                                        ",
"                          . f.g.h.i.j.k.l.m.n.o.p.q.r.^.                                                                        ",
"                            . s.t.u.v.w.x.y.z.A.B.d.C.^.                                                                        ",
"                              D.E.^.F.G.H.I.J.K.K.L.M.N.O.O.                                                                    ",
"                            ^.P.Q.R.I.S.T.U.V.W.K.X.Y.Z.`. +O.                                                                  ",
"                          ^..+++@+#+$+%+&+*+=+-+;+>+,+'+)+!+~+O.                                                                ",
"                      ^.{+]+^+/+(+_+:+<+[+}+|+1+2+3+4+5+6+7+8+O.                                                                ",
"                      ^.9+0+a+b+c+d+e+f+g+h+i+j+k+l+m+n+o+p+q+r+                                                                ",
"                        ^.s+t+u+v+w+x+y+z+A+B+C+D+E+F+G+H+I+J+K+L+^.                                                            ",
"                            ^.M+N+O+P+Q+R+S+T+U+V+W+X+Y+Z+`+ @.@+@@@^.^.                                                        ",
"                              #@$@%@&@*@=@-@;@>@,@'@)@!@~@{@]@^@/@(@_@:@^.                                                      ",
"                              <@[@}@|@1@2@3@4@5@6@7@8@9@0@{@a@b@c@d@e@f@g@^.                                                    ",
"                            O.h@|@|@|@i@j@k@l@m@n@o@p@q@r@s@t@u@v@w@x@y@z@A@^.                                                  ",
"                              l@B@|@C@D@E@F@G@H@I@J@K@L@M@N@O@P@Q@R@S@T@U@V@W@^.                                                ",
"                              O.X@Y@Z@`@ #.#+#@###$#%#&#*#=#-#;#>#,#'#)#!#~#{#]#^#                                              ",
"                                O.O./#(#_#:#a@<#[#}#|#1#2#[#{@3#4#5#6#7#8#9#0#a#b#c#^.                                          ",
"                                      ^.d#e#f#t@g#h#i#j#k#l#m#n#o#p#q#r#s#t#u#v#w#x#y#^.                                        ",
"                                      ^.z#A#B#C#D#E#F#0@G#H#I#J#K#L#R@M#N#O#P#u#Q#R#S#T#^.                                      ",
"                                      ^.U#V#W#X#Y#Z#`# $.$+$@$#$$$%$&$*$=$-$;$>$u#,$'$)$!$^.                                    ",
"                                      ^.~${$]$^$u@a@/$($_${@:$<$[$}$|$1$2$3$4$5$6$7$8$9$0$a$^.                                  ",
"                                      ^.b$c$d$e$f$u@g$h$i$j$k$l$m$n$o$p$q$r$s$t$u$v$w$x$y$z$A$^.                                ",
"                                      ^.B$C$D$E$F$n$G$H$I$J$K$L$M$N$O$P$Q$R$S$T$U$V$W$X$Y$Z$`$ %.%                              ",
"                                      ^.+%@%#%$%%%&%n$*%=%-%-%;%>%,%c@'%)%!%~%u#{%]%^%/%(%_%:%<%[%}%^.                          ",
"                                      ^.|%1%2%3%4%5%&%6%7%8%9%X#0%a%b%c%d%e%f%u#g%h%i%j%k%l%m%n%R#o%p%^.                        ",
"                                        s+q%r%s%t%u%5%v%w%x%n$n$y%z%A%B%C%D%E%F%u#G%H%I%J%K%L%M%N%O%P%Q%R%^.                    ",
"                                        ^.S%T%U%V%W%*$X%Y%Z%v@v@`% &^..&+&@&#&$&u#u#%&&&*&=&-&;&>&,&'&)&!&~&^.^.                ",
"                                        {&]&^&/&(&_&:&<&[&}&|&1&2&3&4&5&=$6&7&8&>$u#u#9&*&*&0&a&b&c&*&d&e&f&g&^.                ",
"                                        h&i&j&k&l&m&n&o&p&q&r&s&s&t&u&v&w&x&y&z&A&B&u#u#C&*&*&D&E&F&G&H&I&J&{&                  ",
"                                          ^.K&L&M&N&O&n&P&Q&R&<&S&T&U&V&W&!#X&Y&Z&k%7$u#`&_%*&*&*& *.*+*@*#*                    ",
"                                          $*%*&***=*-*;*>*,*'*)*D$!*~*{*]*^*/**&(*_*:*u#u#<*[*}*y$|*1*^.2*                      ",
"                                          3*4*z@5*6*7*8*9*0*a*b*c*c*d*e*f*g*h*i**&j*F&k*u#l*m*n*o*p*^.q*                        ",
"                                            {&r*s*t*u*v*9#w*++8&x*y*z*A*B*C*D*%&*&*&E*^.F*G*j&H*I*$*                            ",
"                                            J*K*V@L*M*N*u#O*,&P*Q*R*S*0*y&T*L+U*V**&W*X*Y*Z*`*^. =                              ",
"                                              {&.=+=@=#=$=%=*&&=^.*===-=;=*&>=,='=)='$!=~=^.{=]=                                ",
"                                              q*^=/='&(=_=l*:=*&<=K%w$[=*&*&}=|=1=2=3=4={&5=                                    ",
"                                                #*6=7=8=A&9=0=*&a=b=D*c=d=e=R#f=^#g=h=i=                                        ",
"                                                j=k=l=w#m=K%n=o=,&p=q=r=s=t=u=v={&i=                                            ",
"                                                  w=x=y=z=A=B=C=n*e&D=E=K*R%{=F=                                                ",
"                                                    h&G=H=I=J=K=L=M=N=O=w=P=                                                    ",
"                                                      #*^#^#^.{&2*q*                                                            ",
"                                                                                                                                ",
"                                                                                                                                ",
"                                                                                                                                ",
"                                                                                                                                ",
"                                                                                                                                ",
"                                                                                                                                ",
"                                                                                                                                "};