/* XPM */
static const char * icon_rechange_xpm[] = {
"16 16 124 2",
"  	c None",
". 	c #224D8B",
"+ 	c #214C89",
"@ 	c #224D89",
"# 	c #224D8A",
"$ 	c #234E8B",
"% 	c #234D8A",
"& 	c #244E8B",
"* 	c #244E8A",
"= 	c #6889B6",
"- 	c #9FB8D8",
"; 	c #B4C9E3",
"> 	c #B9CDE6",
", 	c #A9C1DE",
"' 	c #95B1D4",
") 	c #81A0C7",
"! 	c #3D6299",
"~ 	c #234E8A",
"{ 	c #2C568F",
"] 	c #214B88",
"^ 	c #3F659B",
"/ 	c #B4C8E2",
"( 	c #C4D5EA",
"_ 	c #BFD1E8",
": 	c #B6CBE5",
"< 	c #9CB9DC",
"[ 	c #8FB0D8",
"} 	c #749ECF",
"| 	c #7CA4D2",
"1 	c #A1BDDD",
"2 	c #6F91BC",
"3 	c #43699D",
"4 	c #91B0D4",
"5 	c #234C88",
"6 	c #7A9BC7",
"7 	c #7193C1",
"8 	c #5378AB",
"9 	c #345C94",
"0 	c #305992",
"a 	c #4B70A3",
"b 	c #7293BF",
"c 	c #A1BBDC",
"d 	c #84A8D4",
"e 	c #6694CA",
"f 	c #88ACD6",
"g 	c #94B5DA",
"h 	c #9FBDDE",
"i 	c #224C88",
"j 	c #214C8A",
"k 	c #2B538E",
"l 	c #84A4CB",
"m 	c #8BAED6",
"n 	c #6695CA",
"o 	c #6B99CC",
"p 	c #9ABADD",
"q 	c #224C8A",
"r 	c #3A6299",
"s 	c #98B8DB",
"t 	c #6897CB",
"u 	c #6D9BCD",
"v 	c #97B8DC",
"w 	c #29528D",
"x 	c #8AAAD2",
"y 	c #98B8DC",
"z 	c #95B6DB",
"A 	c #94B6DA",
"B 	c #254F8A",
"C 	c #254E8A",
"D 	c #234D89",
"E 	c #28508B",
"F 	c #29518C",
"G 	c #2A528C",
"H 	c #2C548E",
"I 	c #244E89",
"J 	c #204A87",
"K 	c #C2D5EA",
"L 	c #BBD0E8",
"M 	c #B7CDE6",
"N 	c #BACFE7",
"O 	c #A2BCDB",
"P 	c #2C548F",
"Q 	c #AEC7E3",
"R 	c #40669D",
"S 	c #C1D4EA",
"T 	c #91B2D9",
"U 	c #8DAACF",
"V 	c #2D558F",
"W 	c #214B89",
"X 	c #BED2E9",
"Y 	c #A9C3E1",
"Z 	c #94B4DA",
"` 	c #6896CA",
" .	c #7EA4D2",
"..	c #95B3D7",
"+.	c #678BBA",
"@.	c #42699F",
"#.	c #2D5690",
"$.	c #2E5791",
"%.	c #3D67A1",
"&.	c #4975AF",
"*.	c #4B77B2",
"=.	c #A5BFDC",
"-.	c #456A9E",
";.	c #6E90BB",
">.	c #9DBBDC",
",.	c #79A1D1",
"'.	c #6B98CC",
").	c #769FCF",
"!.	c #769ECF",
"~.	c #7AA1D0",
"{.	c #749DCE",
"].	c #6E97CC",
"^.	c #5D89C0",
"/.	c #2A548F",
"(.	c #2E5690",
"_.	c #355C95",
":.	c #6B90BE",
"<.	c #7498C6",
"[.	c #7A9ECC",
"}.	c #7CA1D0",
"|.	c #6C94C7",
"1.	c #5982BA",
"2.	c #3B65A1",
"3.	c #204B88",
"          . + @ # $ %         & ",
"      * = - ; > , ' ) ! ~   { ] ",
"    ^ / ( _ : < [ } | 1 2 3 4 5 ",
"  & 6 7 8 9 0 a b c d e f g h i ",
"+ + j +         # k l m n o p i ",
"q j                 r s t u v i ",
"]                 w x y z z A ] ",
"                % i B C D i ] D ",
"D E F G H H I %                 ",
"J K L M N O P                 ] ",
"J K u t Q R                 + q ",
"J S o n T U V %         q j + W ",
"J X Y Z `  ...+.@.#.$.%.&.*.#   ",
"J =.-.;.>.,.'.).!.~.{.].^./.    ",
"J (.  & _.:.<.[.}.|.1.2.@       ",
"&         % $ # 3.+ .           "};
